;FLAVOR:Marlin
;TIME:5665
;Filament used: 10.6023m
;Layer height: 0.3
;ZOFFSETPROCESSED
;Generated with Cura_SteamEngine 3.4.1
M190 S50
M104 S185
M109 S185
M82 ;absolute extrusion mode
G21 ;metric values
G90 ;absolute positioning
M82 ;set extruder to absolute mode
M107 ;start with the fan off
G28 ;Home all axes (max endstops)
G1 Z15.0 F9000 ;move the platform down 15mm
G92 E0 ;zero the extruded length
G1 F200 E3 ;extrude 3mm of feed stock
G92 E0 ;zero the extruded length again
G1 F9000
;Put printing message on LCD screen
M117 Printing...
G92 E0
;LAYER_COUNT:121
;LAYER:-8
M107
G0 F7200 X8.412 Y38.525 Z2.36 ;adjusted by z offset
G92 Z0.36 ;consider this the original z before offset
G1 F1350 X7.875 Y38.639 E0.06573
G1 X6.958 Y38.816 E0.17756
G1 X6.268 Y38.932 E0.26133
G1 X4.943 Y39.124 E0.42164
G1 X4.042 Y39.227 E0.53023
G1 X3.45 Y39.283 E0.60143
G1 X2.513 Y39.354 E0.71394
G1 X1.97 Y39.386 E0.77907
G1 X1.195 Y39.415 E0.87193
G1 X0.507 Y39.431 E0.95433
G1 X-.415 Y39.432 E1.06473
G1 X-.974 Y39.422 E1.13167
G1 X-1.97 Y39.385 E1.25101
G1 X-2.513 Y39.354 E1.31614
G1 X-3.45 Y39.283 E1.42865
G1 X-4.042 Y39.226 E1.49986
G1 X-4.943 Y39.124 E1.60843
G1 X-6.268 Y38.932 E1.76874
G1 X-6.989 Y38.81 E1.8563
G1 X-7.895 Y38.635 E1.96679
G1 X-8.407 Y38.527 E2.02944
G1 X-9.324 Y38.316 E2.14211
G1 X-9.871 Y38.179 E2.20963
G1 X-10.778 Y37.933 E2.32215
G1 X-11.306 Y37.779 E2.38801
G1 X-12.205 Y37.499 E2.50075
G1 X-12.731 Y37.323 E2.56716
G1 X-13.622 Y37.007 E2.68036
G1 X-14.149 Y36.809 E2.74777
G1 X-14.987 Y36.475 E2.85578
G1 X-15.527 Y36.249 E2.92587
G1 X-16.372 Y35.875 E3.03652
G1 X-16.884 Y35.638 E3.10407
G1 X-17.718 Y35.23 E3.21524
G1 X-18.21 Y34.978 E3.28143
G1 X-19.408 Y34.327 E3.44469
G1 X-20.348 Y33.779 E3.57497
G1 X-20.845 Y33.474 E3.64479
G1 X-21.609 Y32.986 E3.75334
G1 X-22.09 Y32.665 E3.82258
G1 X-22.818 Y32.163 E3.92846
G1 X-23.289 Y31.823 E3.99802
G1 X-24.069 Y31.237 E4.11483
G1 X-24.479 Y30.917 E4.1771
G1 X-25.247 Y30.292 E4.29566
G1 X-25.65 Y29.952 E4.3588
G1 X-26.359 Y29.331 E4.47165
G1 X-26.767 Y28.959 E4.53776
G1 X-27.646 Y28.121 E4.68317
G1 X-28.242 Y27.521 E4.78444
G1 X-28.889 Y26.843 E4.89665
G1 X-29.502 Y26.167 E5.00592
G1 X-29.883 Y25.731 E5.07524
G1 X-30.465 Y25.04 E5.18342
G1 X-30.821 Y24.599 E5.25128
G1 X-31.418 Y23.833 E5.36757
G1 X-31.736 Y23.408 E5.43112
G1 X-32.271 Y22.665 E5.54075
G1 X-32.581 Y22.217 E5.60598
G1 X-33.093 Y21.447 E5.7167
G1 X-33.368 Y21.013 E5.77822
G1 X-33.861 Y20.212 E5.89084
G1 X-34.163 Y19.697 E5.96232
G1 X-34.89 Y18.38 E6.14245
G1 X-35.314 Y17.552 E6.25383
G1 X-35.563 Y17.039 E6.32211
G1 X-35.981 Y16.136 E6.44125
G1 X-36.193 Y15.657 E6.50397
G1 X-36.54 Y14.83 E6.61136
G1 X-36.757 Y14.284 E6.68171
G1 X-37.097 Y13.377 E6.79769
G1 X-37.262 Y12.908 E6.85722
G1 X-37.556 Y12.028 E6.96831
G1 X-37.731 Y11.465 E7.03891
G1 X-37.995 Y10.558 E7.15201
G1 X-38.135 Y10.038 E7.21649
G1 X-38.402 Y8.964 E7.34901
G1 X-38.494 Y8.561 E7.3985
G1 X-38.67 Y7.727 E7.50056
G1 X-38.784 Y7.135 E7.57275
G1 X-38.942 Y6.217 E7.68428
G1 X-39.031 Y5.62 E7.75655
G1 X-39.149 Y4.74 E7.86286
G1 X-39.212 Y4.189 E7.92927
G1 X-39.3 Y3.261 E8.04088
G1 X-39.341 Y2.711 E8.10692
G1 X-39.395 Y1.784 E8.21811
G1 X-39.418 Y1.146 E8.29455
G1 X-39.434 Y0.215 E8.40604
G1 X-39.433 Y-.298 E8.46746
G1 X-39.415 Y-1.247 E8.58111
G1 X-39.394 Y-1.784 E8.64546
G1 X-39.341 Y-2.711 E8.75664
G1 X-39.3 Y-3.261 E8.82268
G1 X-39.212 Y-4.189 E8.93429
G1 X-39.149 Y-4.74 E9.00069
G1 X-39.032 Y-5.62 E9.10699
G1 X-38.943 Y-6.206 E9.17796
G1 X-38.784 Y-7.135 E9.29081
G1 X-38.67 Y-7.727 E9.363
G1 X-38.494 Y-8.561 E9.46506
G1 X-38.377 Y-9.071 E9.52771
G1 X-38.135 Y-10.038 E9.64707
G1 X-37.995 Y-10.558 E9.71155
G1 X-37.726 Y-11.482 E9.82678
G1 X-37.555 Y-12.028 E9.89528
G1 X-37.262 Y-12.908 E10.00634
G1 X-37.063 Y-13.469 E10.07761
G1 X-36.746 Y-14.311 E10.18534
G1 X-36.54 Y-14.83 E10.2522
G1 X-36.179 Y-15.69 E10.36387
G1 X-35.981 Y-16.136 E10.4223
G1 X-35.563 Y-17.039 E10.54145
G1 X-35.312 Y-17.555 E10.61015
G1 X-34.745 Y-18.651 E10.75791
G1 X-34.163 Y-19.697 E10.90123
G1 X-33.854 Y-20.223 E10.97428
G1 X-33.359 Y-21.03 E11.08763
G1 X-33.097 Y-21.441 E11.14599
G1 X-32.581 Y-22.216 E11.25748
G1 X-32.27 Y-22.665 E11.32287
G1 X-31.721 Y-23.428 E11.43543
G1 X-31.363 Y-23.905 E11.50684
G1 X-30.768 Y-24.666 E11.6225
G1 X-30.456 Y-25.051 E11.68184
G1 X-29.824 Y-25.8 E11.79918
G1 X-29.495 Y-26.176 E11.859
G1 X-28.845 Y-26.89 E11.97461
G1 X-28.241 Y-27.522 E12.07929
G1 X-27.646 Y-28.121 E12.18038
G1 X-26.767 Y-28.959 E12.32579
G1 X-26.359 Y-29.331 E12.3919
G1 X-25.649 Y-29.953 E12.50493
G1 X-25.247 Y-30.292 E12.56789
G1 X-24.479 Y-30.917 E12.68645
G1 X-23.994 Y-31.295 E12.76008
G1 X-23.289 Y-31.823 E12.86554
G1 X-22.818 Y-32.162 E12.93503
G1 X-22.09 Y-32.665 E13.04098
G1 X-21.609 Y-32.986 E13.11022
G1 X-20.845 Y-33.474 E13.21877
G1 X-20.348 Y-33.779 E13.28859
G1 X-19.408 Y-34.327 E13.41887
G1 X-18.21 Y-34.978 E13.58212
G1 X-17.717 Y-35.23 E13.64842
G1 X-16.883 Y-35.638 E13.75959
G1 X-16.372 Y-35.875 E13.82703
G1 X-15.527 Y-36.249 E13.93768
G1 X-15.027 Y-36.459 E14.00261
G1 X-14.169 Y-36.801 E14.11321
G1 X-13.626 Y-37.005 E14.18266
G1 X-12.731 Y-37.323 E14.29639
G1 X-12.205 Y-37.499 E14.3628
G1 X-11.308 Y-37.779 E14.47532
G1 X-10.778 Y-37.933 E14.5414
G1 X-9.871 Y-38.179 E14.65393
G1 X-9.324 Y-38.316 E14.72145
G1 X-8.412 Y-38.525 E14.83348
G1 X-7.875 Y-38.639 E14.89921
G1 X-6.958 Y-38.816 E15.01103
G1 X-6.268 Y-38.932 E15.09481
G1 X-4.94 Y-39.124 E15.25547
G1 X-4.042 Y-39.227 E15.3637
G1 X-3.45 Y-39.283 E15.4349
G1 X-2.513 Y-39.354 E15.54742
G1 X-1.97 Y-39.386 E15.61255
G1 X-1.195 Y-39.415 E15.70541
G1 X-.507 Y-39.431 E15.78781
G1 X0.415 Y-39.432 E15.8982
G1 X0.974 Y-39.422 E15.96515
G1 X1.97 Y-39.385 E16.08449
G1 X2.513 Y-39.354 E16.14961
G1 X3.45 Y-39.283 E16.26213
G1 X4.042 Y-39.226 E16.33334
G1 X4.94 Y-39.124 E16.44155
G1 X6.268 Y-38.932 E16.60222
G1 X6.989 Y-38.81 E16.68977
G1 X7.895 Y-38.635 E16.80026
G1 X8.407 Y-38.527 E16.86291
G1 X9.324 Y-38.316 E16.97558
G1 X9.871 Y-38.179 E17.0431
G1 X10.771 Y-37.935 E17.15475
G1 X11.308 Y-37.779 E17.22171
G1 X12.205 Y-37.499 E17.33422
G1 X12.731 Y-37.323 E17.40064
G1 X13.626 Y-37.005 E17.51436
G1 X14.141 Y-36.812 E17.58022
G1 X14.98 Y-36.478 E17.68834
G1 X15.52 Y-36.252 E17.75844
G1 X16.372 Y-35.875 E17.86999
G1 X16.884 Y-35.638 E17.93755
G1 X17.715 Y-35.232 E18.04829
G1 X18.21 Y-34.978 E18.11491
G1 X19.408 Y-34.327 E18.27816
G1 X20.341 Y-33.783 E18.40748
G1 X20.812 Y-33.495 E18.47358
G1 X21.591 Y-32.998 E18.58422
G1 X22.09 Y-32.665 E18.65605
G1 X22.818 Y-32.163 E18.76194
G1 X23.289 Y-31.823 E18.83149
G1 X24.068 Y-31.238 E18.94814
G1 X24.479 Y-30.917 E19.01058
G1 X25.247 Y-30.292 E19.12914
G1 X25.647 Y-29.955 E19.19177
G1 X26.359 Y-29.331 E19.30513
G1 X26.736 Y-28.988 E19.36615
G1 X27.646 Y-28.121 E19.51665
G1 X28.241 Y-27.522 E19.61774
G1 X28.846 Y-26.89 E19.7225
G1 X29.49 Y-26.182 E19.8371
G1 X29.88 Y-25.734 E19.90822
G1 X30.451 Y-25.057 E20.01426
G1 X30.821 Y-24.599 E20.08476
G1 X31.415 Y-23.837 E20.20045
G1 X31.721 Y-23.428 E20.26161
G1 X32.266 Y-22.671 E20.3733
G1 X32.581 Y-22.216 E20.43956
G1 X33.093 Y-21.447 E20.55018
G1 X33.402 Y-20.96 E20.61924
G1 X33.899 Y-20.148 E20.73323
G1 X34.163 Y-19.697 E20.7958
G1 X34.591 Y-18.936 E20.90034
G1 X34.886 Y-18.388 E20.97486
G1 X35.31 Y-17.559 E21.08635
G1 X35.56 Y-17.046 E21.15468
G1 X35.982 Y-16.136 E21.27479
G1 X36.176 Y-15.697 E21.33226
G1 X36.537 Y-14.837 E21.44393
G1 X36.747 Y-14.311 E21.51175
G1 X37.095 Y-13.382 E21.63053
G1 X37.26 Y-12.915 E21.68984
G1 X37.555 Y-12.03 E21.80154
G1 X37.726 Y-11.481 E21.87039
G1 X37.985 Y-10.593 E21.98114
G1 X38.125 Y-10.078 E22.04505
G1 X38.377 Y-9.071 E22.16934
G1 X38.486 Y-8.598 E22.22746
G1 X38.669 Y-7.73 E22.33367
G1 X38.784 Y-7.135 E22.40624
G1 X38.94 Y-6.225 E22.51679
G1 X39.031 Y-5.62 E22.59004
G1 X39.148 Y-4.747 E22.69551
G1 X39.211 Y-4.197 E22.76179
G1 X39.299 Y-3.269 E22.8734
G1 X39.341 Y-2.711 E22.94041
G1 X39.395 Y-1.787 E23.05123
G1 X39.415 Y-1.25 E23.11558
G1 X39.433 Y-.301 E23.22923
G1 X39.434 Y0.211 E23.29053
G1 X39.418 Y1.146 E23.4025
G1 X39.395 Y1.784 E23.47894
G1 X39.341 Y2.711 E23.59013
G1 X39.3 Y3.261 E23.65616
G1 X39.212 Y4.189 E23.76778
G1 X39.149 Y4.74 E23.83418
G1 X39.032 Y5.62 E23.94048
G1 X38.943 Y6.206 E24.01145
G1 X38.786 Y7.126 E24.1232
G1 X38.687 Y7.641 E24.18599
G1 X38.486 Y8.598 E24.30308
G1 X38.341 Y9.224 E24.38002
G1 X38.127 Y10.071 E24.48462
G1 X37.987 Y10.586 E24.54852
G1 X37.726 Y11.482 E24.66027
G1 X37.555 Y12.028 E24.72878
G1 X37.262 Y12.908 E24.83983
G1 X37.063 Y13.469 E24.9111
G1 X36.746 Y14.311 E25.01883
G1 X36.54 Y14.83 E25.08569
G1 X36.193 Y15.657 E25.19307
G1 X35.907 Y16.298 E25.27712
G1 X35.563 Y17.039 E25.37494
G1 X35.314 Y17.552 E25.44322
G1 X34.745 Y18.651 E25.5914
G1 X34.163 Y19.697 E25.73472
G1 X33.861 Y20.212 E25.80621
G1 X33.092 Y21.447 E25.98041
G1 X32.581 Y22.216 E26.09096
G1 X32.27 Y22.665 E26.15636
G1 X31.726 Y23.422 E26.26798
G1 X31.363 Y23.905 E26.34032
G1 X30.786 Y24.643 E26.45249
G1 X30.456 Y25.051 E26.51532
G1 X29.824 Y25.8 E26.63266
G1 X29.495 Y26.176 E26.69249
G1 X28.844 Y26.891 E26.80827
G1 X28.009 Y27.758 E26.9524
G1 X27.367 Y28.392 E27.06043
G1 X26.738 Y28.986 E27.16402
G1 X26.294 Y29.389 E27.23582
G1 X25.58 Y30.012 E27.34928
G1 X25.112 Y30.403 E27.4223
G1 X24.479 Y30.917 E27.51993
G1 X24.069 Y31.237 E27.58221
G1 X23.289 Y31.823 E27.69902
G1 X22.818 Y32.162 E27.76851
G1 X22.09 Y32.665 E27.87446
G1 X21.609 Y32.986 E27.9437
G1 X20.845 Y33.474 E28.05225
G1 X20.348 Y33.779 E28.12207
G1 X19.408 Y34.327 E28.25235
G1 X18.21 Y34.978 E28.4156
G1 X17.717 Y35.23 E28.4819
G1 X16.883 Y35.638 E28.59307
G1 X16.372 Y35.875 E28.66051
G1 X15.527 Y36.249 E28.77116
G1 X14.987 Y36.475 E28.84125
G1 X14.169 Y36.801 E28.94669
G1 X13.622 Y37.007 E29.01667
G1 X12.731 Y37.323 E29.12987
G1 X12.205 Y37.499 E29.19628
G1 X11.306 Y37.779 E29.30903
G1 X10.778 Y37.933 E29.37488
G1 X9.871 Y38.179 E29.48741
G1 X9.324 Y38.316 E29.55492
G1 X8.412 Y38.525 E29.66696
G0 F7200 X8 Y38.613
G1 F1350 X8 Y-38.612 E38.91361
G0 F7200 X6.4 Y-38.909
G1 F1350 X6.4 Y38.91 E48.23138
G0 F7200 X4.8 Y39.141
G1 F1350 X4.8 Y-39.139 E57.60435
G0 F7200 X3.2 Y-39.301
G1 F1350 X3.2 Y39.302 E67.016
G0 F7200 X1.6 Y39.4
G1 F1350 X1.6 Y-39.398 E76.45099
G0 F7200 X0.00 Y-39.432
G1 F1350 X0.00 Y39.432 E85.89389
G0 F7200 X-1.6 Y39.398
G1 F1350 X-1.6 Y-39.4 E95.32889
G0 F7200 X-3.2 Y-39.302
G1 F1350 X-3.2 Y39.301 E104.74053
G0 F7200 X-4.8 Y39.14
G1 F1350 X-4.8 Y-39.141 E114.11363
G0 F7200 X-6.4 Y-38.91
G1 F1350 X-6.4 Y38.909 E123.4314
G0 F7200 X-8 Y38.612
G1 F1350 X-8 Y-38.613 E132.67805
G0 F7200 X-9.6 Y-38.247
G1 F1350 X-9.6 Y38.246 E141.83705
G0 F7200 X-11.2 Y37.809
G1 F1350 X-11.2 Y-37.811 E150.89153
G0 F7200 X-12.8 Y-37.299
G1 F1350 X-12.8 Y37.298 E159.82351
G0 F7200 X-14.4 Y36.708
G1 F1350 X-14.4 Y-36.709 E168.6142
G0 F7200 X-16 Y-36.04
G1 F1350 X-16 Y36.039 E177.24469
G0 F7200 X-17.6 Y35.287
G1 F1350 X-17.6 Y-35.288 E185.69509
G0 F7200 X-19.2 Y-34.441
G1 F1350 X-19.2 Y34.44 E193.94266
G0 F7200 X-20.8 Y33.501
G1 F1350 X-20.8 Y-33.502 E201.96536
G0 F7200 X-22.4 Y-32.451
G1 F1350 X-22.4 Y32.451 E209.7365
G0 F7200 X-24 Y31.288
G1 F1350 X-24 Y-31.291 E217.22949
G0 F7200 X-25.6 Y-29.995
G1 F1350 X-25.6 Y29.994 E224.41236
G0 F7200 X-27.2 Y28.546
G1 F1350 X-27.2 Y-28.547 E231.24848
G0 F7200 X-28.8 Y-26.938
G1 F1350 X-28.8 Y26.936 E237.69916
G0 F7200 X-30.4 Y25.117
G1 F1350 X-30.4 Y-25.118 E243.71412
G0 F7200 X-32 Y-23.041
G1 F1350 X-32 Y23.041 E249.23182
G0 F7200 X-33.6 Y20.636
G1 F1350 X-33.6 Y-20.638 E254.17382
G0 F7200 X-35.2 Y-17.772
G1 F1350 X-35.2 Y17.774 E258.42998
G0 F7200 X-36.8 Y14.169
G1 F1350 X-36.8 Y-14.168 E261.82295
G0 F7200 X-38.4 Y-8.971
G1 F1350 X-38.4 Y8.972 E263.97138
G0 F7200 X9.6 Y38.247
G1 F1350 X9.6 Y-38.246 E273.13039
G0 F7200 X11.2 Y-37.81
G1 F1350 X11.2 Y37.81 E282.18486
G0 F7200 X12.8 Y37.299
G1 F1350 X12.8 Y-37.298 E291.11684
G0 F7200 X14.4 Y-36.708
G1 F1350 X14.4 Y36.709 E299.90753
G0 F7200 X16 Y36.04
G1 F1350 X16 Y-36.039 E308.53802
G0 F7200 X17.6 Y-35.288
G1 F1350 X17.6 Y35.288 E316.98854
G0 F7200 X19.2 Y34.441
G1 F1350 X19.2 Y-34.44 E325.23611
G0 F7200 X20.8 Y-33.502
G1 F1350 X20.8 Y33.502 E333.25894
G0 F7200 X22.4 Y32.451
G1 F1350 X22.4 Y-32.451 E341.03007
G0 F7200 X24 Y-31.289
G1 F1350 X24 Y31.289 E348.52294
G0 F7200 X25.6 Y29.995
G1 F1350 X25.6 Y-29.994 E355.70582
G0 F7200 X27.2 Y-28.545
G1 F1350 X27.2 Y28.55 E362.54217
G0 F7200 X28.8 Y26.937
G1 F1350 X28.8 Y-26.938 E368.99297
G0 F7200 X30.4 Y-25.117
G1 F1350 X30.4 Y25.118 E375.00794
G0 F7200 X32 Y23.041
G1 F1350 X32 Y-23.04 E380.52551
G0 F7200 X33.6 Y-20.636
G1 F1350 X33.6 Y20.632 E385.4668
G0 F7200 X35.2 Y17.773
G1 F1350 X35.2 Y-17.774 E389.72307
G0 F7200 X36.8 Y-14.169
G1 F1350 X36.8 Y14.168 E393.11604
G0 F7200 X38.4 Y8.97
G1 F1350 X38.4 Y-8.971 E395.26424
G0 F7200 X-23.46 Y31.693
;TIME_ELAPSED:150.266744
;LAYER:-7
M140 S50
G0 X-23.46 Y31.693 Z0.809
;TYPE:SUPPORT
G1 F1350 X-23.289 Y31.822 E395.29622
G1 X-22.818 Y32.162 E395.38297
G1 X-22.09 Y32.664 E395.51503
G1 X-21.609 Y32.985 E395.60139
G1 X-20.844 Y33.473 E395.7369
G1 X-20.347 Y33.778 E395.82398
G1 X-19.422 Y34.318 E395.98394
G1 X-34.309 Y19.43 E399.12812
G1 X-34.889 Y18.379 E399.30738
G1 X-35.312 Y17.551 E399.44624
G1 X-35.562 Y17.039 E399.53133
G1 X-35.8 Y16.525 E399.61591
G1 X-16.52 Y35.805 E403.68777
G1 X-16.372 Y35.874 E403.71216
G1 X-15.527 Y36.248 E403.85015
G1 X-14.987 Y36.474 E403.93758
G1 X-14.148 Y36.808 E404.07243
G1 X-14.076 Y36.835 E404.08392
G1 X-36.833 Y14.077 E408.89021
G1 X-37.096 Y13.377 E409.00188
G1 X-37.26 Y12.908 E409.07608
G1 X-37.555 Y12.027 E409.21482
G1 X-37.594 Y11.902 E409.23438
G1 X-11.905 Y37.591 E414.65979
G1 X-11.305 Y37.778 E414.75364
G1 X-10.777 Y37.932 E414.83578
G1 X-9.917 Y38.165 E414.96884
G1 X-38.163 Y9.919 E420.93427
G1 X-38.4 Y8.963 E421.08136
G1 X-38.492 Y8.56 E421.14309
G1 X-38.596 Y8.072 E421.21761
G1 X-8.072 Y38.596 E427.66415
G1 X-7.894 Y38.634 E427.69133
G1 X-6.989 Y38.808 E427.82896
G1 X-6.334 Y38.919 E427.92817
G1 X-38.921 Y6.332 E434.81041
G1 X-38.941 Y6.216 E434.82799
G1 X-39.03 Y5.62 E434.91798
G1 X-39.148 Y4.74 E435.05057
G1 X-39.154 Y4.685 E435.05883
G1 X-4.688 Y39.151 E442.33791
G1 X-4.042 Y39.225 E442.43501
G1 X-3.449 Y39.281 E442.52396
G1 X-3.119 Y39.306 E442.57339
G1 X-39.31 Y3.115 E450.21678
G1 X-39.34 Y2.711 E450.27727
G1 X-39.393 Y1.784 E450.41594
G1 X-39.4 Y1.611 E450.44179
G1 X-1.615 Y39.397 E458.42193
G1 X-.974 Y39.421 E458.51773
G1 X-.415 Y39.431 E458.60122
G1 X-.166 Y39.431 E458.6384
G1 X-39.433 Y0.164 E466.93143
G1 X-39.432 Y-.298 E467.00043
G1 X-39.414 Y-1.231 E467.13978
G1 X1.228 Y39.412 E475.72331
G1 X1.969 Y39.385 E475.83404
G1 X2.513 Y39.353 E475.91542
G1 X2.578 Y39.347 E475.92517
G1 X-39.348 Y-2.578 E484.77966
G1 X-39.34 Y-2.711 E484.79956
G1 X-39.299 Y-3.261 E484.88192
G1 X-39.24 Y-3.885 E484.97553
G1 X3.884 Y39.24 E494.08324
G1 X4.041 Y39.226 E494.10678
G1 X4.943 Y39.123 E494.24236
G1 X5.151 Y39.093 E494.27374
G1 X-39.093 Y-5.152 E503.618
G1 X-39.03 Y-5.62 E503.68852
G1 X-38.942 Y-6.206 E503.77701
G1 X-38.912 Y-6.385 E503.80412
G1 X6.384 Y38.911 E513.37044
G1 X6.957 Y38.815 E513.45721
G1 X7.582 Y38.695 E513.55225
G1 X-38.697 Y-7.584 E523.32618
G1 X-38.669 Y-7.726 E523.34779
G1 X-38.492 Y-8.56 E523.47511
G1 X-38.449 Y-8.751 E523.50435
G1 X8.748 Y38.446 E533.47216
G1 X9.323 Y38.315 E533.56023
G1 X9.871 Y38.178 E533.64459
G1 X9.888 Y38.173 E533.64723
G1 X-38.172 Y-9.888 E543.79741
G1 X-38.134 Y-10.038 E543.82052
G1 X-37.994 Y-10.558 E543.90094
G1 X-37.866 Y-10.996 E543.96909
G1 X10.997 Y37.867 E554.28875
G1 X11.305 Y37.778 E554.33663
G1 X12.08 Y37.536 E554.45787
G1 X-37.536 Y-12.08 E564.93657
G1 X-37.26 Y-12.908 E565.06691
G1 X-37.179 Y-13.138 E565.10332
G1 X13.136 Y37.178 E575.72975
G1 X13.622 Y37.006 E575.80674
G1 X14.171 Y36.799 E575.89436
G1 X-36.798 Y-14.171 E586.6589
G1 X-36.744 Y-14.311 E586.68131
G1 X-36.539 Y-14.83 E586.76465
G1 X-36.392 Y-15.179 E586.8212
G1 X15.18 Y36.393 E597.71299
G1 X15.527 Y36.248 E597.76915
G1 X16.165 Y35.964 E597.87344
G1 X-35.966 Y-16.167 E608.88329
G1 X-35.562 Y-17.039 E609.02681
G1 X-35.517 Y-17.132 E609.04224
G1 X17.13 Y35.515 E620.16107
G1 X17.717 Y35.229 E620.25858
