;FLAVOR:Marlin
;TIME:9247
;Filament used: 16.4124m
;Layer height: 0.3
;ZOFFSETPROCESSED
;Generated with Cura_SteamEngine 3.4.1
M190 S50
M104 S185
M109 S185
M82 ;absolute extrusion mode
G21 ;metric values
G90 ;absolute positioning
M82 ;set extruder to absolute mode
M107 ;start with the fan off
G28 ;Home all axes (max endstops)
G1 Z15.0 F9000 ;move the platform down 15mm
G92 E0 ;zero the extruded length
G1 F200 E3 ;extrude 3mm of feed stock
G92 E0 ;zero the extruded length again
G1 F9000
;Put printing message on LCD screen
M117 Printing...
G92 E0
;LAYER_COUNT:401
;LAYER:-8
M107
G0 F7200 X-1.724 Y-12.244 Z2.36 ;adjusted by z offset
G92 Z0.36 ;consider this the original z before offset
G1 F1350 X-2.276 Y-12.154 E0.06697
G1 X-3.043 Y-11.985 E0.16101
G1 X-3.583 Y-11.836 E0.22808
G1 X-4.309 Y-11.592 E0.31979
G1 X-4.836 Y-11.383 E0.38767
G1 X-5.541 Y-11.056 E0.48072
G1 X-6.037 Y-10.793 E0.54795
G1 X-6.701 Y-10.394 E0.6407
G1 X-7.169 Y-10.076 E0.70845
G1 X-7.792 Y-9.602 E0.80218
G1 X-8.22 Y-9.239 E0.86938
G1 X-8.786 Y-8.703 E0.96272
G1 X-9.172 Y-8.295 E1.02997
G1 X-9.673 Y-7.706 E1.12255
G1 X-10.015 Y-7.255 E1.19032
G1 X-10.452 Y-6.61 E1.28361
G1 X-10.741 Y-6.129 E1.3508
G1 X-11.102 Y-5.448 E1.44309
G1 X-11.338 Y-4.941 E1.51005
G1 X-11.626 Y-4.221 E1.6029
G1 X-11.807 Y-3.681 E1.67109
G1 X-12.014 Y-2.932 E1.76414
G1 X-12.135 Y-2.386 E1.8311
G1 X-12.261 Y-1.621 E1.92393
G1 X-12.322 Y-1.053 E1.99234
G1 X-12.363 Y-.275 E2.08562
G1 X-12.363 Y0.275 E2.15147
G1 X-12.322 Y1.053 E2.24476
G1 X-12.261 Y1.621 E2.31316
G1 X-12.135 Y2.386 E2.40599
G1 X-12.014 Y2.932 E2.47296
G1 X-11.807 Y3.681 E2.566
G1 X-11.626 Y4.221 E2.63419
G1 X-11.338 Y4.941 E2.72704
G1 X-11.102 Y5.448 E2.79401
G1 X-10.741 Y6.129 E2.88629
G1 X-10.452 Y6.61 E2.95348
G1 X-10.015 Y7.255 E3.04677
G1 X-9.673 Y7.706 E3.11454
G1 X-9.172 Y8.295 E3.20713
G1 X-8.786 Y8.703 E3.27438
G1 X-8.22 Y9.239 E3.36772
G1 X-7.792 Y9.602 E3.43491
G1 X-7.169 Y10.076 E3.52865
G1 X-6.701 Y10.394 E3.59639
G1 X-6.037 Y10.793 E3.68915
G1 X-5.541 Y11.056 E3.75637
G1 X-4.836 Y11.383 E3.84942
G1 X-4.309 Y11.592 E3.91731
G1 X-3.583 Y11.836 E4.00901
G1 X-3.043 Y11.985 E4.07609
G1 X-2.276 Y12.154 E4.17013
G1 X-1.724 Y12.244 E4.23709
G1 X-.952 Y12.329 E4.33009
G1 X-.387 Y12.36 E4.39784
G1 X0.387 Y12.36 E4.49052
G1 X0.952 Y12.329 E4.55827
G1 X1.724 Y12.244 E4.65127
G1 X2.276 Y12.154 E4.71823
G1 X3.043 Y11.985 E4.81227
G1 X3.583 Y11.836 E4.87935
G1 X4.309 Y11.592 E4.97106
G1 X4.836 Y11.383 E5.03894
G1 X5.541 Y11.056 E5.13199
G1 X6.037 Y10.793 E5.19921
G1 X6.701 Y10.394 E5.29197
G1 X7.169 Y10.076 E5.35972
G1 X7.792 Y9.602 E5.45345
G1 X8.22 Y9.239 E5.52064
G1 X8.786 Y8.703 E5.61398
G1 X9.172 Y8.295 E5.68123
G1 X9.673 Y7.706 E5.77382
G1 X10.015 Y7.255 E5.84159
G1 X10.452 Y6.61 E5.93488
G1 X10.741 Y6.129 E6.00207
G1 X11.102 Y5.448 E6.09436
G1 X11.338 Y4.941 E6.16132
G1 X11.626 Y4.221 E6.25417
G1 X11.807 Y3.681 E6.32236
G1 X12.014 Y2.932 E6.41541
G1 X12.135 Y2.386 E6.48237
G1 X12.261 Y1.621 E6.5752
G1 X12.322 Y1.053 E6.6436
G1 X12.363 Y0.275 E6.73689
G1 X12.363 Y-.275 E6.80274
G1 X12.322 Y-1.053 E6.89603
G1 X12.261 Y-1.621 E6.96443
G1 X12.135 Y-2.386 E7.05726
G1 X12.014 Y-2.932 E7.12422
G1 X11.807 Y-3.681 E7.21727
G1 X11.626 Y-4.221 E7.28546
G1 X11.338 Y-4.941 E7.37831
G1 X11.102 Y-5.448 E7.44527
G1 X10.741 Y-6.129 E7.53756
G1 X10.452 Y-6.61 E7.60475
G1 X10.015 Y-7.255 E7.69804
G1 X9.673 Y-7.706 E7.76581
G1 X9.172 Y-8.295 E7.8584
G1 X8.786 Y-8.703 E7.92565
G1 X8.22 Y-9.239 E8.01898
G1 X7.792 Y-9.602 E8.08618
G1 X7.169 Y-10.076 E8.17991
G1 X6.701 Y-10.394 E8.24766
G1 X6.037 Y-10.793 E8.34042
G1 X5.541 Y-11.056 E8.40764
G1 X4.836 Y-11.383 E8.50069
G1 X4.309 Y-11.592 E8.56857
G1 X3.583 Y-11.836 E8.66028
G1 X3.043 Y-11.985 E8.72735
G1 X2.276 Y-12.154 E8.82139
G1 X1.724 Y-12.244 E8.88836
G1 X0.952 Y-12.329 E8.98136
G1 X0.387 Y-12.36 E9.04911
G1 X-.387 Y-12.36 E9.14179
G1 X-.952 Y-12.329 E9.20954
G1 X-1.724 Y-12.244 E9.30253
G0 F7200 X-49.189 Y-6.222
G1 F1350 X-48.576 Y-9.943 E9.75408
G1 X-48.23 Y-11.5 E9.94506
G1 X-47.212 Y-15.149 E10.39866
G1 X-46.708 Y-16.637 E10.58677
G1 X-45.305 Y-20.149 E11.0396
G1 X-44.634 Y-21.592 E11.23014
G1 X-42.914 Y-24.838 E11.67
G1 X-42.098 Y-26.196 E11.8597
G1 X-39.917 Y-29.412 E12.32497
G1 X-38.953 Y-30.678 E12.5155
G1 X-36.496 Y-33.565 E12.96942
G1 X-35.399 Y-34.718 E13.15998
G1 X-32.65 Y-37.317 E13.61295
G1 X-31.437 Y-38.343 E13.80318
G1 X-28.449 Y-40.61 E14.25227
G1 X-27.1 Y-41.521 E14.44718
G1 X-23.879 Y-43.454 E14.89697
G1 X-22.47 Y-44.199 E15.08781
G1 X-19.164 Y-45.728 E15.52395
G1 X-17.659 Y-46.332 E15.71812
G1 X-13.962 Y-47.577 E16.18521
G1 X-12.433 Y-47.997 E16.37507
G1 X-8.753 Y-48.804 E16.82617
G1 X-7.198 Y-49.058 E17.01483
G1 X-3.449 Y-49.464 E17.46635
G1 X-1.93 Y-49.546 E17.64849
G1 X1.831 Y-49.549 E18.09882
G1 X3.516 Y-49.459 E18.30086
G1 X7.267 Y-49.048 E18.75268
G1 X8.873 Y-48.781 E18.94762
G1 X12.557 Y-47.967 E19.39937
G1 X14.111 Y-47.531 E19.59262
G1 X17.659 Y-46.332 E20.04105
G1 X19.164 Y-45.728 E20.23522
G1 X22.559 Y-44.155 E20.68324
G1 X23.987 Y-43.394 E20.87699
G1 X27.202 Y-41.456 E21.32647
G1 X28.522 Y-40.558 E21.51763
G1 X31.534 Y-38.264 E21.97097
G1 X32.641 Y-37.325 E22.14478
G1 X35.393 Y-34.724 E22.59818
G1 X36.496 Y-33.565 E22.78975
G1 X38.953 Y-30.678 E23.24367
G1 X39.991 Y-29.311 E23.44919
G1 X42.092 Y-26.206 E23.89809
G1 X42.909 Y-24.847 E24.08795
G1 X44.635 Y-21.592 E24.5291
G1 X45.352 Y-20.038 E24.73402
G1 X46.743 Y-16.542 E25.18453
G1 X47.259 Y-14.998 E25.37946
G1 X48.259 Y-11.383 E25.82856
G1 X48.601 Y-9.809 E26.02142
G1 X49.206 Y-6.101 E26.47128
G1 X49.378 Y-4.495 E26.66467
G1 X49.575 Y-.848 E27.10199
G1 X49.578 Y0.746 E27.29285
G1 X49.368 Y4.615 E27.75679
G1 X49.189 Y6.222 E27.9504
G1 X48.576 Y9.943 E28.40194
G1 X48.234 Y11.487 E28.5913
G1 X47.212 Y15.149 E29.04653
G1 X46.71 Y16.631 E29.23388
G1 X45.305 Y20.149 E29.68747
G1 X44.634 Y21.592 E29.87801
G1 X42.914 Y24.838 E30.31787
G1 X42.098 Y26.196 E30.50757
G1 X39.918 Y29.412 E30.97277
G1 X39.014 Y30.602 E31.15171
G1 X36.591 Y33.458 E31.60017
G1 X35.489 Y34.629 E31.7927
G1 X32.65 Y37.317 E32.26083
G1 X31.437 Y38.343 E32.45106
G1 X28.449 Y40.61 E32.90015
G1 X27.1 Y41.521 E33.09505
G1 X23.879 Y43.454 E33.54484
G1 X22.47 Y44.199 E33.73568
G1 X19.023 Y45.789 E34.19021
G1 X17.546 Y46.373 E34.38038
G1 X13.962 Y47.577 E34.83308
G1 X12.433 Y47.997 E35.02294
G1 X8.753 Y48.804 E35.47404
G1 X7.198 Y49.058 E35.6627
G1 X3.449 Y49.464 E36.11422
G1 X1.93 Y49.546 E36.29636
G1 X-1.831 Y49.549 E36.74669
G1 X-3.516 Y49.459 E36.94873
G1 X-7.267 Y49.048 E37.40055
G1 X-8.873 Y48.781 E37.59549
G1 X-12.557 Y47.967 E38.04724
G1 X-14.111 Y47.531 E38.24049
G1 X-17.659 Y46.332 E38.68892
G1 X-19.164 Y45.728 E38.8831
G1 X-22.559 Y44.155 E39.33111
G1 X-23.987 Y43.394 E39.52486
G1 X-27.211 Y41.45 E39.97564
G1 X-28.53 Y40.552 E40.1667
G1 X-31.534 Y38.264 E40.61884
G1 X-32.65 Y37.317 E40.79409
G1 X-35.399 Y34.718 E41.24706
G1 X-36.496 Y33.565 E41.43762
G1 X-38.953 Y30.678 E41.89154
G1 X-39.998 Y29.301 E42.09852
G1 X-42.098 Y26.196 E42.54735
G1 X-42.914 Y24.838 E42.73705
G1 X-44.635 Y21.592 E43.17696
G1 X-45.356 Y20.029 E43.38306
G1 X-46.746 Y16.532 E43.83365
G1 X-47.259 Y14.998 E44.02732
G1 X-48.259 Y11.383 E44.47642
G1 X-48.601 Y9.809 E44.66929
G1 X-49.206 Y6.101 E45.11914
G1 X-49.378 Y4.495 E45.31254
G1 X-49.575 Y0.848 E45.74985
G1 X-49.578 Y-.746 E45.94071
G1 X-49.368 Y-4.615 E46.40466
G1 X-49.189 Y-6.222 E46.59826
G0 F7200 X-48 Y-12.325
G1 F1350 X-48 Y12.319 E49.54905
G0 F7200 X-46.4 Y17.402
G1 F1350 X-46.4 Y-17.408 E53.71707
G0 F7200 X-44.8 Y-21.236
G1 F1350 X-44.8 Y21.234 E58.80228
G0 F7200 X-43.2 Y24.298
G1 F1350 X-43.2 Y-24.299 E64.62112
G0 F7200 X-41.6 Y-26.931
G1 F1350 X-41.6 Y26.932 E71.07048
G0 F7200 X-40 Y29.298
G1 F1350 X-40 Y-29.29 E78.0856
G0 F7200 X-38.4 Y-31.328
G1 F1350 X-38.4 Y31.327 E85.58769
G0 F7200 X-36.8 Y33.207
G1 F1350 X-36.8 Y-33.208 E93.53999
G0 F7200 X-35.2 Y-34.907
G1 F1350 X-35.2 Y34.906 E101.89916
G0 F7200 X-33.6 Y36.418
G1 F1350 X-33.6 Y-36.419 E110.6204
G0 F7200 X-32 Y-37.867
G1 F1350 X-32 Y37.868 E119.68865
G0 F7200 X-30.4 Y39.127
G1 F1350 X-30.4 Y-39.13 E129.05886
G0 F7200 X-28.8 Y-40.344
G1 F1350 X-28.8 Y40.346 E138.7204
G0 F7200 X-27.2 Y41.456
G1 F1350 X-27.2 Y-41.454 E148.64775
G0 F7200 X-25.6 Y-42.422
G1 F1350 X-25.6 Y42.421 E158.80656
G0 F7200 X-24 Y43.386
G1 F1350 X-24 Y-43.382 E169.19585
G0 F7200 X-22.4 Y-44.232
G1 F1350 X-22.4 Y44.228 E179.78774
G0 F7200 X-20.8 Y44.969
G1 F1350 X-20.8 Y-44.972 E190.55696
G0 F7200 X-19.2 Y-45.712
G1 F1350 X-19.2 Y45.711 E201.50363
G0 F7200 X-17.6 Y46.351
G1 F1350 X-17.6 Y-46.352 E212.60356
G0 F7200 X-16 Y-46.891
G1 F1350 X-16 Y46.892 E223.83281
G0 F7200 X-14.4 Y47.433
G1 F1350 X-14.4 Y-47.43 E235.19137
G0 F7200 X-12.8 Y-47.897
G1 F1350 X-12.8 Y47.898 E246.66153
G0 F7200 X-11.2 Y48.266
G1 F1350 X-11.2 Y5.238 E251.81355
G0 F7200 X-9.6 Y7.792
G1 F1350 X-9.6 Y48.62 E256.70215
G0 F7200 X-8 Y48.926
G1 F1350 X-8 Y9.426 E261.43174
G0 F7200 X-6.4 Y10.575
G1 F1350 X-6.4 Y49.142 E266.04962
G0 F7200 X-4.8 Y49.318
G1 F1350 X-4.8 Y11.398 E270.59002
G0 F7200 X-3.2 Y11.942
G1 F1350 X-3.2 Y49.475 E275.08409
G0 F7200 X-1.6 Y49.549
G1 F1350 X-1.6 Y12.258 E279.54919
G0 F7200 X0.00 Y12.36
G1 F1350 X0.00 Y49.548 E284.00195
G0 F7200 X1.6 Y49.547
G1 F1350 X1.6 Y12.257 E288.46692
G0 F7200 X3.2 Y11.941
G1 F1350 X3.2 Y49.478 E292.96147
G0 F7200 X4.8 Y49.318
G1 F1350 X4.8 Y11.397 E297.502
G0 F7200 X6.4 Y10.574
G1 F1350 X6.4 Y49.145 E302.12035
G0 F7200 X8 Y48.927
G1 F1350 X8 Y9.425 E306.85018
G0 F7200 X9.6 Y7.791
G1 F1350 X9.6 Y48.619 E311.73879
G0 F7200 X11.2 Y48.268
G1 F1350 X11.2 Y5.237 E316.89117
G0 F7200 X11.862 Y1.019
G0 X11.902 Y-.265
G0 X11.812 Y-1.33
G0 X11.2 Y-5.238
G1 F1350 X11.2 Y-48.266 E322.04319
G0 F7200 X9.6 Y-48.62
G1 F1350 X9.6 Y-7.792 E326.93179
G0 F7200 X8 Y-9.426
G1 F1350 X8 Y-48.926 E331.66138
G0 F7200 X6.4 Y-49.142
G1 F1350 X6.4 Y-10.575 E336.27926
G0 F7200 X4.8 Y-11.398
G1 F1350 X4.8 Y-49.318 E340.81966
G0 F7200 X3.2 Y-49.475
G1 F1350 X3.2 Y-11.942 E345.31373
G0 F7200 X1.6 Y-12.258
G1 F1350 X1.6 Y-49.549 E349.77883
G0 F7200 X0.00 Y-49.548
G1 F1350 X0.00 Y-12.36 E354.23159
G0 F7200 X-1.6 Y-12.257
G1 F1350 X-1.6 Y-49.547 E358.69656
G0 F7200 X-3.2 Y-49.478
G1 F1350 X-3.2 Y-11.941 E363.19111
G0 F7200 X-4.8 Y-11.397
G1 F1350 X-4.8 Y-49.318 E367.73164
G0 F7200 X-6.4 Y-49.145
G1 F1350 X-6.4 Y-10.574 E372.34999
G0 F7200 X-8 Y-9.425
G1 F1350 X-8 Y-48.927 E377.07982
G0 F7200 X-9.6 Y-48.619
G1 F1350 X-9.6 Y-7.791 E381.96843
G0 F7200 X-11.2 Y-5.237
G1 F1350 X-11.2 Y-48.268 E387.12081
G0 F7200 X12.8 Y-47.898
G1 F1350 X12.8 Y47.897 E398.59096
G0 F7200 X14.4 Y47.43
G1 F1350 X14.4 Y-47.433 E409.94952
G0 F7200 X16 Y-46.892
G1 F1350 X16 Y46.893 E421.17901
G0 F7200 X17.6 Y46.352
G1 F1350 X17.6 Y-46.351 E432.27894
G0 F7200 X19.2 Y-45.711
G1 F1350 X19.2 Y45.708 E443.22513
G0 F7200 X20.8 Y44.97
G1 F1350 X20.8 Y-44.969 E453.99411
G0 F7200 X22.4 Y-44.228
G1 F1350 X22.4 Y44.232 E464.586
G0 F7200 X24 Y43.382
G1 F1350 X24 Y-43.386 E474.9753
G0 F7200 X25.6 Y-42.421
G1 F1350 X25.6 Y42.422 E485.1341
G0 F7200 X27.2 Y41.454
G1 F1350 X27.2 Y-41.457 E495.06157
G0 F7200 X28.8 Y-40.346
G1 F1350 X28.8 Y40.344 E504.72311
G0 F7200 X30.4 Y39.13
G1 F1350 X30.4 Y-39.127 E514.09333
G0 F7200 X32 Y-37.868
G1 F1350 X32 Y37.867 E523.16157
G0 F7200 X33.6 Y36.418
G1 F1350 X33.6 Y-36.418 E531.8827
G0 F7200 X35.2 Y-34.906
G1 F1350 X35.2 Y34.903 E540.24138
G0 F7200 X36.8 Y33.212
G1 F1350 X36.8 Y-33.207 E548.19416
G0 F7200 X38.4 Y-31.327
G1 F1350 X38.4 Y31.326 E555.69601
G0 F7200 X40 Y29.292
G1 F1350 X40 Y-29.297 E562.71125
G0 F7200 X41.6 Y-26.933
G1 F1350 X41.6 Y26.931 E569.16074
G0 F7200 X43.2 Y24.299
G1 F1350 X43.2 Y-24.298 E574.97957
G0 F7200 X44.8 Y-21.234
G1 F1350 X44.8 Y21.236 E580.06478
G0 F7200 X46.4 Y17.408
G1 F1350 X46.4 Y-17.404 E584.23305
G0 F7200 X48 Y-12.319
G1 F1350 X48 Y12.326 E587.18395
G0 F7200 X-.916 Y11.869
G0 X-2.192 Y11.701
G0 X-2.901 Y11.529
G0 X-6.7 Y10.393
;TIME_ELAPSED:223.063649
;LAYER:-7
M140 S50
G0 X-6.7 Y10.393 Z0.809
;TYPE:SUPPORT
G1 F1350 X-7.169 Y10.075 E587.26857
G1 X-7.792 Y9.601 E587.38548
G1 X-8.22 Y9.238 E587.46929
G1 X-8.785 Y8.703 E587.58549
G1 X-9.171 Y8.295 E587.66936
G1 X-9.671 Y7.706 E587.78474
G1 X-10.014 Y7.254 E587.86948
G1 X-10.451 Y6.61 E587.9857
G1 X-10.586 Y6.383 E588.02515
G1 X-42.499 Y-25.528 E594.76483
G1 X-42.097 Y-26.196 E594.88126
G1 X-41.958 Y-26.401 E594.91824
G1 X-11.77 Y3.785 E601.29361
G1 X-11.805 Y3.681 E601.31
G1 X-12.013 Y2.932 E601.42609
G1 X-12.133 Y2.385 E601.50972
G1 X-12.208 Y1.933 E601.57814
G1 X-41.386 Y-27.244 E607.74031
G1 X-40.815 Y-28.087 E607.89236
G1 X-12.356 Y0.371 E613.90268
G1 X-12.362 Y0.275 E613.91704
G1 X-12.362 Y-.275 E613.99918
G1 X-12.323 Y-1.009 E614.10895
G1 X-40.244 Y-28.93 E620.00575
G1 X-39.916 Y-29.412 E620.09281
G1 X-39.655 Y-29.755 E620.15718
G1 X-12.155 Y-2.255 E625.96506
G1 X-12.133 Y-2.385 E625.98475
G1 X-12.013 Y-2.932 E626.06838
G1 X-11.883 Y-3.398 E626.14063
G1 X-39.043 Y-30.558 E631.87671
G1 X-38.952 Y-30.677 E631.89908
G1 X-38.399 Y-31.328 E632.02664
G1 X-11.529 Y-4.458 E637.70148
G1 X-11.337 Y-4.94 E637.77896
G1 X-11.101 Y-5.444 E637.86207
G1 X-37.748 Y-32.092 E643.48991
G1 X-37.099 Y-32.856 E643.63961
G1 X-10.601 Y-6.359 E649.23577
G1 X-10.451 Y-6.61 E649.27944
G1 X-10.041 Y-7.213 E649.38834
G1 X-36.445 Y-33.617 E654.96475
G1 X-35.756 Y-34.342 E655.11411
G1 X-9.417 Y-8.003 E660.6768
G1 X-9.171 Y-8.295 E660.73382
G1 X-8.785 Y-8.703 E660.8177
G1 X-8.743 Y-8.743 E660.82636
G1 X-35.048 Y-35.048 E666.38186
G1 X-34.321 Y-35.735 E666.53124
G1 X-8.005 Y-9.42 E672.08896
G1 X-7.792 Y-9.601 E672.13071
G1 X-7.213 Y-10.042 E672.2394
G1 X-33.594 Y-36.423 E677.81095
G1 X-32.867 Y-37.11 E677.96033
G1 X-6.357 Y-10.6 E683.55913
G1 X-6.037 Y-10.791 E683.61479
G1 X-5.54 Y-11.054 E683.69876
G1 X-5.444 Y-11.1 E683.71465
G1 X-32.113 Y-37.77 E689.34714
G1 X-31.436 Y-38.342 E689.4795
G1 X-31.341 Y-38.412 E689.49712
G1 X-4.46 Y-11.531 E695.17428
G1 X-4.309 Y-11.59 E695.19849
G1 X-3.582 Y-11.834 E695.31301
G1 X-3.4 Y-11.885 E695.34123
G1 X-30.537 Y-39.023 E701.07256
G1 X-29.734 Y-39.634 E701.22325
G1 X-2.257 Y-12.156 E707.02638
G1 X-1.723 Y-12.242 E707.10715
G1 X-1.009 Y-12.322 E707.21445
G1 X-28.93 Y-40.244 E713.11135
G1 X-28.449 Y-40.609 E713.20152
G1 X-28.11 Y-40.838 E713.26262
G1 X0.368 Y-12.359 E719.27716
G1 X0.386 Y-12.359 E719.27985
G1 X0.952 Y-12.328 E719.3645
G1 X1.723 Y-12.242 E719.48035
G1 X1.933 Y-12.208 E719.51212
G1 X-27.266 Y-41.408 E725.67894
G1 X-27.099 Y-41.52 E725.70896
G1 X-26.389 Y-41.946 E725.83262
G1 X3.791 Y-11.764 E732.20672
G1 X4.309 Y-11.59 E732.28832
G1 X4.835 Y-11.382 E732.37279
G1 X5.54 Y-11.054 E732.48891
G1 X6.037 Y-10.791 E732.57288
G1 X6.391 Y-10.579 E732.63451
G1 X-25.506 Y-42.476 E739.37102
G1 X-24.622 Y-43.006 E739.52494
G1 X43.02 Y24.635 E753.81055
G1 X43.51 Y23.711 E753.96674
G1 X-23.731 Y-43.53 E768.16775
G1 X-22.807 Y-44.02 E768.32395
G1 X44 Y22.787 E782.43331
G1 X44.49 Y21.863 E782.5895
G1 X-21.855 Y-44.482 E796.60128
G1 X-20.887 Y-44.929 E796.76051
G1 X44.95 Y20.909 E810.66512
G1 X45.303 Y20.149 E810.79026
G1 X45.389 Y19.934 E810.82484
G1 X-19.92 Y-45.376 E824.61793
G1 X-19.164 Y-45.727 E824.74241
G1 X-18.944 Y-45.814 E824.77774
G1 X45.793 Y18.923 E838.44992
G1 X46.197 Y17.913 E838.61237
G1 X-17.935 Y-46.22 E852.15689
G1 X-17.659 Y-46.331 E852.20132
G1 X-16.89 Y-46.589 E852.32245
G1 X46.601 Y16.902 E865.73148
G1 X46.709 Y16.63 E865.77519
G1 X46.97 Y15.858 E865.89689
G1 X-15.832 Y-46.945 E879.16051
G1 X-14.774 Y-47.301 E879.32722
G1 X47.312 Y14.785 E892.43952
G1 X47.621 Y13.68 E892.61087
G1 X-13.705 Y-47.646 E905.56267
G1 X-12.595 Y-47.951 E905.73458
G1 X47.93 Y12.575 E918.51731
G1 X48.233 Y11.486 E918.68612
G1 X48.238 Y11.468 E918.68891
G1 X-11.443 Y-48.212 E931.29318
G1 X-10.283 Y-48.467 E931.47055
G1 X48.494 Y10.311 E943.88411
G1 X48.575 Y9.943 E943.94038
G1 X48.712 Y9.114 E944.06586
G1 X-9.123 Y-48.721 E956.28037
G1 X-8.752 Y-48.803 E956.33712
G1 X-7.925 Y-48.937 E956.46223
G1 X48.912 Y7.9 E968.46597
G1 X49.112 Y6.685 E968.64985
G1 X-6.685 Y-49.112 E980.43395
G1 X-5.41 Y-49.25 E980.62547
G1 X49.276 Y5.435 E992.17482
G1 X49.367 Y4.614 E992.29817
