;FLAVOR:Marlin
;TIME:1866
;Filament used: 2.73988m
;Layer height: 0.3
;ZOFFSETPROCESSED
;Generated with Cura_SteamEngine 3.4.1
M190 S50
M104 S185
M109 S185
M82 ;absolute extrusion mode
G21 ;metric values
G90 ;absolute positioning
M82 ;set extruder to absolute mode
M107 ;start with the fan off
G28 ;Home all axes (max endstops)
G1 Z15.0 F9000 ;move the platform down 15mm
G92 E0 ;zero the extruded length
G1 F200 E3 ;extrude 3mm of feed stock
G92 E0 ;zero the extruded length again
G1 F9000
;Put printing message on LCD screen
M117 Printing...
G92 E0
;LAYER_COUNT:225
;LAYER:-8
M107
G0 F7200 X0.803 Y12.656 Z2.36 ;adjusted by z offset
G92 Z0.36 ;consider this the original z before offset
G1 F1350 X-.586 Y12.853 E0.16798
G1 X-.737 Y12.868 E0.18615
G1 X-1.631 Y12.928 E0.29343
G1 X-1.817 Y12.933 E0.31571
G1 X-2.697 Y12.928 E0.42108
G1 X-2.875 Y12.92 E0.44242
G1 X-3.775 Y12.849 E0.55051
G1 X-3.955 Y12.828 E0.57221
G1 X-4.813 Y12.697 E0.67614
G1 X-4.995 Y12.662 E0.69833
G1 X-5.867 Y12.462 E0.80545
G1 X-6.029 Y12.418 E0.82555
G1 X-7.03 Y12.105 E0.95113
G1 X-7.872 Y11.777 E1.05933
G1 X-8.045 Y11.702 E1.0819
G1 X-8.851 Y11.319 E1.18875
G1 X-9.777 Y10.798 E1.31597
G1 X-9.919 Y10.711 E1.33591
G1 X-10.653 Y10.22 E1.44165
G1 X-10.816 Y10.1 E1.46589
G1 X-11.808 Y9.307 E1.61795
G1 X-12.927 Y8.331 E1.79574
G1 X-13.634 Y7.668 E1.91179
G1 X-13.749 Y7.552 E1.93135
G1 X-14.359 Y6.89 E2.03914
G1 X-14.467 Y6.764 E2.05901
G1 X-15.007 Y6.084 E2.16298
G1 X-15.126 Y5.923 E2.18695
G1 X-15.715 Y5.05 E2.31305
G1 X-16.167 Y4.27 E2.42099
G1 X-16.246 Y4.117 E2.44161
G1 X-16.88 Y2.755 E2.62149
G1 X-16.957 Y2.563 E2.64626
G1 X-17.305 Y1.605 E2.7683
G1 X-17.354 Y1.454 E2.78731
G1 X-17.602 Y0.574 E2.89678
G1 X-17.64 Y0.418 E2.91601
G1 X-17.816 Y-.446 E3.02158
G1 X-17.85 Y-.651 E3.04647
G1 X-17.962 Y-1.514 E3.15067
G1 X-17.98 Y-1.706 E3.17376
G1 X-18.026 Y-2.564 E3.27664
G1 X-18.029 Y-2.748 E3.29867
G1 X-17.976 Y-4.472 E3.50519
G1 X-17.977 Y-10.419 E4.21727
G1 X-18.012 Y-11.02 E4.28935
G1 X-18.041 Y-11.364 E4.33069
G1 X-18.078 Y-12.905 E4.51525
G1 X-17.951 Y-17.311 E5.04303
G1 X-17.877 Y-18.379 E5.17122
G1 X-17.725 Y-19.439 E5.29944
G1 X-17.535 Y-20.322 E5.40758
G1 X-17.239 Y-21.359 E5.53671
G1 X-16.879 Y-22.342 E5.66205
G1 X-16.806 Y-22.516 E5.68465
G1 X-16.44 Y-23.315 E5.78988
G1 X-16.358 Y-23.479 E5.81183
G1 X-15.855 Y-24.385 E5.93591
G1 X-15.405 Y-25.079 E6.03495
G1 X-15.102 Y-25.555 E6.10251
G1 X-14.565 Y-26.297 E6.21218
G1 X-13.881 Y-27.116 E6.33995
G1 X-13.784 Y-27.223 E6.35724
G1 X-13.143 Y-27.881 E6.46723
G1 X-13.019 Y-28 E6.48781
G1 X-12.363 Y-28.581 E6.59273
G1 X-12.229 Y-28.691 E6.61349
G1 X-11.54 Y-29.217 E6.71728
G1 X-11.35 Y-29.351 E6.74512
G1 X-10.619 Y-29.828 E6.84964
G1 X-10.486 Y-29.908 E6.86822
G1 X-9.704 Y-30.342 E6.97531
G1 X-9.528 Y-30.431 E6.99892
G1 X-8.754 Y-30.788 E7.10098
G1 X-8.559 Y-30.87 E7.12631
G1 X-7.74 Y-31.178 E7.23108
G1 X-7.579 Y-31.232 E7.25141
G1 X-6.689 Y-31.495 E7.36253
G1 X-5.682 Y-31.717 E7.486
G1 X-5.504 Y-31.75 E7.50768
G1 X-4.663 Y-31.872 E7.60943
G1 X-4.442 Y-31.896 E7.63605
G1 X-3.359 Y-31.976 E7.76608
G1 X-2.78 Y-31.987 E7.83542
G1 X2.837 Y-31.986 E8.50798
G1 X3.973 Y-31.941 E8.6441
G1 X4.639 Y-31.876 E8.72423
G1 X5.663 Y-31.721 E8.84823
G1 X6.681 Y-31.496 E8.97307
G1 X7.715 Y-31.187 E9.10229
G1 X7.86 Y-31.137 E9.12065
G1 X8.851 Y-30.747 E9.24817
G1 X9.686 Y-30.352 E9.35877
G1 X10.604 Y-29.838 E9.48474
G1 X11.501 Y-29.246 E9.61343
G1 X12.353 Y-28.589 E9.74225
G1 X13.115 Y-27.908 E9.86462
G1 X13.264 Y-27.762 E9.8896
G1 X13.859 Y-27.14 E9.99266
G1 X13.991 Y-26.993 E10.01632
G1 X14.644 Y-26.195 E10.13978
G1 X15.275 Y-25.297 E10.2712
G1 X15.979 Y-24.173 E10.43
G1 X16.068 Y-24.019 E10.4513
G1 X16.478 Y-23.239 E10.55681
G1 X16.554 Y-23.082 E10.57769
G1 X16.912 Y-22.26 E10.68505
G1 X16.983 Y-22.077 E10.70855
G1 X17.268 Y-21.268 E10.81125
G1 X17.326 Y-21.083 E10.83446
G1 X17.555 Y-20.239 E10.93918
G1 X17.596 Y-20.061 E10.96105
G1 X17.77 Y-19.169 E11.06987
G1 X17.795 Y-19.013 E11.08878
G1 X17.915 Y-17.981 E11.21318
G1 X17.949 Y-17.416 E11.28096
G1 X18.073 Y-14.26 E11.65914
G1 X18.072 Y-13.162 E11.79061
G1 X17.971 Y-11.73 E11.9625
G1 X17.979 Y-11.73 E11.96345
G1 X17.977 Y-9.009 E12.28926
G1 X17.998 Y-8.549 E12.34439
G1 X18.028 Y-8.146 E12.39278
G1 X18.042 Y-7.256 E12.49936
G1 X18.039 Y-7.074 E12.52115
G1 X17.988 Y-6.183 E12.62801
G1 X17.852 Y-5.101 E12.75859
G1 X17.67 Y-4.19 E12.86982
G1 X17.659 Y-4.194 E12.87123
G1 X17.597 Y-3.832 E12.9152
G1 X17.544 Y-3.575 E12.94662
G1 X17.552 Y-3.574 E12.94759
G1 X17.414 Y-2.773 E13.04491
G1 X17.374 Y-2.58 E13.06851
G1 X17.119 Y-1.562 E13.19417
G1 X16.333 Y1.155 E13.53283
G1 X15.951 Y2.305 E13.67792
G1 X15.538 Y3.295 E13.80636
G1 X15.063 Y4.233 E13.93226
G1 X14.582 Y5.041 E14.04485
G1 X13.998 Y5.886 E14.16784
G1 X13.874 Y6.048 E14.19227
G1 X13.048 Y7.041 E14.34692
G1 X12.305 Y7.858 E14.47915
G1 X11.61 Y8.569 E14.5982
G1 X11.496 Y8.678 E14.61708
G1 X10.798 Y9.294 E14.72855
G1 X9.991 Y9.915 E14.85048
G1 X9.817 Y10.036 E14.87585
G1 X9.076 Y10.519 E14.98176
G1 X8.931 Y10.606 E15.00201
G1 X8.153 Y11.036 E15.10845
G1 X7.998 Y11.114 E15.12922
G1 X7.043 Y11.549 E15.25488
G1 X6.177 Y11.872 E15.36555
G1 X6.039 Y11.918 E15.38296
G1 X5.167 Y12.174 E15.49178
G1 X5.01 Y12.214 E15.51118
G1 X3.981 Y12.431 E15.6371
G1 X3.08 Y12.557 E15.74603
G1 X2.882 Y12.576 E15.76985
G1 X1.555 Y12.644 E15.92895
G1 X1.212 Y12.647 E15.97002
G1 X0.807 Y12.683 E16.0187
G1 X0.803 Y12.656 E16.02197
G0 F7200 X1.6 Y12.642
G1 F1350 X1.6 Y-31.986 E21.36557
G0 F7200 X0.00 Y-31.986
G1 F1350 X0.00 Y12.77 E26.7245
G0 F7200 X-1.6 Y12.926
G1 F1350 X-1.6 Y-31.986 E32.1021
G0 F7200 X-3.2 Y-31.98
G1 F1350 X-3.2 Y12.894 E37.47516
G0 F7200 X-4.8 Y12.698
G1 F1350 X-4.8 Y-31.853 E42.80954
G0 F7200 X-6.4 Y-31.559
G1 F1350 X-6.4 Y12.301 E48.06118
G0 F7200 X-8 Y11.721
G1 F1350 X-8 Y-31.081 E53.18614
G0 F7200 X-9.6 Y-30.395
G1 F1350 X-9.6 Y10.897 E58.1303
G0 F7200 X-11.2 Y9.793
G1 F1350 X-11.2 Y-29.449 E62.829
G0 F7200 X-12.8 Y-28.194
G1 F1350 X-12.8 Y8.441 E67.21554
G0 F7200 X-14.4 Y6.842
G1 F1350 X-14.4 Y-26.495 E71.2072
G0 F7200 X-16 Y-24.124
G1 F1350 X-16 Y4.558 E74.64148
G0 F7200 X-17.6 Y0.581
G1 F1350 X-17.6 Y-20.02 E77.10817
G0 F7200 X3.2 Y-31.971
G1 F1350 X3.2 Y12.541 E82.43788
G0 F7200 X4.8 Y12.259
G1 F1350 X4.8 Y-31.851 E87.71946
G0 F7200 X6.4 Y-31.558
G1 F1350 X6.4 Y11.789 E92.90968
G0 F7200 X8 Y11.113
G1 F1350 X8 Y-31.081 E97.96184
G0 F7200 X9.6 Y-30.392
G1 F1350 X9.6 Y10.178 E102.81955
G0 F7200 X11.2 Y8.94
G1 F1350 X11.2 Y-29.444 E107.41551
G0 F7200 X12.8 Y-28.189
G1 F1350 X12.8 Y7.314 E111.66652
G0 F7200 X14.4 Y5.305
G1 F1350 X14.4 Y-26.493 E115.4739
G0 F7200 X16 Y-24.136
G1 F1350 X16 Y2.158 E118.62225
G0 F7200 X17.6 Y-3.849
G1 F1350 X17.6 Y-20.04 E120.5609
G0 F7200 X-12.582 Y8.63
;TIME_ELAPSED:46.980473
;LAYER:-7
M140 S50
G0 X-12.582 Y8.63 Z0.809
;TYPE:SUPPORT
G1 F1350 X-11.807 Y9.306 E120.71448
G1 X-10.815 Y10.099 E120.90414
G1 X-10.652 Y10.219 E120.93437
G1 X-9.918 Y10.71 E121.06625
G1 X-9.777 Y10.796 E121.09091
G1 X-8.85 Y11.318 E121.24979
G1 X-8.145 Y11.653 E121.36635
G1 X-16.736 Y3.062 E123.18073
G1 X-16.879 Y2.755 E123.23131
G1 X-16.956 Y2.562 E123.26234
G1 X-17.304 Y1.605 E123.41441
G1 X-17.353 Y1.454 E123.43812
G1 X-17.519 Y0.865 E123.52951
G1 X-5.945 Y12.439 E125.97389
G1 X-5.866 Y12.461 E125.98614
G1 X-4.995 Y12.661 E126.11959
G1 X-4.813 Y12.696 E126.14727
G1 X-4.177 Y12.792 E126.24333
G1 X-17.883 Y-.912 E129.13777
G1 X-17.961 Y-1.513 E129.22827
G1 X-17.979 Y-1.706 E129.25722
G1 X-18.02 Y-2.464 E129.37058
G1 X-2.629 Y12.927 E132.6211
G1 X-1.816 Y12.932 E132.74251
G1 X-1.63 Y12.927 E132.7703
G1 X-1.241 Y12.9 E132.82853
G1 X-17.994 Y-3.852 E136.36659
G1 X-17.975 Y-4.472 E136.45922
G1 X-17.976 Y-5.248 E136.57511
G1 X0.036 Y12.763 E140.37906
G1 X0.802 Y12.655 E140.49459
G1 X0.806 Y12.681 E140.49851
G1 X1.211 Y12.645 E140.55923
G1 X1.33 Y12.644 E140.57701
G1 X-17.976 Y-6.662 E144.65435
G1 X-17.976 Y-8.077 E144.86567
G1 X2.685 Y12.585 E149.22929
G1 X2.882 Y12.575 E149.25875
G1 X3.08 Y12.556 E149.28845
G1 X3.949 Y12.435 E149.41948
G1 X-17.976 Y-9.491 E154.05005
G1 X-17.976 Y-10.419 E154.18864
G1 X-18.007 Y-10.936 E154.26598
G1 X5.114 Y12.185 E159.14904
G1 X5.166 Y12.172 E159.15705
G1 X6.038 Y11.917 E159.29272
G1 X6.177 Y11.87 E159.31464
G1 X6.203 Y11.86 E159.3188
G1 X-18.065 Y-12.409 E164.4442
G1 X-18.077 Y-12.905 E164.5183
G1 X-18.051 Y-13.809 E164.65335
G1 X7.223 Y11.465 E169.99112
G1 X7.998 Y11.113 E170.11823
G1 X8.152 Y11.035 E170.14401
G1 X8.186 Y11.015 E170.1499
G1 X-18.011 Y-15.182 E175.6826
G1 X-17.971 Y-16.557 E175.88803
G1 X9.092 Y10.506 E181.60362
G1 X9.817 Y10.035 E181.73273
G1 X9.945 Y9.945 E181.7561
G1 X-17.909 Y-17.909 E187.63875
G1 X-17.877 Y-18.377 E187.7088
G1 X-17.762 Y-19.176 E187.82935
G1 X10.746 Y9.332 E193.85012
G1 X10.797 Y9.294 E193.85962
G1 X11.501 Y8.672 E193.99991
G1 X-17.525 Y-20.354 E200.13008
G1 X-17.238 Y-21.358 E200.28602
G1 X-17.206 Y-21.448 E200.30029
G1 X12.203 Y7.961 E206.51135
G1 X12.304 Y7.858 E206.53289
G1 X12.881 Y7.224 E206.66091
G1 X-16.821 Y-22.478 E212.93385
G1 X-16.805 Y-22.514 E212.93973
G1 X-16.44 Y-23.314 E213.07105
G1 X-16.375 Y-23.446 E213.09302
G1 X13.531 Y6.46 E219.40904
G1 X13.872 Y6.047 E219.48903
G1 X13.997 Y5.885 E219.51958
G1 X14.15 Y5.665 E219.5596
G1 X-15.871 Y-24.356 E225.89991
G1 X-15.854 Y-24.383 E225.90468
G1 X-15.405 Y-25.078 E226.02824
G1 X-15.317 Y-25.216 E226.05269
G1 X14.715 Y4.816 E232.39532
G1 X15.062 Y4.233 E232.49664
G1 X15.225 Y3.911 E232.55053
G1 X-14.74 Y-26.054 E238.87902
G1 X-14.564 Y-26.295 E238.92358
G1 X-14.111 Y-26.839 E239.0293
G1 X15.68 Y2.952 E245.32104
G1 X15.95 Y2.304 E245.42587
G1 X16.074 Y1.932 E245.48443
G1 X-13.437 Y-27.579 E251.71703
G1 X-13.142 Y-27.88 E251.77997
G1 X-13.018 Y-27.999 E251.80564
G1 X-12.713 Y-28.269 E251.86647
G1 X16.417 Y0.861 E258.0186
G1 X16.735 Y-.235 E258.18903
G1 X-11.939 Y-28.91 E264.24496
G1 X-11.539 Y-29.216 E264.32017
G1 X-11.349 Y-29.349 E264.35481
G1 X-11.116 Y-29.501 E264.39635
G1 X17.052 Y-1.332 E270.34542
G1 X17.118 Y-1.561 E270.38101
G1 X17.342 Y-2.456 E270.51879
G1 X-10.242 Y-30.041 E276.34453
G1 X-9.703 Y-30.341 E276.43665
G1 X-9.528 Y-30.43 E276.46597
G1 X-9.314 Y-30.527 E276.50105
G1 X17.559 Y-3.653 E282.17663
G1 X17.596 Y-3.831 E282.20378
G1 X17.658 Y-4.193 E282.25862
G1 X17.669 Y-4.19 E282.26033
G1 X17.797 Y-4.829 E282.35765
G1 X-8.328 Y-30.955 E287.87525
G1 X-7.739 Y-31.177 E287.96925
G1 X-7.578 Y-31.231 E287.99461
G1 X-7.278 Y-31.319 E288.04129
G1 X17.973 Y-6.068 E293.3742
G1 X17.987 Y-6.182 E293.39135
G1 X18.038 Y-7.073 E293.52463
G1 X18.041 Y-7.256 E293.55196
G1 X18.039 Y-7.416 E293.57586
G1 X-6.156 Y-31.611 E298.68574
G1 X-5.682 Y-31.716 E298.75825
G1 X-5.504 Y-31.749 E298.78528
G1 X-4.958 Y-31.828 E298.86767
G1 X17.981 Y-8.888 E303.71239
G1 X17.976 Y-9.008 E303.73033
G1 X17.977 Y-10.306 E303.92417
G1 X-3.667 Y-31.952 E308.49551
G1 X-3.358 Y-31.975 E308.54178
G1 X-2.779 Y-31.985 E308.62826
G1 X-2.286 Y-31.985 E308.70188
G1 X17.978 Y-11.72 E312.98166
G1 X17.97 Y-11.729 E312.98346
G1 X18.063 Y-13.049 E313.18107
G1 X-.872 Y-31.985 E317.18017
G1 X0.541 Y-31.985 E317.39119
G1 X18.064 Y-14.462 E321.09197
G1 X18.006 Y-15.934 E321.31197
G1 X1.955 Y-31.985 E324.70187
G1 X2.836 Y-31.985 E324.83344
G1 X3.391 Y-31.963 E324.91639
G1 X17.948 Y-17.406 E327.99076
G0 F7200 X17.947 Y-17.416
G1 F1350 X17.915 Y-17.98 E328.07513
G1 X17.8 Y-18.968 E328.22367
G1 X4.939 Y-31.829 E330.93986
G1 X5.663 Y-31.72 E331.0492
G1 X6.681 Y-31.495 E331.20489
G1 X6.692 Y-31.491 E331.20664
G1 X17.41 Y-20.773 E333.47024
G1 X17.326 Y-21.082 E333.51806
G1 X17.268 Y-21.267 E333.54701
G1 X16.982 Y-22.076 E333.67515
G1 X16.911 Y-22.259 E333.70447
G1 X16.583 Y-23.014 E333.8274
G1 X8.851 Y-30.746 E335.46036
G1 X9.685 Y-30.351 E335.59817
G1 X10.603 Y-29.837 E335.75529
G1 X11.501 Y-29.245 E335.91592
G1 X12.353 Y-28.588 E336.07659
G1 X13.021 Y-27.99 E336.21048
G1 X13.114 Y-27.907 E336.2291
G1 X13.263 Y-27.761 E336.26025
G0 F7200 X-14.465 Y6.764
G1 F1350 X-14.358 Y6.89 E336.28493
G1 X-13.748 Y7.552 E336.41937
G1 X-13.633 Y7.667 E336.44365
G1 X-12.925 Y8.331 E336.58861
G1 X-12.582 Y8.63 E336.65656
G1 X-14.531 Y6.681 E337.06818
G0 F7200 X13.546 Y-27.466
G1 F1350 X13.021 Y-27.99 E337.17896
G0 F7200 X-5.03 Y12.859
;TIME_ELAPSED:112.833653
;LAYER:-6
G0 X-5.03 Y12.859 Z1.109
G1 F1800 X-4.857 Y12.892 E337.18774
G1 X-3.783 Y13.05 E337.2419
G1 X-2.887 Y13.12 E337.28674
G1 X-2.704 Y13.128 E337.29588
G1 X-1.812 Y13.133 E337.34038
G1 X-1.63 Y13.128 E337.34946
G1 X-.714 Y13.066 E337.39527
G1 X-.562 Y13.051 E337.40289
G1 X0.633 Y12.882 E337.4631
G1 X0.635 Y12.899 E337.46395
G1 X1.22 Y12.847 E337.49325
G1 X1.429 Y12.847 E337.50368
G1 X2.379 Y12.8 E337.55113
G1 X-5.288 Y12.8 E337.93364
G1 X-5.91 Y12.657 E337.96548
G1 X-6.763 Y12.4 E338.00993
G1 X5.089 Y12.4 E338.60123
G1 X5.216 Y12.368 E338.60776
G1 X6.086 Y12.112 E338.65301
G1 X6.252 Y12.058 E338.66172
G1 X6.407 Y12 E338.66997
G1 X-7.852 Y12 E339.38136
G1 X-7.954 Y11.96 E339.38682
G1 X-8.723 Y11.6 E339.42919
G1 X7.418 Y11.6 E340.23446
G1 X8.093 Y11.289 E340.27154
G1 X8.243 Y11.214 E340.27991
G1 X8.268 Y11.2 E340.28134
G1 X-9.471 Y11.2 E341.16634
G1 X-9.876 Y10.972 E341.18953
G1 X-10.037 Y10.873 E341.19896
G1 X-10.146 Y10.8 E341.2055
G1 X8.992 Y10.8 E342.1603
G1 X9.04 Y10.774 E342.16302
G1 X9.173 Y10.694 E342.17077
G1 X9.624 Y10.4 E342.19763
G1 X-10.744 Y10.4 E343.21379
G1 X-10.773 Y10.38 E343.21555
G1 X-10.927 Y10.267 E343.22508
G1 X-11.261 Y10 E343.24641
G1 X10.208 Y10 E344.3175
G1 X10.734 Y9.6 E344.35047
G1 X-11.762 Y9.6 E345.4728
G1 X-11.944 Y9.454 E345.48444
G1 X-12.236 Y9.2 E345.50375
G1 X11.206 Y9.2 E346.67328
G1 X11.623 Y8.833 E346.70099
G1 X11.657 Y8.8 E346.70335
G1 X-12.694 Y8.8 E347.91823
G1 X-13.064 Y8.477 E347.94273
G1 X-13.147 Y8.4 E347.94838
G1 X12.054 Y8.4 E349.20567
G1 X12.445 Y8 E349.23357
G1 X-13.573 Y7.999 E350.53161
G1 X-13.771 Y7.813 E350.54517
G1 X-13.891 Y7.692 E350.55367
G1 X-13.977 Y7.599 E350.55999
G1 X12.808 Y7.6 E351.8963
G1 X13.172 Y7.2 E351.92328
G1 X-14.345 Y7.199 E353.29611
G1 X-14.506 Y7.024 E353.30797
G1 X-14.618 Y6.894 E353.31653
G1 X-14.694 Y6.799 E353.3226
G1 X13.507 Y6.8 E354.72956
G1 X13.839 Y6.4 E354.75549
G1 X-15.012 Y6.399 E356.19487
G1 X-15.172 Y6.197 E356.20773
G1 X-15.287 Y6.041 E356.2174
G1 X-15.316 Y5.999 E356.21995
G1 X14.161 Y6 E357.69056
G1 X14.44 Y5.6 E357.71489
G1 X-15.589 Y5.599 E359.21304
G1 X-15.798 Y5.292 E359.23157
G1 X-15.857 Y5.199 E359.23707
G1 X14.716 Y5.2 E360.76236
G1 X14.758 Y5.136 E360.76618
G1 X14.957 Y4.8 E360.78566
G1 X-16.091 Y4.799 E362.33465
G1 X-16.323 Y4.399 E362.35772
G1 X15.195 Y4.4 E363.93016
G1 X15.231 Y4.341 E363.93361
G1 X15.403 Y4 E363.95266
G1 X-16.522 Y3.999 E365.54541
G1 X-16.708 Y3.599 E365.56742
G1 X15.606 Y3.6 E367.17957
G1 X15.717 Y3.383 E367.19173
G1 X15.793 Y3.2 E367.20161
G1 X-16.894 Y3.199 E368.83238
G1 X-17.067 Y2.825 E368.85293
G1 X-17.078 Y2.799 E368.85434
G1 X15.96 Y2.8 E370.50262
G1 X16.127 Y2.4 E370.52424
G1 X-17.231 Y2.399 E372.18848
G1 X-17.375 Y1.999 E372.20969
G1 X16.267 Y2 E373.88809
G1 X16.399 Y1.6 E373.90911
G1 X-17.517 Y1.599 E375.60118
G1 X-17.549 Y1.5 E375.60638
G1 X-17.634 Y1.199 E375.62198
G1 X16.525 Y1.2 E377.32618
G1 X16.641 Y0.8 E377.34696
G1 X-17.747 Y0.799 E379.06258
G1 X-17.799 Y0.614 E379.07217
G1 X-17.833 Y0.472 E379.07945
G1 X-17.848 Y0.399 E379.08317
G1 X16.757 Y0.4 E380.80962
G1 X16.873 Y0.00 E380.8304
G1 X-17.93 Y0.00 E382.56673
G1 X-18.012 Y-.4 E382.5871
G1 X16.989 Y-.399 E384.33331
G1 X17.105 Y-.799 E384.35409
G1 X-18.072 Y-.8 E386.10907
G1 X-18.124 Y-1.2 E386.1292
G1 X17.221 Y-1.199 E387.89257
G1 X17.311 Y-1.506 E387.90853
G1 X17.334 Y-1.599 E387.91331
G1 X-18.171 Y-1.6 E389.68466
G1 X-18.178 Y-1.68 E389.68867
G1 X-18.196 Y-2 E389.70466
G1 X17.434 Y-1.999 E391.48224
G1 X17.535 Y-2.399 E391.50283
G1 X-18.217 Y-2.4 E393.2865
G1 X-18.226 Y-2.568 E393.29489
G1 X-18.229 Y-2.752 E393.30407
G1 X-18.227 Y-2.8 E393.30647
G1 X17.621 Y-2.799 E395.09494
G1 X17.689 Y-3.199 E395.11518
G1 X-18.215 Y-3.2 E396.90644
G1 X-18.202 Y-3.6 E396.9264
G1 X17.757 Y-3.599 E398.7204
G1 X17.781 Y-3.737 E398.72739
G1 X17.833 Y-3.999 E398.74072
G1 X-18.19 Y-4 E400.53791
