;FLAVOR:Marlin
;TIME:5421
;Filament used: 7.63261m
;Layer height: 0.25
;ZOFFSETPROCESSED
;Generated with Cura_SteamEngine 3.4.1
M190 S50
M104 S185
M109 S185
M82 ;absolute extrusion mode
G21 ;metric values
G90 ;absolute positioning
M82 ;set extruder to absolute mode
M107 ;start with the fan off
G28 ;Home all axes (max endstops)
G1 Z15.0 F9000 ;move the platform down 15mm
G92 E0 ;zero the extruded length
G1 F200 E3 ;extrude 3mm of feed stock
G92 E0 ;zero the extruded length again
G1 F9000
;Put printing message on LCD screen
M117 Printing...
G92 E0
G1 F1500 E-6.5
;LAYER_COUNT:32
;LAYER:-7
M107
G0 F3600 X-2.688 Y1.623 Z2.36 ;adjusted by z offset
G92 Z0.36 ;consider this the original z before offset
G1 F1500 E0
G1 F1350 X-2.445 Y2.084 E0.0624
G1 X-2.204 Y2.576 E0.128
G1 X-1.952 Y3.146 E0.20262
G1 X-1.676 Y3.838 E0.29182
G1 X-1.43 Y4.548 E0.38179
G1 X-1.291 Y5.019 E0.44059
G1 X-1.07 Y5.962 E0.55657
G1 X-.989 Y6.435 E0.61403
G1 X-.892 Y7.282 E0.7161
G1 X-.864 Y7.726 E0.76937
G1 X-.859 Y8.429 E0.85355
G1 X-.814 Y9.098 E0.93384
G1 X-.684 Y9.768 E1.01555
G1 X-.469 Y10.417 E1.09742
G1 X-.174 Y11.032 E1.17909
G1 X0.195 Y11.606 E1.26079
G1 X0.636 Y12.13 E1.3428
G1 X1.181 Y12.627 E1.43111
G1 X2.168 Y13.413 E1.58219
G1 X2.752 Y13.762 E1.66365
G1 X3.247 Y13.985 E1.72866
G1 X3.46 Y14.071 E1.75616
G1 X4.353 Y14.518 E1.87573
G1 X4.498 Y14.598 E1.89556
G1 X5.284 Y15.124 E2.0088
G1 X5.45 Y15.246 E2.03347
G1 X6.009 Y15.719 E2.12115
G1 X6.134 Y15.835 E2.14157
G1 X6.393 Y16.098 E2.18577
G1 X6.649 Y16.371 E2.23058
G1 X7.115 Y16.921 E2.31689
G1 X7.239 Y17.081 E2.34113
G1 X7.5 Y17.453 E2.39554
G1 X7.665 Y17.706 E2.43171
G1 X7.817 Y17.963 E2.46746
G1 X8.193 Y18.518 E2.54773
G1 X8.646 Y19.03 E2.62958
G1 X9.159 Y19.48 E2.71129
G1 X9.697 Y19.845 E2.78914
G1 X10.086 Y20.075 E2.84325
G1 X10.591 Y20.427 E2.91695
G1 X10.688 Y20.502 E2.93163
G1 X11.167 Y20.902 E3.00636
G1 X11.305 Y21.026 E3.02857
G1 X11.602 Y21.319 E3.07852
G1 X12.101 Y21.881 E3.16851
G1 X12.241 Y22.055 E3.19525
G1 X12.507 Y22.419 E3.24924
G1 X12.744 Y22.774 E3.30034
G1 X13.049 Y23.271 E3.37017
G1 X13.153 Y23.462 E3.39621
G1 X13.495 Y24.189 E3.49241
G1 X13.636 Y24.54 E3.5377
G1 X13.834 Y25.102 E3.60904
G1 X13.896 Y25.312 E3.63526
G1 X14.038 Y25.89 E3.70653
G1 X14.139 Y26.419 E3.77101
G1 X14.228 Y27.06 E3.8485
G1 X14.362 Y27.716 E3.92867
G1 X14.583 Y28.362 E4.01042
G1 X14.882 Y28.975 E4.09208
G1 X15.257 Y29.547 E4.17398
G1 X15.702 Y30.066 E4.25584
G1 X16.204 Y30.521 E4.33696
G1 X16.606 Y30.812 E4.39638
G1 X16.926 Y31.028 E4.44261
G1 X17.193 Y31.233 E4.48292
G1 X17.838 Y31.779 E4.5841
G1 X18.015 Y31.949 E4.61349
G1 X18.604 Y32.571 E4.71606
G1 X18.77 Y32.773 E4.74736
G1 X19.338 Y33.529 E4.86058
G1 X19.449 Y33.703 E4.8853
G1 X19.95 Y34.579 E5.00613
G1 X20.041 Y34.772 E5.03168
G1 X20.435 Y35.729 E5.1556
G1 X20.502 Y35.944 E5.18256
G1 X20.738 Y36.828 E5.29212
G1 X20.79 Y37.066 E5.32128
G1 X20.911 Y37.944 E5.42741
G1 X20.934 Y38.188 E5.45675
G1 X20.955 Y39.025 E5.557
G1 X20.943 Y39.521 E5.61641
G1 X20.853 Y40.497 E5.73377
G1 X20.77 Y41.039 E5.79942
G1 X20.586 Y41.883 E5.90285
G1 X20.436 Y42.432 E5.971
G1 X20.21 Y43.115 E6.05714
G1 X19.98 Y43.714 E6.13397
G1 X19.769 Y44.204 E6.19785
G1 X19.533 Y44.7 E6.26362
G1 X19.203 Y45.324 E6.34814
G1 X18.949 Y45.764 E6.40897
G1 X18.614 Y46.298 E6.48445
G1 X17.984 Y47.217 E6.61786
G1 X17.761 Y47.525 E6.66339
G1 X17.481 Y47.889 E6.71838
G1 X17.164 Y48.277 E6.77837
G1 X16.368 Y49.197 E6.92403
G1 X16.16 Y49.428 E6.96125
G1 X15.199 Y50.452 E7.1294
G1 X14.966 Y50.689 E7.1692
G1 X13.984 Y51.653 E7.33396
G1 X13.729 Y51.893 E7.37589
G1 X12.005 Y53.435 E7.65284
G1 X10.826 Y54.438 E7.83819
G1 X7.203 Y57.393 E8.39799
G1 X5.738 Y58.494 E8.61742
G1 X4.868 Y59.1 E8.74437
G1 X3.983 Y59.671 E8.87047
G1 X3.312 Y60.074 E8.96419
G1 X2.974 Y60.267 E9.0108
G1 X2.087 Y60.744 E9.13139
G1 X1.496 Y61.03 E9.21
G1 X0.838 Y61.318 E9.29601
G1 X0.225 Y61.557 E9.37479
G1 X-.431 Y61.784 E9.4579
G1 X-1.106 Y61.984 E9.5422
G1 X-1.793 Y62.155 E9.62697
G1 X-2.393 Y62.281 E9.70038
G1 X-3.072 Y62.387 E9.78266
G1 X-3.443 Y62.43 E9.82738
G1 X-3.925 Y62.471 E9.8853
G1 X-4.226 Y62.488 E9.9214
G1 X-4.603 Y62.498 E9.96656
G1 X-5.018 Y62.499 E10.01625
G1 X-5.524 Y62.483 E10.07686
G1 X-5.832 Y62.463 E10.11382
G1 X-6.598 Y62.381 E10.20606
G1 X-7.17 Y62.288 E10.27545
G1 X-7.616 Y62.197 E10.32995
G1 X-8.341 Y62.008 E10.41967
G1 X-8.627 Y61.919 E10.45553
G1 X-9.256 Y61.695 E10.53548
G1 X-9.614 Y61.546 E10.58191
G1 X-10.213 Y61.269 E10.66093
G1 X-10.508 Y61.116 E10.70072
G1 X-11.016 Y60.829 E10.77058
G1 X-11.302 Y60.652 E10.81085
G1 X-11.809 Y60.31 E10.88408
G1 X-12.074 Y60.117 E10.92333
G1 X-12.488 Y59.793 E10.98628
G1 X-12.787 Y59.543 E11.03295
G1 X-13.287 Y59.087 E11.11397
G1 X-13.583 Y58.793 E11.16393
G1 X-14.019 Y58.319 E11.24104
G1 X-14.231 Y58.069 E11.28029
G1 X-14.653 Y57.528 E11.36244
G1 X-14.937 Y57.125 E11.42147
G1 X-15.304 Y56.547 E11.50345
G1 X-15.44 Y56.309 E11.53628
G1 X-15.757 Y55.705 E11.61795
G1 X-15.91 Y55.38 E11.66096
G1 X-16.169 Y54.766 E11.74075
G1 X-16.322 Y54.353 E11.79349
G1 X-16.492 Y53.832 E11.85911
G1 X-16.607 Y53.427 E11.90952
G1 X-16.705 Y53.044 E11.95686
G1 X-16.803 Y52.604 E12.01083
G1 X-16.875 Y52.24 E12.05526
G1 X-16.935 Y51.886 E12.09825
G1 X-17.002 Y51.408 E12.15604
G1 X-17.042 Y51.062 E12.19775
G1 X-17.078 Y50.653 E12.24691
G1 X-17.104 Y50.235 E12.29706
G1 X-17.118 Y49.836 E12.34486
G1 X-17.121 Y49.492 E12.38605
G1 X-17.105 Y48.858 E12.46199
G1 X-17.064 Y48.153 E12.54655
G1 X-17.068 Y47.483 E12.62677
G1 X-17.158 Y46.806 E12.70855
G1 X-17.332 Y46.146 E12.79027
G1 X-17.589 Y45.513 E12.87207
G1 X-17.922 Y44.918 E12.95372
G1 X-18.329 Y44.37 E13.03545
G1 X-18.802 Y43.876 E13.11734
G1 X-19.332 Y43.447 E13.19898
G1 X-19.913 Y43.088 E13.28076
G1 X-20.535 Y42.805 E13.36258
G1 X-21.187 Y42.603 E13.44431
G1 X-21.854 Y42.487 E13.52537
G1 X-22.971 Y42.406 E13.65947
G1 X-23.814 Y42.294 E13.7613
G1 X-24.291 Y42.207 E13.81935
G1 X-24.646 Y42.129 E13.86287
G1 X-25.224 Y41.979 E13.93437
G1 X-25.533 Y41.886 E13.97301
G1 X-26.25 Y41.634 E14.06401
G1 X-26.53 Y41.519 E14.10025
G1 X-27.167 Y41.227 E14.18416
G1 X-27.441 Y41.087 E14.221
G1 X-28.017 Y40.76 E14.30031
G1 X-28.332 Y40.562 E14.34486
G1 X-28.871 Y40.192 E14.42314
G1 X-29.17 Y39.966 E14.46802
G1 X-29.642 Y39.581 E14.54095
G1 X-29.885 Y39.365 E14.57988
G1 X-30.334 Y38.94 E14.6539
G1 X-30.566 Y38.705 E14.69344
G1 X-30.964 Y38.267 E14.76431
G1 X-31.215 Y37.969 E14.81096
G1 X-31.668 Y37.377 E14.90021
G1 X-31.882 Y37.064 E14.94561
G1 X-32.298 Y36.396 E15.03984
G1 X-32.571 Y35.899 E15.10773
G1 X-32.951 Y35.11 E15.21259
G1 X-33.036 Y34.908 E15.23883
G1 X-33.33 Y34.103 E15.34145
G1 X-33.438 Y33.753 E15.38531
G1 X-33.599 Y33.148 E15.46027
G1 X-33.678 Y32.797 E15.50335
G1 X-33.767 Y32.345 E15.55851
G1 X-33.83 Y31.957 E15.60557
G1 X-33.884 Y31.562 E15.65331
G1 X-33.923 Y31.219 E15.69464
G1 X-33.961 Y30.764 E15.74931
G1 X-33.979 Y30.425 E15.78996
G1 X-33.993 Y29.962 E15.84542
G1 X-34.053 Y29.294 E15.92573
G1 X-34.2 Y28.627 E16.00751
G1 X-34.429 Y27.984 E16.08924
G1 X-34.738 Y27.375 E16.17101
G1 X-35.121 Y26.81 E16.25274
G1 X-35.573 Y26.298 E16.33451
G1 X-36.085 Y25.846 E16.41629
G1 X-36.649 Y25.465 E16.49779
G1 X-37.133 Y25.212 E16.56318
G1 X-37.707 Y24.945 E16.63898
G1 X-37.973 Y24.806 E16.67491
G1 X-38.601 Y24.442 E16.76183
G1 X-38.872 Y24.267 E16.80045
G1 X-39.416 Y23.886 E16.87998
G1 X-39.663 Y23.698 E16.91714
G1 X-40.199 Y23.251 E17.00071
G1 X-40.431 Y23.042 E17.0381
G1 X-40.88 Y22.603 E17.11329
G1 X-41.139 Y22.329 E17.15843
G1 X-41.521 Y21.895 E17.22766
G1 X-41.832 Y21.516 E17.28636
G1 X-42.238 Y20.971 E17.36774
G1 X-42.523 Y20.562 E17.42743
G1 X-42.91 Y19.952 E17.51392
G1 X-43.193 Y19.454 E17.58251
G1 X-43.589 Y18.666 E17.68811
G1 X-43.77 Y18.254 E17.74199
G1 X-44.105 Y17.379 E17.85417
G1 X-44.238 Y16.965 E17.90624
G1 X-44.457 Y16.164 E18.00567
G1 X-44.585 Y15.572 E18.07819
G1 X-44.753 Y14.89 E18.16229
G1 X-45.002 Y14.254 E18.24407
G1 X-45.329 Y13.654 E18.32589
G1 X-45.727 Y13.104 E18.40718
G1 X-46.054 Y12.741 E18.46568
G1 X-46.289 Y12.504 E18.50564
G1 X-46.79 Y12.059 E18.58588
G1 X-47.354 Y11.674 E18.66764
G1 X-47.961 Y11.362 E18.74936
G1 X-48.608 Y11.128 E18.83174
G1 X-49.498 Y10.949 E18.94044
G1 X-50.342 Y10.82 E19.04267
G1 X-51.014 Y10.683 E19.12479
G1 X-51.29 Y10.614 E19.15885
G1 X-51.762 Y10.48 E19.2176
G1 X-52.068 Y10.383 E19.25604
G1 X-52.589 Y10.198 E19.32224
G1 X-52.897 Y10.075 E19.36195
G1 X-53.548 Y9.785 E19.44728
G1 X-53.83 Y9.643 E19.48509
G1 X-54.329 Y9.366 E19.55342
G1 X-54.608 Y9.199 E19.59236
G1 X-55.242 Y8.774 E19.68375
G1 X-55.489 Y8.591 E19.72056
G1 X-56.012 Y8.167 E19.80117
G1 X-56.242 Y7.965 E19.83783
G1 X-56.698 Y7.531 E19.9132
G1 X-56.959 Y7.264 E19.95791
G1 X-57.347 Y6.832 E20.02744
G1 X-57.575 Y6.56 E20.06993
G1 X-58.012 Y5.985 E20.15641
G1 X-58.355 Y5.486 E20.22891
G1 X-58.805 Y4.747 E20.33251
G1 X-58.969 Y4.443 E20.37387
G1 X-59.32 Y3.693 E20.47302
G1 X-59.528 Y3.185 E20.53875
G1 X-59.849 Y2.218 E20.66074
G1 X-59.893 Y2.066 E20.67969
G1 X-59.995 Y1.663 E20.72947
G1 X-60.18 Y0.699 E20.847
G1 X-60.256 Y0.117 E20.91728
G1 X-60.315 Y-.58 E21.00103
G1 X-60.329 Y-.932 E21.04321
G1 X-60.335 Y-1.338 E21.09183
G1 X-60.329 Y-1.775 E21.14416
G1 X-60.361 Y-2.444 E21.22436
G1 X-60.479 Y-3.116 E21.30605
G1 X-60.681 Y-3.769 E21.38789
G1 X-60.965 Y-4.39 E21.46966
G1 X-61.326 Y-4.974 E21.55186
G1 X-61.888 Y-5.641 E21.6563
G1 X-62.131 Y-5.887 E21.6977
G1 X-62.645 Y-6.454 E21.78933
G1 X-62.983 Y-6.867 E21.85324
G1 X-63.556 Y-7.625 E21.96701
G1 X-63.982 Y-8.256 E22.05817
G1 X-64.398 Y-8.94 E22.15403
G1 X-64.636 Y-9.365 E22.21235
G1 X-64.754 Y-9.594 E22.2432
G1 X-65.017 Y-10.149 E22.31673
G1 X-65.308 Y-10.827 E22.40508
G1 X-65.57 Y-11.525 E22.49435
G1 X-65.726 Y-12.009 E22.55524
G1 X-65.862 Y-12.484 E22.6144
G1 X-65.987 Y-12.986 E22.67634
G1 X-66.082 Y-13.419 E22.72942
G1 X-66.178 Y-13.919 E22.79038
G1 X-66.226 Y-14.204 E22.82499
G1 X-66.302 Y-14.733 E22.88898
G1 X-66.353 Y-15.184 E22.94332
G1 X-66.398 Y-15.716 E23.00725
G1 X-66.419 Y-16.047 E23.04696
G1 X-66.439 Y-16.615 E23.11501
G1 X-66.441 Y-16.997 E23.16075
G1 X-66.431 Y-17.548 E23.22674
G1 X-66.379 Y-18.436 E23.33325
G1 X-66.296 Y-19.234 E23.42931
G1 X-66.24 Y-19.645 E23.47898
G1 X-66.104 Y-20.453 E23.57709
G1 X-66.021 Y-21.111 E23.6565
G1 X-66.021 Y-21.793 E23.73816
G1 X-66.107 Y-22.471 E23.81999
G1 X-66.278 Y-23.132 E23.90174
G1 X-66.529 Y-23.761 E23.98283
G1 X-66.724 Y-24.134 E24.03323
G1 X-67.118 Y-24.846 E24.13066
G1 X-67.451 Y-25.522 E24.22089
G1 X-67.784 Y-26.28 E24.32002
G1 X-67.903 Y-26.578 E24.35845
G1 X-68.066 Y-27.015 E24.41429
G1 X-68.185 Y-27.358 E24.45776
G1 X-68.32 Y-27.785 E24.51138
G1 X-68.515 Y-28.482 E24.59805
G1 X-68.62 Y-28.914 E24.65128
G1 X-68.711 Y-29.346 E24.70414
G1 X-68.816 Y-29.958 E24.77849
G1 X-68.893 Y-30.542 E24.84902
G1 X-68.953 Y-31.209 E24.92921
G1 X-68.969 Y-31.526 E24.96721
G1 X-68.98 Y-32.054 E25.03045
G1 X-68.973 Y-32.481 E25.08158
G1 X-68.952 Y-32.955 E25.13839
G1 X-68.915 Y-33.406 E25.19257
G1 X-68.871 Y-33.794 E25.23933
G1 X-68.803 Y-34.269 E25.29678
G1 X-68.687 Y-34.887 E25.37207
G1 X-68.628 Y-35.15 E25.40435
G1 X-68.396 Y-35.998 E25.50961
G1 X-68.268 Y-36.38 E25.55785
G1 X-68.042 Y-36.976 E25.63417
G1 X-67.966 Y-37.15 E25.65691
G1 X-67.697 Y-37.715 E25.73184
G1 X-67.521 Y-38.05 E25.77715
G1 X-67.256 Y-38.514 E25.84113
G1 X-67.104 Y-38.756 E25.87535
G1 X-66.733 Y-39.297 E25.95389
G1 X-66.513 Y-39.589 E25.99767
G1 X-66.029 Y-40.176 E26.08876
G1 X-65.768 Y-40.463 E26.13521
G1 X-65.212 Y-41.018 E26.22928
G1 X-64.865 Y-41.332 E26.28531
G1 X-64.369 Y-41.747 E26.36275
G1 X-63.989 Y-42.035 E26.41984
G1 X-63.455 Y-42.408 E26.49783
G1 X-63.073 Y-42.649 E26.55191
G1 X-62.469 Y-42.996 E26.63532
G1 X-62.113 Y-43.179 E26.68325
G1 X-61.404 Y-43.503 E26.77658
G1 X-61.037 Y-43.649 E26.82388
G1 X-60.437 Y-43.857 E26.89991
G1 X-60.015 Y-43.986 E26.95275
G1 X-59.129 Y-44.197 E27.0618
G1 X-58.843 Y-44.249 E27.09661
G1 X-57.842 Y-44.375 E27.21741
G1 X-57.206 Y-44.415 E27.29371
G1 X-56.549 Y-44.43 E27.3724
G1 X-56.153 Y-44.421 E27.41983
G1 X-55.68 Y-44.396 E27.47654
G1 X-55.312 Y-44.364 E27.52077
G1 X-54.756 Y-44.299 E27.5878
G1 X-54.352 Y-44.236 E27.63676
G1 X-53.884 Y-44.148 E27.69378
G1 X-53.473 Y-44.058 E27.74415
G1 X-52.916 Y-43.917 E27.81295
G1 X-52.528 Y-43.804 E27.86134
G1 X-52.073 Y-43.655 E27.91867
G1 X-51.576 Y-43.474 E27.982
G1 X-51.284 Y-43.36 E28.01953
G1 X-50.583 Y-43.059 E28.11088
G1 X-50.161 Y-42.86 E28.16674
G1 X-49.789 Y-42.672 E28.21665
G1 X-49.1 Y-42.293 E28.31081
G1 X-48.701 Y-42.056 E28.36637
G1 X-48.003 Y-41.603 E28.46601
G1 X-47.426 Y-41.262 E28.54626
G1 X-46.8 Y-40.99 E28.62798
G1 X-46.144 Y-40.8 E28.70976
G1 X-45.466 Y-40.693 E28.79195
G1 X-44.56 Y-40.687 E28.90043
G1 X-43.869 Y-40.729 E28.98332
G1 X-43.118 Y-40.743 E29.07326
G1 X-42.447 Y-40.727 E29.15362
G1 X-41.644 Y-40.673 E29.24999
G1 X-41.111 Y-40.617 E29.31416
G1 X-40.764 Y-40.569 E29.3561
G1 X-40.126 Y-40.455 E29.43371
G1 X-39.413 Y-40.295 E29.5212
G1 X-38.612 Y-40.071 E29.62079
G1 X-37.915 Y-39.836 E29.70886
G1 X-37.311 Y-39.603 E29.78638
G1 X-36.971 Y-39.456 E29.83073
G1 X-36.392 Y-39.177 E29.90769
G1 X-36.058 Y-38.998 E29.95306
G1 X-35.534 Y-38.69 E30.02584
G1 X-35.248 Y-38.508 E30.06643
G1 X-34.769 Y-38.179 E30.13601
G1 X-34.479 Y-37.963 E30.1793
G1 X-34.017 Y-37.592 E30.25025
G1 X-33.746 Y-37.357 E30.2932
G1 X-33.362 Y-37.002 E30.35582
G1 X-33.073 Y-36.715 E30.40458
G1 X-32.609 Y-36.211 E30.48661
G1 X-32.192 Y-35.718 E30.56393
G1 X-31.752 Y-35.149 E30.65005
G1 X-31.443 Y-34.71 E30.71433
G1 X-31.141 Y-34.245 E30.78072
G1 X-30.865 Y-33.781 E30.84536
G1 X-30.594 Y-33.28 E30.91356
G1 X-30.395 Y-32.878 E30.96727
G1 X-30.1 Y-32.213 E31.05438
G1 X-29.925 Y-31.764 E31.11208
G1 X-29.691 Y-31.079 E31.19876
G1 X-29.553 Y-30.602 E31.25821
G1 X-29.387 Y-29.916 E31.34272
G1 X-29.285 Y-29.388 E31.40711
G1 X-29.208 Y-28.895 E31.46686
G1 X-29.136 Y-28.276 E31.54147
G1 X-29.102 Y-27.877 E31.58942
G1 X-29.077 Y-27.489 E31.63598
G1 X-29.059 Y-26.882 E31.70869
G1 X-29.06 Y-26.413 E31.76484
G1 X-29.072 Y-25.995 E31.81491
G1 X-29.1 Y-25.508 E31.87332
G1 X-29.16 Y-24.87 E31.95005
G1 X-29.194 Y-24.2 E32.03038
G1 X-29.142 Y-23.519 E32.11216
G1 X-29.004 Y-22.849 E32.19406
G1 X-28.751 Y-22.127 E32.28567
G1 X-28.646 Y-21.886 E32.31714
G1 X-28.339 Y-21.289 E32.39752
G1 X-27.954 Y-20.726 E32.47919
G1 X-27.5 Y-20.215 E32.56104
G1 X-26.986 Y-19.767 E32.64268
G1 X-26.419 Y-19.386 E32.72447
G1 X-25.808 Y-19.08 E32.80629
G1 X-25.165 Y-18.854 E32.8879
G1 X-24.494 Y-18.71 E32.97007
G1 X-23.69 Y-18.652 E33.06659
G1 X-23.153 Y-18.654 E33.13089
G1 X-22.924 Y-18.642 E33.15835
G1 X-21.969 Y-18.533 E33.27344
G1 X-21.68 Y-18.481 E33.3086
G1 X-21.007 Y-18.328 E33.39124
G1 X-20.803 Y-18.271 E33.4166
G1 X-19.885 Y-17.966 E33.53242
G1 X-19.88 Y-17.98 E33.5342
G1 X-19.821 Y-17.962 E33.54159
G1 X-19.15 Y-17.842 E33.62321
G1 X-18.467 Y-17.806 E33.7051
G1 X-17.786 Y-17.858 E33.78688
G1 X-17.118 Y-17.995 E33.86853
G1 X-16.471 Y-18.216 E33.95039
G1 X-15.857 Y-18.516 E34.03222
G1 X-15.287 Y-18.891 E34.11391
G1 X-14.768 Y-19.335 E34.19569
G1 X-14.31 Y-19.841 E34.27741
G1 X-13.92 Y-20.401 E34.35912
G1 X-13.602 Y-21.006 E34.44096
G1 X-13.364 Y-21.645 E34.52261
G1 X-13.208 Y-22.31 E34.60439
G1 X-13.138 Y-22.99 E34.68624
G1 X-13.154 Y-23.673 E34.76805
G1 X-13.255 Y-24.348 E34.84977
G1 X-13.441 Y-25.004 E34.93141
G1 X-13.706 Y-25.627 E35.01248
G1 X-13.876 Y-25.939 E35.05502
G1 X-14.197 Y-26.488 E35.13117
G1 X-14.391 Y-26.859 E35.1813
G1 X-14.676 Y-27.459 E35.26083
G1 X-14.804 Y-27.764 E35.30044
G1 X-15.055 Y-28.438 E35.38655
G1 X-15.169 Y-28.797 E35.43165
G1 X-15.352 Y-29.468 E35.51493
G1 X-15.424 Y-29.787 E35.55409
G1 X-15.557 Y-30.525 E35.64388
G1 X-15.586 Y-30.732 E35.6689
G1 X-15.654 Y-31.387 E35.74775
G1 X-15.679 Y-31.741 E35.79025
G1 X-15.695 Y-32.164 E35.84093
G1 X-15.7 Y-32.54 E35.88596
G1 X-15.695 Y-33.047 E35.94666
G1 X-15.737 Y-33.715 E36.02681
G1 X-15.866 Y-34.386 E36.10862
G1 X-16.079 Y-35.035 E36.19041
G1 X-16.371 Y-35.652 E36.27214
G1 X-16.74 Y-36.229 E36.35415
G1 X-17.265 Y-36.842 E36.45079
G1 X-17.482 Y-37.061 E36.4877
G1 X-17.808 Y-37.409 E36.5448
G1 X-18.045 Y-37.681 E36.58799
