;FLAVOR:Marlin
;TIME:5100
;Filament used: 7.10664m
;Layer height: 0.25
;ZOFFSETPROCESSED
;Generated with Cura_SteamEngine 3.4.1
M190 S50
M104 S185
M109 S185
M82 ;absolute extrusion mode
G21 ;metric values
G90 ;absolute positioning
M82 ;set extruder to absolute mode
M107 ;start with the fan off
G28 ;Home all axes (max endstops)
G1 Z15.0 F9000 ;move the platform down 15mm
G92 E0 ;zero the extruded length
G1 F200 E3 ;extrude 3mm of feed stock
G92 E0 ;zero the extruded length again
G1 F9000
;Put printing message on LCD screen
M117 Printing...
G92 E0
G1 F1500 E-6.5
;LAYER_COUNT:36
;LAYER:-8
M107
G0 F7200 X-18.294 Y20.333 Z2.36 ;adjusted by z offset
G92 Z0.36 ;consider this the original z before offset
G1 F1500 E0
G1 F1350 X-18.962 Y19.783 E0.10361
G1 X-19.719 Y19.254 E0.21419
G1 X-19.985 Y19.05 E0.25432
G1 X-20.922 Y18.272 E0.40015
G1 X-21.167 Y18.05 E0.43974
G1 X-22.079 Y17.157 E0.59257
G1 X-22.573 Y16.704 E0.67282
G1 X-23.131 Y16.309 E0.75468
G1 X-23.764 Y15.976 E0.84032
G1 X-24.402 Y15.69 E0.92404
G1 X-25.654 Y15.061 E1.0918
G1 X-26.005 Y14.862 E1.14012
G1 X-27.153 Y14.151 E1.3018
G1 X-27.723 Y13.761 E1.3845
G1 X-28.652 Y13.074 E1.52284
G1 X-29.066 Y12.739 E1.58661
G1 X-29.916 Y12 E1.72147
G1 X-30.349 Y11.59 E1.79287
G1 X-31.385 Y10.513 E1.97181
G1 X-31.734 Y10.112 E2.03546
G1 X-32.17 Y9.591 E2.11681
G1 X-32.832 Y8.74 E2.2459
G1 X-33.294 Y8.114 E2.33906
G1 X-33.597 Y7.689 E2.40156
G1 X-34.103 Y6.949 E2.50889
G1 X-34.443 Y6.431 E2.58309
G1 X-34.929 Y5.656 E2.69262
G1 X-35.213 Y5.176 E2.7594
G1 X-35.894 Y3.979 E2.92429
G1 X-36.226 Y3.357 E3.00872
G1 X-36.578 Y2.787 E3.08893
G1 X-37.009 Y2.251 E3.17128
G1 X-37.693 Y1.626 E3.28222
G1 X-38.392 Y1.088 E3.38784
G1 X-38.591 Y0.922 E3.41887
G1 X-39.501 Y0.098 E3.56586
G1 X-39.73 Y-.127 E3.6043
G1 X-40.532 Y-.978 E3.74432
G1 X-40.763 Y-1.242 E3.78632
G1 X-41.474 Y-2.124 E3.92197
G1 X-41.706 Y-2.433 E3.96824
G1 X-42.37 Y-3.399 E4.10859
G1 X-42.552 Y-3.687 E4.14938
G1 X-43.204 Y-4.825 E4.30642
G1 X-43.389 Y-5.187 E4.3551
G1 X-44.055 Y-6.68 E4.55085
G1 X-44.235 Y-7.148 E4.61088
G1 X-44.559 Y-8.087 E4.72982
G1 X-44.736 Y-8.696 E4.80576
G1 X-44.844 Y-9.117 E4.8578
G1 X-45.116 Y-10.394 E5.01413
G1 X-45.16 Y-10.66 E5.04642
G1 X-45.331 Y-11.999 E5.20805
G1 X-45.356 Y-12.284 E5.2423
G1 X-45.368 Y-12.512 E5.26964
G1 X-45.447 Y-13.177 E5.34982
G1 X-45.612 Y-13.84 E5.43163
G1 X-45.861 Y-14.476 E5.51341
G1 X-45.956 Y-14.651 E5.53725
G1 X-45.934 Y-14.662 E5.5402
G1 X-46.46 Y-15.531 E5.66183
G1 X-47.061 Y-16.65 E5.81391
G1 X-47.425 Y-17.395 E5.9132
G1 X-47.98 Y-18.703 E6.08333
G1 X-48.161 Y-19.197 E6.14632
G1 X-48.574 Y-20.494 E6.3093
G1 X-48.767 Y-21.21 E6.39809
G1 X-49.002 Y-22.218 E6.52202
G1 X-49.08 Y-22.615 E6.57047
G1 X-49.226 Y-23.467 E6.67397
G1 X-49.29 Y-23.921 E6.72887
G1 X-49.382 Y-24.708 E6.82374
G1 X-49.425 Y-25.187 E6.88133
G1 X-49.476 Y-25.987 E6.97731
G1 X-49.494 Y-26.489 E7.03746
G1 X-49.503 Y-27.227 E7.12583
G1 X-49.496 Y-27.735 E7.18666
G1 X-49.467 Y-28.482 E7.27617
G1 X-49.436 Y-28.982 E7.33616
G1 X-49.378 Y-29.64 E7.41525
G1 X-49.356 Y-29.842 E7.43958
G1 X-49.324 Y-30.51 E7.51965
G1 X-49.378 Y-31.191 E7.60145
G1 X-49.518 Y-31.863 E7.68364
G1 X-49.683 Y-32.312 E7.74092
G1 X-49.656 Y-32.326 E7.74456
G1 X-50.097 Y-33.294 E7.87193
G1 X-50.278 Y-33.719 E7.92724
G1 X-50.647 Y-34.661 E8.04837
G1 X-50.892 Y-35.363 E8.1374
G1 X-51.035 Y-35.806 E8.19314
G1 X-51.245 Y-36.525 E8.28283
G1 X-51.348 Y-36.91 E8.33055
G1 X-51.518 Y-37.614 E8.41726
G1 X-51.617 Y-38.08 E8.4743
G1 X-51.761 Y-38.87 E8.57046
G1 X-51.843 Y-39.411 E8.63597
G1 X-51.946 Y-40.292 E8.74218
G1 X-51.979 Y-40.677 E8.78845
G1 X-52.028 Y-41.577 E8.89637
G1 X-52.038 Y-41.991 E8.94595
G1 X-52.03 Y-42.946 E9.06031
G1 X-52.011 Y-43.384 E9.1128
G1 X-51.923 Y-44.487 E9.24529
G1 X-51.896 Y-44.727 E9.27421
G1 X-51.678 Y-46.112 E9.44208
G1 X-51.56 Y-46.687 E9.51237
G1 X-51.2 Y-48.1 E9.68696
G1 X-50.775 Y-49.335 E9.84335
G1 X-50.641 Y-49.677 E9.88733
G1 X-50.211 Y-50.664 E10.01624
G1 X-49.807 Y-51.456 E10.12269
G1 X-49.051 Y-52.738 E10.3009
G1 X-48.812 Y-53.104 E10.35324
G1 X-48.206 Y-53.952 E10.47803
G1 X-48.061 Y-54.142 E10.50665
G1 X-47.351 Y-54.992 E10.63926
G1 X-47.064 Y-55.314 E10.69091
G1 X-46.064 Y-56.321 E10.86084
G1 X-45.709 Y-56.647 E10.91855
G1 X-44.781 Y-57.429 E11.06385
G1 X-44.425 Y-57.705 E11.11779
G1 X-43.289 Y-58.505 E11.28415
G1 X-42.902 Y-58.749 E11.33893
G1 X-41.765 Y-59.405 E11.49611
G1 X-41.402 Y-59.592 E11.545
G1 X-40.215 Y-60.14 E11.70154
G1 X-39.762 Y-60.324 E11.76009
G1 X-38.425 Y-60.791 E11.92966
G1 X-38.035 Y-60.907 E11.97838
G1 X-36.568 Y-61.259 E12.15902
G1 X-36.17 Y-61.336 E12.20756
G1 X-35.11 Y-61.493 E12.33586
G1 X-34.41 Y-61.558 E12.42004
G1 X-33.778 Y-61.599 E12.49587
G1 X-32.492 Y-61.629 E12.64989
G1 X-32.078 Y-61.62 E12.69948
G1 X-31.105 Y-61.567 E12.81615
G1 X-30.657 Y-61.526 E12.87002
G1 X-29.677 Y-61.407 E12.98822
G1 X-29.256 Y-61.34 E13.03927
G1 X-28.26 Y-61.147 E13.16074
G1 X-27.858 Y-61.054 E13.21015
G1 X-26.992 Y-60.83 E13.31725
G1 X-26.581 Y-60.709 E13.36855
G1 X-25.723 Y-60.429 E13.47662
G1 X-25.328 Y-60.286 E13.52692
G1 X-24.261 Y-59.853 E13.6648
G1 X-23.536 Y-59.529 E13.75988
G1 X-22.556 Y-59.048 E13.89059
G1 X-22.139 Y-58.825 E13.94721
G1 X-21.817 Y-58.642 E13.99156
G1 X-21.215 Y-58.348 E14.07178
G1 X-20.569 Y-58.129 E14.15345
G1 X-19.898 Y-57.992 E14.23545
G1 X-19.629 Y-57.974 E14.26773
G1 X-19.629 Y-57.955 E14.27001
G1 X-18.018 Y-57.911 E14.46298
G1 X-17.219 Y-57.858 E14.55886
G1 X-15.755 Y-57.682 E14.73541
G1 X-15.041 Y-57.561 E14.82212
G1 X-13.53 Y-57.221 E15.00757
G1 X-12.832 Y-57.027 E15.09431
G1 X-11.56 Y-56.611 E15.25456
G1 X-11.249 Y-56.494 E15.29434
G1 X-10.493 Y-56.187 E15.39204
G1 X-10.139 Y-56.03 E15.43841
G1 X-9.163 Y-55.555 E15.56838
G1 X-8.842 Y-55.383 E15.61198
G1 X-7.867 Y-54.818 E15.74691
G1 X-7.554 Y-54.617 E15.79145
G1 X-6.656 Y-53.998 E15.92204
G1 X-6.361 Y-53.778 E15.96611
G1 X-5.541 Y-53.122 E16.09184
G1 X-5.35 Y-52.958 E16.12199
G1 X-4.6 Y-52.273 E16.24361
G1 X-4.264 Y-51.944 E16.29991
G1 X-3.404 Y-51.023 E16.45079
G1 X-2.999 Y-50.549 E16.52545
G1 X-2.152 Y-49.464 E16.69026
G1 X-1.844 Y-49.033 E16.75369
G1 X-1.24 Y-48.108 E16.88596
G1 X-.978 Y-47.676 E16.94646
G1 X-.369 Y-46.559 E17.09879
G1 X-.134 Y-46.084 E17.16225
G1 X0.394 Y-44.871 E17.32065
G1 X0.561 Y-44.438 E17.37622
G1 X0.974 Y-43.215 E17.53078
G1 X1.1 Y-42.783 E17.58466
G1 X1.421 Y-41.453 E17.74848
G1 X1.536 Y-40.849 E17.8221
G1 X1.68 Y-39.926 E17.93396
G1 X1.753 Y-39.301 E18.0093
G1 X1.816 Y-38.595 E18.09417
G1 X1.848 Y-38.099 E18.15368
G1 X1.866 Y-37.559 E18.21838
G1 X1.929 Y-36.892 E18.2986
G1 X2.079 Y-36.226 E18.38034
G1 X2.312 Y-35.583 E18.46223
G1 X2.624 Y-34.976 E18.54395
G1 X3.009 Y-34.413 E18.62561
G1 X3.465 Y-33.902 E18.70762
G1 X3.903 Y-33.468 E18.78145
G1 X4.112 Y-33.244 E18.81813
G1 X4.689 Y-32.595 E18.92211
G1 X4.829 Y-32.425 E18.94848
G1 X5.594 Y-31.402 E19.10143
G1 X5.716 Y-31.224 E19.12727
G1 X6.015 Y-30.766 E19.19276
G1 X6.03 Y-30.777 E19.19499
G1 X6.108 Y-30.666 E19.21123
G1 X6.569 Y-30.162 E19.29302
G1 X7.09 Y-29.719 E19.3749
G1 X7.278 Y-29.599 E19.40161
G1 X7.269 Y-29.583 E19.40381
G1 X8.572 Y-28.805 E19.58552
G1 X8.822 Y-28.645 E19.62106
G1 X9.68 Y-28.044 E19.74649
G1 X9.825 Y-27.933 E19.76835
G1 X10.687 Y-27.219 E19.90237
G1 X10.94 Y-26.991 E19.94315
G1 X11.729 Y-26.226 E20.07474
G1 X11.917 Y-26.021 E20.10805
G1 X12.402 Y-25.557 E20.18841
G1 X12.95 Y-25.151 E20.27008
G1 X13.545 Y-24.818 E20.35172
G1 X14.131 Y-24.579 E20.42749
G1 X14.488 Y-24.458 E20.47263
G1 X14.658 Y-24.392 E20.49446
G1 X15.924 Y-23.836 E20.66003
G1 X16.274 Y-23.66 E20.70693
G1 X17.51 Y-22.97 E20.87643
G1 X17.774 Y-22.804 E20.91377
G1 X19.017 Y-21.941 E21.09495
G1 X19.435 Y-21.615 E21.15843
G1 X20.43 Y-20.772 E21.31457
G1 X21.062 Y-20.187 E21.41769
G1 X21.483 Y-19.783 E21.48755
G1 X22.201 Y-19.04 E21.61127
G1 X22.704 Y-18.49 E21.70051
G1 X23.039 Y-18.11 E21.76117
G1 X23.616 Y-17.433 E21.86768
G1 X23.962 Y-17.011 E21.93302
G1 X24.526 Y-16.296 E22.04206
G1 X25.234 Y-15.348 E22.18373
G1 X25.848 Y-14.473 E22.31172
G1 X26.153 Y-14.013 E22.37781
G1 X26.482 Y-13.496 E22.45118
G1 X26.761 Y-13.04 E22.51519
G1 X27.098 Y-12.463 E22.5952
G1 X27.388 Y-11.942 E22.6666
G1 X27.666 Y-11.42 E22.73741
G1 X28.178 Y-10.356 E22.87879
G1 X28.509 Y-9.596 E22.97805
G1 X28.964 Y-8.415 E23.12959
G1 X29.118 Y-7.965 E23.18654
G1 X29.536 Y-6.5 E23.36895
G1 X29.638 Y-6.064 E23.42257
G1 X29.932 Y-4.584 E23.60324
G1 X29.951 Y-4.59 E23.60563
G1 X29.986 Y-4.445 E23.62349
G1 X30.227 Y-3.805 E23.70537
G1 X30.546 Y-3.201 E23.78716
G1 X30.94 Y-2.644 E23.86885
G1 X31.4 Y-2.14 E23.95055
G1 X31.917 Y-1.7 E24.03184
G1 X32.251 Y-1.471 E24.08033
G1 X32.956 Y-1.018 E24.18067
G1 X33.677 Y-.487 E24.28789
G1 X34.469 Y0.17 E24.4111
G1 X34.623 Y0.31 E24.43602
G1 X35.5 Y1.173 E24.58334
G1 X35.739 Y1.43 E24.62537
G1 X36.385 Y2.176 E24.74352
G1 X36.503 Y2.325 E24.76628
G1 X37.096 Y3.137 E24.88668
G1 X37.525 Y3.653 E24.96702
G1 X38.022 Y4.114 E25.04819
G1 X38.377 Y4.382 E25.10145
G1 X38.728 Y4.625 E25.15257
G1 X39.693 Y5.41 E25.30151
G1 X40.468 Y6.145 E25.42941
G1 X40.971 Y6.686 E25.51786
G1 X41.195 Y6.94 E25.55841
G1 X41.795 Y7.672 E25.67173
G1 X41.901 Y7.813 E25.69286
G1 X42.546 Y8.741 E25.82818
G1 X42.679 Y8.948 E25.85764
G1 X43.184 Y9.809 E25.97715
G1 X43.283 Y9.998 E26.0027
G1 X43.898 Y11.304 E26.17555
G1 X44.04 Y11.652 E26.22055
G1 X44.361 Y12.524 E26.33181
G1 X44.426 Y12.724 E26.35699
G1 X44.684 Y13.656 E26.47278
G1 X44.902 Y14.291 E26.55317
G1 X45.206 Y14.902 E26.63488
G1 X45.583 Y15.471 E26.71661
G1 X46.028 Y15.985 E26.79802
G1 X46.678 Y16.58 E26.90353
G1 X47.739 Y17.684 E27.08687
G1 X47.92 Y17.889 E27.11961
G1 X48.572 Y18.699 E27.24412
G1 X49.033 Y19.346 E27.33924
G1 X49.17 Y19.549 E27.36856
G1 X49.724 Y20.451 E27.49531
G1 X50.1 Y21.149 E27.59024
G1 X50.241 Y21.437 E27.62864
G1 X50.615 Y22.258 E27.73666
G1 X50.683 Y22.428 E27.75858
G1 X51.141 Y23.718 E27.92249
G1 X51.249 Y24.081 E27.96784
G1 X51.491 Y25.008 E28.08255
G1 X51.523 Y25.15 E28.09998
G1 X51.691 Y26.05 E28.2096
G1 X51.784 Y26.76 E28.29534
G1 X51.823 Y27.138 E28.34084
G1 X51.893 Y28.263 E28.47581
G1 X51.89 Y29.173 E28.58477
G1 X51.873 Y29.659 E28.643
G1 X51.785 Y30.814 E28.78169
G1 X51.695 Y31.482 E28.8624
G1 X51.607 Y32.026 E28.92838
G1 X51.39 Y33.101 E29.0597
G1 X51.247 Y33.648 E29.12739
G1 X51.083 Y34.222 E29.19887
G1 X50.655 Y35.499 E29.36013
G1 X50.468 Y35.988 E29.42282
G1 X49.983 Y37.109 E29.56907
G1 X49.743 Y37.605 E29.63505
G1 X49.251 Y38.538 E29.76134
G1 X48.904 Y39.139 E29.84444
G1 X48.332 Y40.045 E29.97273
G1 X47.715 Y40.947 E30.10358
G1 X47.235 Y41.608 E30.20139
G1 X46.94 Y41.991 E30.25928
G1 X46.435 Y42.611 E30.35503
G1 X45.582 Y43.596 E30.51104
G1 X45.184 Y44.036 E30.58208
G1 X44.267 Y45.014 E30.74261
G1 X43.779 Y45.513 E30.82618
G1 X42.851 Y46.423 E30.9818
G1 X42.357 Y46.888 E31.06304
G1 X40.486 Y48.561 E31.36356
G1 X39.223 Y49.635 E31.56207
G1 X36.033 Y52.246 E32.05566
G1 X34.538 Y53.407 E32.28231
G1 X34.151 Y53.696 E32.34014
G1 X33.52 Y54.151 E32.43329
G1 X32.554 Y54.813 E32.57351
G1 X32.053 Y55.14 E32.64514
G1 X31.165 Y55.687 E32.77002
G1 X30.807 Y55.899 E32.81984
G1 X29.767 Y56.483 E32.96266
G1 X28.753 Y57.004 E33.09916
G1 X28.058 Y57.326 E33.19087
G1 X26.961 Y57.781 E33.33307
G1 X26.327 Y58.017 E33.41408
G1 X25.057 Y58.428 E33.57391
G1 X24.348 Y58.622 E33.66192
G1 X23.319 Y58.866 E33.78855
G1 X22.986 Y58.932 E33.82919
G1 X22.187 Y59.069 E33.92626
G1 X21.795 Y59.123 E33.97364
G1 X21.083 Y59.204 E34.05944
G1 X20.672 Y59.24 E34.10884
G1 X19.397 Y59.291 E34.26163
G1 X18.732 Y59.29 E34.34125
G1 X17.358 Y59.223 E34.50597
G1 X17.073 Y59.196 E34.54024
G1 X16.048 Y59.065 E34.66397
G1 X15.773 Y59.02 E34.69734
G1 X14.528 Y58.764 E34.84953
G1 X14.227 Y58.69 E34.88664
G1 X12.828 Y58.267 E35.06164
G1 X12.538 Y58.165 E35.09845
G1 X11.39 Y57.7 E35.24676
G1 X11.099 Y57.57 E35.28492
G1 X9.938 Y56.983 E35.44069
G1 X9.658 Y56.827 E35.47907
G1 X8.649 Y56.206 E35.62093
G1 X8.316 Y55.985 E35.66879
G1 X7.399 Y55.314 E35.80484
G1 X7.104 Y55.082 E35.84978
G1 X6.295 Y54.391 E35.97717
G1 X6.002 Y54.124 E36.02463
G1 X5.116 Y53.24 E36.17449
G1 X4.891 Y52.997 E36.21415
G1 X4.078 Y52.037 E36.36478
G1 X3.818 Y51.705 E36.41527
G1 X3.072 Y50.647 E36.57027
G1 X2.813 Y50.239 E36.62814
G1 X2.179 Y49.14 E36.78005
G1 X2.045 Y48.886 E36.81444
G1 X1.501 Y47.725 E36.96796
G1 X1.361 Y47.392 E37.01121
G1 X0.929 Y46.222 E37.16055
G1 X0.793 Y45.805 E37.21307
G1 X0.576 Y45.055 E37.30655
G1 X0.456 Y44.589 E37.36417
G1 X0.26 Y43.722 E37.4706
G1 X0.208 Y43.461 E37.50247
G1 X-0.01 Y42.186 E37.65734
G1 X-0.032 Y42.193 E37.66011
G1 X-0.06 Y42.062 E37.67615
G1 X-.287 Y41.418 E37.75791
G1 X-.594 Y40.808 E37.83968
G1 X-.975 Y40.241 E37.92147
G1 X-1.424 Y39.727 E38.00319
G1 X-1.934 Y39.274 E38.08487
G1 X-2.498 Y38.888 E38.1667
G1 X-3.103 Y38.579 E38.24804
G1 X-3.096 Y38.565 E38.24992
G1 X-4.884 Y37.942 E38.47663
G1 X-5.055 Y37.874 E38.49866
G1 X-6.396 Y37.269 E38.67481
G1 X-6.601 Y37.165 E38.70234
G1 X-7.698 Y36.549 E38.85298
G1 X-8.016 Y36.354 E38.89765
G1 X-9.012 Y35.677 E39.04185
G1 X-9.301 Y35.465 E39.08476
G1 X-10.193 Y34.749 E39.22172
G1 X-10.453 Y34.525 E39.26281
G1 X-11.428 Y33.598 E39.4239
G1 X-11.847 Y33.164 E39.49613
G1 X-12.874 Y31.976 E39.68416
G1 X-13.143 Y31.63 E39.73664
G1 X-13.851 Y30.628 E39.88354
G1 X-14.02 Y30.367 E39.92077
G1 X-14.685 Y29.233 E40.07818
G1 X-14.849 Y28.926 E40.11985
G1 X-15.411 Y27.745 E40.27646
G1 X-15.583 Y27.339 E40.32925
G1 X-16.073 Y25.992 E40.50088
G1 X-16.14 Y25.776 E40.52795
G1 X-16.454 Y24.632 E40.67
G1 X-16.536 Y24.283 E40.71292
G1 X-16.708 Y23.433 E40.81676
G1 X-16.795 Y22.966 E40.87364
G1 X-16.81 Y22.966 E40.87544
G1 X-16.885 Y22.645 E40.91491
G1 X-17.124 Y22.005 E40.99671
G1 X-17.442 Y21.4 E41.07855
G1 X-17.834 Y20.841 E41.1603
G1 X-18.294 Y20.333 E41.24236
G0 F7200 X-17.6 Y21.174
G1 F1350 X-17.6 Y-57.883 E50.70836
G0 F7200 X-19.2 Y-57.943
G1 F1350 X-19.2 Y19.616 E59.995
G0 F7200 X-20.8 Y18.373
G1 F1350 X-20.8 Y-58.207 E69.16442
G0 F7200 X-22.4 Y-58.964
G1 F1350 X-22.4 Y16.862 E78.24356
G0 F7200 X-24 Y15.87
G1 F1350 X-24 Y-59.736 E87.29636
G0 F7200 X-25.6 Y-60.384
G1 F1350 X-25.6 Y15.088 E96.33311
G0 F7200 X-27.2 Y14.118
G1 F1350 X-27.2 Y-60.883 E105.31347
G0 F7200 X-28.8 Y-61.251
G1 F1350 X-28.8 Y12.954 E114.19851
G0 F7200 X-30.4 Y11.536
G1 F1350 X-30.4 Y-61.494 E122.94287
G0 F7200 X-32 Y-61.615
G1 F1350 X-32 Y9.794 E131.49313
G0 F7200 X-33.6 Y7.684
G1 F1350 X-33.6 Y-61.604 E139.78943
G0 F7200 X-35.2 Y-61.48
G1 F1350 X-35.2 Y5.197 E147.7731
G0 F7200 X-36.8 Y2.51
G1 F1350 X-36.8 Y-61.204 E155.40199
G0 F7200 X-38.4 Y-60.799
G1 F1350 X-38.4 Y1.081 E162.81129
G0 F7200 X-40 Y-.414
G1 F1350 X-40 Y-60.228 E169.97321
G0 F7200 X-41.6 Y-59.49
G1 F1350 X-41.6 Y-2.292 E176.82189
G0 F7200 X-43.2 Y-4.819
G1 F1350 X-43.2 Y-58.562 E183.25689
G0 F7200 X-44.8 Y-57.413
G1 F1350 X-44.8 Y-8.946 E189.06016
G0 F7200 X-46.4 Y-15.432
G1 F1350 X-46.4 Y-55.983 E193.91559
G0 F7200 X-48 Y-54.216
G1 F1350 X-48 Y-18.758 E198.16121
G0 F7200 X-49.6 Y-32.087
G1 F1350 X-49.6 Y-51.808 E200.52253
G0 F7200 X-51.2 Y-48.1
G1 F1350 X-51.2 Y-36.371 E201.92692
G0 F7200 X-16 Y-57.711
G1 F1350 X-16 Y26.192 E211.97317
G0 F7200 X-14.4 Y29.719
G1 F1350 X-14.4 Y-57.416 E222.40641
G0 F7200 X-12.8 Y-57.016
G1 F1350 X-12.8 Y32.061 E233.07218
G0 F7200 X-11.2 Y33.814
G1 F1350 X-11.2 Y-56.474 E243.88295
G0 F7200 X-9.6 Y-55.767
G1 F1350 X-9.6 Y35.224 E254.77789
G0 F7200 X-8 Y36.363
G1 F1350 X-8 Y-54.895 E265.7048
G0 F7200 X-6.4 Y-53.807
G1 F1350 X-6.4 Y37.266 E276.60956
G0 F7200 X-4.8 Y37.971
G1 F1350 X-4.8 Y-52.455 E287.43685
G0 F7200 X-3.2 Y-50.784
G1 F1350 X-3.2 Y38.528 E298.13076
G0 F7200 X-1.6 Y39.57
G1 F1350 X-1.6 Y-48.659 E308.69499
G0 F7200 X0.00 Y-45.776
G1 F1350 X0.00 Y42.244 E319.2342
G0 F7200 X1.6 Y47.936
G1 F1350 X1.6 Y-40.438 E329.81579
G0 F7200 X2.43 Y-36.76
G0 X3.2 Y-34.198
G1 F1350 X3.2 Y50.828 E339.9965
G0 F7200 X4.8 Y52.889
G1 F1350 X4.8 Y-32.46 E350.21589
G0 F7200 X6.4 Y-30.346
G1 F1350 X6.4 Y54.48 E360.37266
G0 F7200 X8 Y55.753
G1 F1350 X8 Y-29.146 E370.53817
G0 F7200 X9.6 Y-28.1
G1 F1350 X9.6 Y56.791 E380.70272
G0 F7200 X11.2 Y57.615
G1 F1350 X11.2 Y-26.738 E390.80285
