;FLAVOR:Marlin
;TIME:4097
;Filament used: 5.7374m
;Layer height: 0.25
;ZOFFSETPROCESSED
;Generated with Cura_SteamEngine 3.4.1
M190 S50
M104 S185
M109 S185
M82 ;absolute extrusion mode
G21 ;metric values
G90 ;absolute positioning
M82 ;set extruder to absolute mode
M107 ;start with the fan off
G28 ;Home all axes (max endstops)
G1 Z15.0 F9000 ;move the platform down 15mm
G92 E0 ;zero the extruded length
G1 F200 E3 ;extrude 3mm of feed stock
G92 E0 ;zero the extruded length again
G1 F9000
;Put printing message on LCD screen
M117 Printing...
G92 E0
G1 F1500 E-6.5
;LAYER_COUNT:32
;LAYER:-8
M107
G0 F7200 X19.857 Y-11.862 Z2.36 ;adjusted by z offset
G92 Z0.36 ;consider this the original z before offset
G1 F1500 E0
G1 F1350 X20.255 Y-11.308 E0.08168
G1 X20.721 Y-10.809 E0.16343
G1 X21.242 Y-10.374 E0.2447
G1 X22.1 Y-9.81 E0.36764
G1 X23.183 Y-9.035 E0.5271
G1 X23.569 Y-8.73 E0.586
G1 X24.64 Y-7.803 E0.7556
G1 X25.134 Y-7.331 E0.83741
G1 X25.898 Y-6.547 E0.96849
G1 X26.328 Y-6.049 E1.04727
G1 X26.761 Y-5.52 E1.12912
G1 X27.414 Y-4.659 E1.25851
G1 X27.737 Y-4.181 E1.32759
G1 X27.884 Y-3.952 E1.36017
G1 X28.281 Y-3.413 E1.44032
G1 X28.754 Y-2.915 E1.52256
G1 X29.416 Y-2.394 E1.62343
G1 X30.2 Y-1.872 E1.73621
G1 X30.331 Y-1.778 E1.75552
G1 X31.142 Y-1.144 E1.87877
G1 X31.563 Y-.777 E1.94565
G1 X31.875 Y-.493 E1.99616
G1 X32.553 Y0.167 E2.10946
G1 X32.683 Y0.303 E2.13198
G1 X33.401 Y1.119 E2.26213
G1 X33.542 Y1.292 E2.28885
G1 X34.107 Y2.035 E2.40061
G1 X34.546 Y2.542 E2.48092
G1 X35.055 Y2.998 E2.56274
G1 X35.617 Y3.386 E2.64451
G1 X36.26 Y3.715 E2.731
G1 X36.716 Y3.91 E2.79038
G1 X36.879 Y3.988 E2.81202
G1 X37.808 Y4.471 E2.93739
G1 X38.1 Y4.638 E2.97766
G1 X39.241 Y5.358 E3.13921
G1 X39.339 Y5.426 E3.15349
G1 X40.383 Y6.225 E3.31091
G1 X40.615 Y6.417 E3.34696
G1 X41.765 Y7.49 E3.53529
G1 X41.951 Y7.678 E3.56696
G1 X43 Y8.892 E3.75906
G1 X43.142 Y9.071 E3.78642
G1 X43.757 Y9.928 E3.91272
G1 X43.863 Y10.09 E3.93591
G1 X44.471 Y11.107 E4.07778
G1 X44.627 Y11.393 E4.11679
G1 X45.135 Y12.424 E4.25441
G1 X45.478 Y13.263 E4.36294
G1 X45.786 Y14.168 E4.4774
G1 X45.896 Y14.541 E4.52397
G1 X46.124 Y15.399 E4.63026
G1 X46.167 Y15.59 E4.65371
G1 X46.395 Y16.873 E4.80974
G1 X46.426 Y17.125 E4.84014
G1 X46.514 Y18.042 E4.95044
G1 X46.524 Y18.206 E4.97011
G1 X46.547 Y19.052 E5.07145
G1 X46.547 Y19.481 E5.12281
G1 X46.502 Y20.621 E5.25942
G1 X46.429 Y21.345 E5.34655
G1 X46.364 Y21.855 E5.40811
G1 X46.196 Y22.877 E5.53212
G1 X46.056 Y23.514 E5.61021
G1 X45.897 Y24.14 E5.68755
G1 X45.47 Y25.539 E5.86269
G1 X45.295 Y26.025 E5.92454
G1 X44.836 Y27.151 E6.07013
G1 X44.605 Y27.659 E6.13695
G1 X44.075 Y28.715 E6.27843
G1 X43.813 Y29.189 E6.34327
G1 X43.181 Y30.229 E6.48899
G1 X42.689 Y30.972 E6.59569
G1 X42.095 Y31.81 E6.71868
G1 X41.522 Y32.56 E6.83169
G1 X40.836 Y33.396 E6.96118
G1 X39.967 Y34.383 E7.11864
G1 X39.559 Y34.829 E7.19101
G1 X38.574 Y35.861 E7.36183
G1 X38.151 Y36.285 E7.43355
G1 X37.173 Y37.227 E7.59613
G1 X36.809 Y37.569 E7.65594
G1 X35.805 Y38.472 E7.81762
G1 X34.541 Y39.571 E8.01818
G1 X33.348 Y40.571 E8.20457
G1 X30.738 Y42.705 E8.60824
G1 X29.261 Y43.855 E8.83238
G1 X28.841 Y44.17 E8.89524
G1 X27.86 Y44.872 E9.03968
G1 X27.213 Y45.312 E9.13336
G1 X26.737 Y45.623 E9.20145
G1 X26.038 Y46.058 E9.30002
G1 X25.48 Y46.39 E9.37777
G1 X24.455 Y46.968 E9.51867
G1 X23.512 Y47.453 E9.64564
G1 X22.842 Y47.769 E9.73434
G1 X21.749 Y48.231 E9.87642
G1 X20.965 Y48.526 E9.97672
G1 X19.727 Y48.925 E10.13246
G1 X19.125 Y49.09 E10.2072
G1 X18.112 Y49.336 E10.33202
G1 X17.777 Y49.406 E10.373
G1 X16.93 Y49.554 E10.47595
G1 X16.572 Y49.607 E10.51928
G1 X15.78 Y49.7 E10.61477
G1 X15.465 Y49.728 E10.65263
G1 X14.457 Y49.787 E10.77353
G1 X14.083 Y49.795 E10.81832
G1 X13.245 Y49.79 E10.91867
G1 X12.885 Y49.776 E10.9618
G1 X12.097 Y49.728 E11.05633
G1 X11.775 Y49.7 E11.09503
G1 X10.798 Y49.576 E11.21295
G1 X10.515 Y49.532 E11.24724
G1 X9.202 Y49.265 E11.40768
G1 X8.892 Y49.189 E11.44589
G1 X7.581 Y48.795 E11.6098
G1 X7.261 Y48.685 E11.65032
G1 X6.103 Y48.219 E11.79978
G1 X5.794 Y48.082 E11.84025
G1 X4.583 Y47.471 E12.00266
G1 X3.968 Y47.206 E12.08285
G1 X3.316 Y47.019 E12.16406
G1 X2.912 Y46.946 E12.21322
G1 X1.831 Y46.791 E12.34398
G1 X1.539 Y46.738 E12.37951
G1 X0.469 Y46.5 E12.51076
G1 X-.135 Y46.333 E12.5858
G1 X-.591 Y46.191 E12.64298
G1 X-2.045 Y45.661 E12.82828
G1 X-2.423 Y45.5 E12.87748
G1 X-3.691 Y44.892 E13.04586
G1 X-4.105 Y44.669 E13.10216
G1 X-5.066 Y44.109 E13.23534
G1 X-5.533 Y43.814 E13.30148
G1 X-6.298 Y43.288 E13.41264
G1 X-6.762 Y42.947 E13.48159
G1 X-7.432 Y42.419 E13.58373
G1 X-7.89 Y42.037 E13.65514
G1 X-8.291 Y41.688 E13.71879
G1 X-8.782 Y41.245 E13.79797
G1 X-9.345 Y40.71 E13.89097
G1 X-9.729 Y40.325 E13.95608
G1 X-10.25 Y39.774 E14.04687
G1 X-10.938 Y39.001 E14.17078
G1 X-11.755 Y38.023 E14.32337
G1 X-12.526 Y37.042 E14.47277
G1 X-13.073 Y36.297 E14.58343
G1 X-13.562 Y35.586 E14.68676
G1 X-14.01 Y34.891 E14.78576
G1 X-14.433 Y34.194 E14.88339
G1 X-14.914 Y33.346 E15.00012
G1 X-15.305 Y32.6 E15.10097
G1 X-15.774 Y31.619 E15.23116
G1 X-15.94 Y31.236 E15.28114
G1 X-16.225 Y30.53 E15.37231
G1 X-16.374 Y30.126 E15.42386
G1 X-16.604 Y29.458 E15.50846
G1 X-16.729 Y29.059 E15.55852
G1 X-16.981 Y28.163 E15.66997
G1 X-17.068 Y27.813 E15.71315
G1 X-17.229 Y27.075 E15.80359
G1 X-17.303 Y26.697 E15.84971
G1 X-17.519 Y25.301 E16.01886
G1 X-17.534 Y25.301 E16.02065
G1 X-17.585 Y25.037 E16.05285
G1 X-17.799 Y24.388 E16.13467
G1 X-18.093 Y23.771 E16.21651
G1 X-18.462 Y23.198 E16.29811
G1 X-18.919 Y22.655 E16.38309
G1 X-19.261 Y22.263 E16.44538
G1 X-19.722 Y21.777 E16.52559
G1 X-20.249 Y21.344 E16.60725
G1 X-20.825 Y20.983 E16.68865
G1 X-21.273 Y20.765 E16.7483
G1 X-21.58 Y20.631 E16.78841
G1 X-21.855 Y20.496 E16.82509
G1 X-22.943 Y19.912 E16.97295
G1 X-23.23 Y19.745 E17.01271
G1 X-24.273 Y19.059 E17.16218
G1 X-24.655 Y18.786 E17.2184
G1 X-25.643 Y18.005 E17.3692
G1 X-25.904 Y17.779 E17.41054
G1 X-26.714 Y17.025 E17.54304
G1 X-26.956 Y16.782 E17.5841
G1 X-27.73 Y15.934 E17.72158
G1 X-28.213 Y15.469 E17.80185
G1 X-28.76 Y15.06 E17.88363
G1 X-29.362 Y14.721 E17.96636
G1 X-30.166 Y14.332 E18.0733
G1 X-30.691 Y14.041 E18.14518
G1 X-31.052 Y13.829 E18.1953
G1 X-32.282 Y13.03 E18.37092
G1 X-32.671 Y12.745 E18.42866
G1 X-33.776 Y11.862 E18.59803
G1 X-34.21 Y11.479 E18.66734
G1 X-35.089 Y10.637 E18.81308
G1 X-35.488 Y10.223 E18.88193
G1 X-36.26 Y9.356 E19.02093
G1 X-36.563 Y8.986 E19.07819
G1 X-37.191 Y8.166 E19.20186
G1 X-37.84 Y7.258 E19.3355
G1 X-38.361 Y6.476 E19.44801
G1 X-38.611 Y6.074 E19.50469
G1 X-38.965 Y5.473 E19.58821
G1 X-39.274 Y4.917 E19.66437
G1 X-39.613 Y4.272 E19.75162
G1 X-40.278 Y2.938 E19.93009
G1 X-40.663 Y2.099 E20.04062
G1 X-40.996 Y1.315 E20.14261
G1 X-41.279 Y0.595 E20.23525
G1 X-41.583 Y-.246 E20.34232
G1 X-41.871 Y-1.133 E20.45399
G1 X-42.1 Y-1.92 E20.55213
G1 X-42.271 Y-2.559 E20.63133
G1 X-42.371 Y-2.972 E20.68221
G1 X-42.529 Y-3.704 E20.77188
G1 X-42.602 Y-4.094 E20.81938
G1 X-42.738 Y-4.945 E20.92257
G1 X-42.796 Y-5.395 E20.9769
G1 X-42.823 Y-5.655 E21.0082
G1 X-42.935 Y-6.315 E21.08835
G1 X-43.134 Y-6.968 E21.17009
G1 X-43.411 Y-7.589 E21.25151
G1 X-43.668 Y-8.024 E21.31201
G1 X-44.264 Y-8.948 E21.44366
G1 X-44.923 Y-10.18 E21.61096
G1 X-45.038 Y-10.415 E21.64228
G1 X-45.631 Y-11.872 E21.83063
G1 X-45.708 Y-12.082 E21.85742
G1 X-46.01 Y-13.074 E21.98158
G1 X-46.225 Y-13.969 E22.09179
G1 X-46.427 Y-15.125 E22.2323
G1 X-46.504 Y-15.82 E22.31603
G1 X-46.521 Y-16.026 E22.34078
G1 X-46.568 Y-16.958 E22.45251
G1 X-46.571 Y-17.146 E22.47503
G1 X-46.55 Y-18.115 E22.59108
G1 X-46.523 Y-18.543 E22.64243
G1 X-46.44 Y-19.433 E22.74946
G1 X-46.41 Y-19.66 E22.77687
G1 X-46.252 Y-20.587 E22.88947
G1 X-46.161 Y-21.03 E22.94362
G1 X-45.932 Y-21.956 E23.05784
G1 X-45.883 Y-22.126 E23.07902
G1 X-45.542 Y-23.159 E23.20927
G1 X-45.41 Y-23.513 E23.25451
G1 X-45.034 Y-24.417 E23.37174
G1 X-44.824 Y-24.855 E23.4299
G1 X-44.566 Y-25.473 E23.51009
G1 X-44.385 Y-26.131 E23.5918
G1 X-44.287 Y-26.808 E23.67371
G1 X-44.278 Y-27.491 E23.7555
G1 X-44.357 Y-28.186 E23.83925
G1 X-44.396 Y-28.403 E23.86565
G1 X-44.466 Y-28.859 E23.92089
G1 X-44.569 Y-29.723 E24.02507
G1 X-44.608 Y-30.147 E24.07605
G1 X-44.665 Y-31.262 E24.20973
G1 X-44.67 Y-31.646 E24.25572
G1 X-44.653 Y-32.643 E24.37511
G1 X-44.631 Y-33.047 E24.42356
G1 X-44.563 Y-33.886 E24.52435
G1 X-44.524 Y-34.249 E24.56806
G1 X-44.303 Y-35.661 E24.73919
G1 X-44.173 Y-36.283 E24.81527
G1 X-43.913 Y-37.33 E24.94444
G1 X-43.719 Y-37.955 E25.0228
G1 X-43.571 Y-38.382 E25.07691
G1 X-42.985 Y-39.859 E25.26717
G1 X-42.816 Y-40.218 E25.31468
G1 X-42.282 Y-41.264 E25.45531
G1 X-41.587 Y-42.403 E25.61507
G1 X-41.363 Y-42.734 E25.66292
G1 X-40.465 Y-43.936 E25.84258
G1 X-40.185 Y-44.271 E25.89486
G1 X-39.237 Y-45.309 E26.06318
G1 X-38.938 Y-45.604 E26.11347
G1 X-38.01 Y-46.451 E26.26391
G1 X-37.727 Y-46.69 E26.30826
G1 X-36.785 Y-47.421 E26.45103
G1 X-36.437 Y-47.67 E26.50227
G1 X-35.288 Y-48.415 E26.66623
G1 X-34.914 Y-48.634 E26.71813
G1 X-33.721 Y-49.26 E26.87944
G1 X-33.247 Y-49.479 E26.94196
G1 X-32.008 Y-49.984 E27.10217
G1 X-31.618 Y-50.123 E27.15174
G1 X-30.094 Y-50.575 E27.34207
G1 X-29.662 Y-50.674 E27.39514
G1 X-28.195 Y-50.946 E27.57379
G1 X-27.832 Y-50.994 E27.61763
G1 X-26.554 Y-51.111 E27.7713
G1 X-26.162 Y-51.129 E27.81828
G1 X-25.162 Y-51.145 E27.93803
G1 X-24.767 Y-51.137 E27.98534
G1 X-23.773 Y-51.085 E28.10452
G1 X-23.341 Y-51.048 E28.15643
G1 X-22.345 Y-50.928 E28.27655
G1 X-21.936 Y-50.864 E28.32612
G1 X-20.977 Y-50.68 E28.44304
G1 X-20.551 Y-50.584 E28.49533
G1 X-19.715 Y-50.37 E28.59866
G1 X-19.197 Y-50.219 E28.66326
G1 X-18.328 Y-49.934 E28.77277
G1 X-18.018 Y-49.822 E28.81223
G1 X-16.906 Y-49.372 E28.95587
G1 X-16.197 Y-49.057 E29.04877
G1 X-15.253 Y-48.597 E29.1745
G1 X-14.844 Y-48.38 E29.22994
G1 X-14.194 Y-48.014 E29.31926
G1 X-13.832 Y-47.799 E29.36967
G1 X-13.26 Y-47.441 E29.45047
G1 X-12.864 Y-47.18 E29.50726
G1 X-12.113 Y-46.651 E29.61725
G1 X-11.317 Y-46.051 E29.7366
G1 X-10.645 Y-45.509 E29.83997
G1 X-9.932 Y-44.898 E29.95241
G1 X-9.734 Y-44.717 E29.98453
G1 X-9.212 Y-44.295 E30.0649
G1 X-8.631 Y-43.936 E30.14667
G1 X-8.006 Y-43.652 E30.22887
G1 X-7.149 Y-43.406 E30.33563
G1 X-5.896 Y-43.158 E30.48857
G1 X-5.652 Y-43.095 E30.51875
G1 X-4.255 Y-42.668 E30.69366
G1 X-4.034 Y-42.59 E30.72172
G1 X-3.084 Y-42.208 E30.84432
G1 X-2.22 Y-41.796 E30.95893
G1 X-1.316 Y-41.298 E31.08251
G1 X-.596 Y-40.846 E31.1843
G1 X-.39 Y-40.705 E31.21419
G1 X0.367 Y-40.152 E31.32644
G1 X0.533 Y-40.021 E31.35176
G1 X1.183 Y-39.47 E31.45379
G1 X1.392 Y-39.284 E31.48729
G1 X2.084 Y-38.609 E31.60304
G1 X2.218 Y-38.466 E31.6265
G1 X3.162 Y-37.361 E31.80052
G1 X3.359 Y-37.106 E31.8391
G1 X4.008 Y-36.193 E31.97323
G1 X4.484 Y-35.423 E32.08162
G1 X4.599 Y-35.222 E32.10935
G1 X5.058 Y-34.352 E32.22713
G1 X5.444 Y-33.504 E32.33869
G1 X5.86 Y-32.421 E32.4776
G1 X6.096 Y-31.665 E32.57243
G1 X6.328 Y-30.799 E32.67978
G1 X6.367 Y-30.629 E32.70066
G1 X6.521 Y-29.849 E32.79586
G1 X6.586 Y-29.447 E32.84462
G1 X6.62 Y-29.184 E32.87637
G1 X6.747 Y-28.525 E32.95673
G1 X6.96 Y-27.876 E33.03852
G1 X7.253 Y-27.26 E33.12019
G1 X7.621 Y-26.685 E33.20193
G1 X8.049 Y-26.172 E33.28193
G1 X8.535 Y-25.66 E33.36645
G1 X8.815 Y-25.347 E33.41674
G1 X9.43 Y-24.612 E33.53149
G1 X9.544 Y-24.464 E33.55386
G1 X10.356 Y-23.297 E33.72409
G1 X10.541 Y-23.005 E33.76548
G1 X11.052 Y-22.124 E33.88743
G1 X11.34 Y-21.58 E33.96113
G1 X11.35 Y-21.583 E33.96238
G1 X11.455 Y-21.394 E33.98827
G1 X11.86 Y-20.844 E34.07005
G1 X12.332 Y-20.351 E34.15177
G1 X12.857 Y-19.923 E34.23287
G1 X13.624 Y-19.423 E34.3425
G1 X14.495 Y-18.79 E34.47143
G1 X15.071 Y-18.321 E34.56037
G1 X16.068 Y-17.393 E34.72345
G1 X16.402 Y-17.049 E34.78086
G1 X17.36 Y-15.955 E34.95498
G1 X17.527 Y-15.747 E34.98692
G1 X18.161 Y-14.881 E35.11543
G1 X18.535 Y-14.306 E35.19756
G1 X18.709 Y-14.017 E35.23795
G1 X19.222 Y-13.102 E35.36355
G1 X19.536 Y-12.451 E35.4501
G1 X19.857 Y-11.862 E35.53041
G0 F7200 X19.2 Y-13.141
G1 F1350 X19.2 Y49.07 E42.97934
G0 F7200 X17.6 Y49.437
G1 F1350 X17.6 Y-15.647 E50.77227
G0 F7200 X16 Y-17.456
G1 F1350 X16 Y49.675 E58.8103
G0 F7200 X14.4 Y49.789
G1 F1350 X14.4 Y-18.859 E67.02997
G0 F7200 X12.8 Y-19.969
G1 F1350 X12.8 Y49.77 E75.38027
G0 F7200 X11.2 Y49.627
G1 F1350 X11.2 Y-21.844 E83.93796
G0 F7200 X9.6 Y-24.383
G1 F1350 X9.6 Y49.345 E92.76589
G0 F7200 X8 Y48.92
G1 F1350 X8 Y-26.23 E101.76409
G0 F7200 X6.4 Y-30.461
G1 F1350 X6.4 Y48.338 E111.1992
G0 F7200 X4.8 Y47.58
G1 F1350 X4.8 Y-34.841 E121.06801
G0 F7200 X3.2 Y-37.311
G1 F1350 X3.2 Y46.998 E131.16287
G0 F7200 X1.6 Y46.749
G1 F1350 X1.6 Y-39.081 E141.43985
G0 F7200 X0.00 Y-40.42
G1 F1350 X0.00 Y46.37 E151.83178
G0 F7200 X-1.6 Y45.823
G1 F1350 X-1.6 Y-41.454 E162.28202
G0 F7200 X-3.2 Y-42.254
G1 F1350 X-3.2 Y45.127 E172.74472
G0 F7200 X-4.8 Y44.264
G1 F1350 X-4.8 Y-42.834 E183.17352
G0 F7200 X-6.4 Y-43.257
G1 F1350 X-6.4 Y43.213 E193.52714
G0 F7200 X-8 Y41.941
G1 F1350 X-8 Y-43.65 E203.7755
G0 F7200 X-9.6 Y-44.608
G1 F1350 X-9.6 Y40.454 E213.96053
G0 F7200 X-11.2 Y38.687
G1 F1350 X-11.2 Y-45.956 E224.09538
G0 F7200 X-12.8 Y-47.134
G1 F1350 X-12.8 Y36.668 E234.12954
G0 F7200 X-14.4 Y34.248
G1 F1350 X-14.4 Y-48.129 E243.99307
G0 F7200 X-16 Y-48.961
G1 F1350 X-16 Y31.087 E253.57774
G0 F7200 X-17.6 Y24.991
G1 F1350 X-17.6 Y-49.652 E262.51523
G0 F7200 X-19.2 Y-50.219
G1 F1350 X-19.2 Y22.332 E271.20223
G0 F7200 X-20.8 Y20.998
G1 F1350 X-20.8 Y-50.64 E279.77992
G0 F7200 X-22.4 Y-50.934
G1 F1350 X-22.4 Y20.203 E288.29761
G0 F7200 X-24 Y19.238
G1 F1350 X-24 Y-51.096 E296.71916
G0 F7200 X-25.6 Y-51.138
G1 F1350 X-25.6 Y18.038 E305.00205
G0 F7200 X-27.2 Y16.514
G1 F1350 X-27.2 Y-51.052 E313.09216
G0 F7200 X-28.8 Y-50.834
G1 F1350 X-28.8 Y15.037 E320.97932
G0 F7200 X-30.4 Y14.202
G1 F1350 X-30.4 Y-50.485 E328.72472
G0 F7200 X-32 Y-49.987
G1 F1350 X-32 Y13.213 E336.29206
G0 F7200 X-33.6 Y12.002
G1 F1350 X-33.6 Y-49.316 E343.63407
G0 F7200 X-35.2 Y-48.467
G1 F1350 X-35.2 Y10.521 E350.69708
G0 F7200 X-36.8 Y8.676
G1 F1350 X-36.8 Y-47.41 E357.41262
G0 F7200 X-38.4 Y-46.096
G1 F1350 X-38.4 Y6.413 E363.69987
G0 F7200 X-40 Y3.495
G1 F1350 X-40 Y-44.474 E369.44351
G0 F7200 X-41.6 Y-42.382
G1 F1350 X-41.6 Y-.299 E374.48238
G0 F7200 X-43.2 Y-7.116
G1 F1350 X-43.2 Y-39.318 E378.33813
G0 F7200 X-44.8 Y-24.913
G1 F1350 X-44.8 Y-9.951 E380.12963
G0 F7200 X-46.4 Y-14.971
G1 F1350 X-46.4 Y-19.719 E380.69814
G0 F7200 X20.8 Y-10.743
G1 F1350 X20.8 Y48.58 E387.80126
G0 F7200 X22.4 Y47.956
G1 F1350 X22.4 Y-9.595 E394.69222
G0 F7200 X24 Y-8.356
G1 F1350 X24 Y47.203 E401.34466
G0 F7200 X25.6 Y46.319
G1 F1350 X25.6 Y-6.852 E407.71117
G0 F7200 X27.2 Y-4.941
G1 F1350 X27.2 Y45.321 E413.72936
G0 F7200 X28.8 Y44.2
G1 F1350 X28.8 Y-2.878 E419.36632
G0 F7200 X30.4 Y-1.724
G1 F1350 X30.4 Y42.969 E424.7177
G0 F7200 X32 Y41.674
G1 F1350 X32 Y-.371 E429.75202
G0 F7200 X33.6 Y1.369
G1 F1350 X33.6 Y40.36 E434.42066
G0 F7200 X35.2 Y38.999
G1 F1350 X35.2 Y3.099 E438.7192
G0 F7200 X36.8 Y3.951
G1 F1350 X36.8 Y37.578 E442.74558
G0 F7200 X38.4 Y36.036
G1 F1350 X38.4 Y4.828 E446.48232
G0 F7200 X40 Y5.932
G1 F1350 X40 Y34.346 E449.88451
G0 F7200 X41.6 Y32.458
G1 F1350 X41.6 Y7.337 E452.89241
G0 F7200 X43.2 Y9.152
G1 F1350 X43.2 Y30.198 E455.41239
G0 F7200 X44.8 Y27.231
G1 F1350 X44.8 Y11.745 E457.26663
G0 F7200 X46.4 Y16.914
G1 F1350 X46.4 Y21.573 E457.82448
G0 F7200 X18.961 Y-13.565
;TIME_ELAPSED:181.923555
;LAYER:-7
M140 S50
G0 X18.961 Y-13.565 Z0.735
;TYPE:SUPPORT
G1 F1350 X18.707 Y-14.016 E457.88904
G1 X18.534 Y-14.306 E457.93115
G1 X18.16 Y-14.881 E458.01671
G1 X17.526 Y-15.747 E458.15057
G1 X17.359 Y-15.955 E458.18384
G1 X16.402 Y-17.048 E458.36504
G1 X16.068 Y-17.391 E458.42475
G1 X15.07 Y-18.32 E458.59481
G1 X14.494 Y-18.789 E458.68745
G1 X13.623 Y-19.422 E458.82175
G1 X12.856 Y-19.922 E458.93595
G1 X12.331 Y-20.35 E459.02043
G1 X11.86 Y-20.843 E459.10547
G1 X11.455 Y-21.392 E459.19056
G1 X11.35 Y-21.582 E459.21764
G1 X11.339 Y-21.578 E459.2191
G1 X11.051 Y-22.123 E459.29598
G1 X10.54 Y-23.004 E459.42301
G1 X10.356 Y-23.296 E459.46606
G1 X9.696 Y-24.244 E459.61013
G1 X-13.893 Y-47.835 E463.77113
