;FLAVOR:Marlin
;TIME:5070
;Filament used: 10.1878m
;Layer height: 0.3
;ZOFFSETPROCESSED
;Generated with Cura_SteamEngine 3.4.1
M190 S50
M104 S185
M109 S185
M82 ;absolute extrusion mode
G21 ;metric values
G90 ;absolute positioning
M82 ;set extruder to absolute mode
M107 ;start with the fan off
G28 ;Home all axes (max endstops)
G1 Z15.0 F9000 ;move the platform down 15mm
G92 E0 ;zero the extruded length
G1 F200 E3 ;extrude 3mm of feed stock
G92 E0 ;zero the extruded length again
G1 F9000
;Put printing message on LCD screen
M117 Printing...
G92 E0
;LAYER_COUNT:360
;LAYER:-8
M107
G0 F7200 X-20.201 Y9.934 Z2.36 ;adjusted by z offset
G92 Z0.36 ;consider this the original z before offset
G1 F1350 X-20.728 Y8.921 E0.13673
G1 X-21.242 Y7.881 E0.27563
G1 X-21.344 Y7.652 E0.30565
G1 X-21.77 Y6.592 E0.44243
G1 X-22.066 Y5.763 E0.54783
G1 X-22.374 Y4.795 E0.66946
G1 X-22.619 Y3.811 E0.79088
G1 X-22.695 Y3.449 E0.83517
G1 X-22.877 Y2.804 E0.91542
G1 X-23.15 Y2.164 E0.99873
G1 X-23.584 Y1.307 E1.11375
G1 X-23.946 Y0.507 E1.21889
G1 X-24.42 Y-.67 E1.37082
G1 X-24.562 Y-1.076 E1.42232
G1 X-24.941 Y-2.327 E1.57883
G1 X-25.058 Y-2.783 E1.6352
G1 X-25.279 Y-3.803 E1.76017
G1 X-25.347 Y-4.177 E1.80568
G1 X-25.528 Y-5.531 E1.96925
G1 X-25.583 Y-6.164 E2.04533
G1 X-25.628 Y-7.103 E2.15789
G1 X-25.63 Y-7.302 E2.18172
G1 X-25.604 Y-8.29 E2.30006
G1 X-25.571 Y-8.82 E2.36364
G1 X-25.455 Y-9.952 E2.49989
G1 X-25.318 Y-10.782 E2.60062
G1 X-25.2 Y-11.366 E2.67196
G1 X-24.934 Y-12.461 E2.80688
G1 X-24.609 Y-13.506 E2.93792
G1 X-24.272 Y-14.435 E3.05625
G1 X-24.197 Y-14.62 E3.08015
G1 X-23.795 Y-15.514 E3.19752
G1 X-23.304 Y-16.434 E3.32238
G1 X-22.611 Y-17.559 E3.48059
G1 X-21.833 Y-18.664 E3.6424
G1 X-21.315 Y-19.323 E3.74277
G1 X-20.953 Y-19.807 E3.81514
G1 X-20.482 Y-20.531 E3.91856
G1 X-20.051 Y-21.14 E4.00789
G1 X-19.9 Y-21.328 E4.03676
G1 X-19.894 Y-21.322 E4.03778
G1 X-18.986 Y-22.487 E4.21464
G1 X-18.299 Y-23.254 E4.33793
G1 X-17.568 Y-24.013 E4.4641
G1 X-16.789 Y-24.761 E4.59341
G1 X-16.152 Y-25.339 E4.69641
G1 X-15.196 Y-26.1 E4.84271
G1 X-14.073 Y-26.905 E5.00815
G1 X-13.177 Y-27.46 E5.13435
G1 X-12.685 Y-27.729 E5.20149
G1 X-10.93 Y-28.615 E5.43689
G1 X-9.968 Y-29.022 E5.56196
G1 X-9.592 Y-29.166 E5.61017
G1 X-8.042 Y-29.663 E5.80507
G1 X-7.658 Y-29.766 E5.85267
G1 X-6.428 Y-30.043 E6.00364
G1 X-5.882 Y-30.142 E6.07008
G1 X-4.783 Y-30.298 E6.20299
G1 X-4.104 Y-30.367 E6.28471
G1 X-3.18 Y-30.425 E6.39556
G1 X-3 Y-30.431 E6.41713
G1 X-2.298 Y-30.431 E6.50118
G1 X-1.741 Y-30.415 E6.5679
G1 X-.786 Y-30.354 E6.68249
G1 X-.586 Y-30.333 E6.70657
G1 X0.563 Y-30.168 E6.84555
G1 X1.032 Y-30.082 E6.90265
G1 X2.003 Y-29.869 E7.02167
G1 X2.647 Y-29.691 E7.10168
G1 X3.073 Y-29.56 E7.15504
G1 X4.124 Y-29.193 E7.28834
G1 X5.126 Y-28.759 E7.41908
G1 X5.609 Y-28.519 E7.48366
G1 X6.22 Y-28.242 E7.56399
G1 X6.877 Y-28.039 E7.64632
G1 X7.855 Y-27.897 E7.76465
G1 X8.497 Y-27.863 E7.84163
G1 X9.066 Y-27.801 E7.91017
G1 X9.626 Y-27.728 E7.97779
G1 X10.576 Y-27.57 E8.0931
G1 X11.583 Y-27.332 E8.21699
G1 X11.78 Y-27.275 E8.24155
G1 X13.273 Y-26.763 E8.43054
G1 X13.764 Y-26.563 E8.49402
G1 X14.618 Y-26.181 E8.60604
G1 X14.788 Y-26.097 E8.62874
G1 X15.996 Y-25.426 E8.7942
G1 X16.341 Y-25.212 E8.84281
G1 X17.127 Y-24.685 E8.95612
G1 X17.29 Y-24.567 E8.98021
G1 X18.193 Y-23.853 E9.11805
G1 X19.013 Y-23.104 E9.25103
G1 X19.129 Y-22.989 E9.27059
G1 X19.859 Y-22.208 E9.39859
G1 X20.144 Y-21.879 E9.45071
G1 X20.766 Y-21.11 E9.56914
G1 X21.469 Y-20.1 E9.71648
G1 X21.665 Y-19.788 E9.7606
G1 X22.208 Y-18.854 E9.88996
G1 X22.529 Y-18.219 E9.97515
G1 X22.963 Y-17.24 E10.10338
G1 X23.025 Y-17.084 E10.12348
G1 X23.347 Y-16.18 E10.23838
G1 X23.493 Y-15.719 E10.29628
G1 X23.818 Y-14.535 E10.44329
G1 X23.979 Y-13.756 E10.53854
G1 X24.063 Y-13.272 E10.59736
G1 X24.191 Y-12.347 E10.70917
G1 X24.21 Y-12.16 E10.73168
G1 X24.268 Y-11.262 E10.83942
G1 X24.265 Y-10.21 E10.96539
G1 X24.257 Y-10.029 E10.98708
G1 X24.183 Y-9.13 E11.09509
G1 X24.113 Y-8.654 E11.15269
G1 X24.049 Y-7.988 E11.23281
G1 X24.07 Y-7.306 E11.3145
G1 X24.177 Y-6.63 E11.39645
G1 X24.368 Y-5.976 E11.47803
G1 X24.64 Y-5.349 E11.55987
G1 X24.989 Y-4.763 E11.64153
G1 X25.387 Y-4.252 E11.71909
G1 X25.786 Y-3.789 E11.79227
G1 X26.416 Y-2.948 E11.91809
G1 X26.91 Y-2.188 E12.02663
G1 X27.022 Y-2.001 E12.05273
G1 X27.404 Y-1.446 E12.1334
G1 X27.644 Y-1.186 E12.17577
G1 X27.627 Y-1.169 E12.17864
G1 X28.088 Y-.716 E12.25603
G1 X28.761 Y-0.002 E12.37352
G1 X29.25 Y0.551 E12.4619
G1 X29.852 Y1.283 E12.57538
G1 X29.962 Y1.43 E12.59737
G1 X30.74 Y2.564 E12.76203
G1 X31.34 Y3.62 E12.90746
G1 X31.788 Y4.572 E13.03344
G1 X32.122 Y5.429 E13.14357
G1 X32.177 Y5.586 E13.16349
G1 X32.502 Y6.656 E13.29739
G1 X32.629 Y7.139 E13.35719
G1 X32.843 Y8.09 E13.4739
G1 X32.877 Y8.272 E13.49607
G1 X33.01 Y9.166 E13.60429
G1 X33.029 Y9.337 E13.6249
G1 X33.094 Y10.221 E13.73103
G1 X33.101 Y10.397 E13.75212
G1 X33.103 Y11.279 E13.85773
G1 X33.096 Y11.465 E13.88001
G1 X33.039 Y12.272 E13.97688
G1 X32.957 Y13.164 E14.08414
G1 X32.934 Y13.346 E14.1061
G1 X32.788 Y14.23 E14.21338
G1 X32.544 Y15.263 E14.34047
G1 X32.223 Y16.286 E14.46885
G1 X31.812 Y17.415 E14.61271
G1 X31.742 Y17.586 E14.63484
G1 X31.306 Y18.531 E14.75945
G1 X30.693 Y19.689 E14.91634
G1 X30.598 Y19.854 E14.93913
G1 X30.151 Y20.57 E15.0402
G1 X30.021 Y20.759 E15.06767
G1 X29.671 Y21.232 E15.13812
G1 X29.591 Y21.35 E15.15519
G1 X28.829 Y22.373 E15.30793
G1 X28.354 Y23.029 E15.4049
G1 X28.346 Y23.021 E15.40626
G1 X27.89 Y23.625 E15.49688
G1 X27.043 Y24.652 E15.65627
G1 X26.35 Y25.366 E15.77541
G1 X25.834 Y25.859 E15.86086
G1 X25.83 Y25.87 E15.86226
G1 X25.065 Y26.563 E15.98586
G1 X24.217 Y27.227 E16.11482
G1 X23.774 Y27.549 E16.18039
G1 X23.455 Y27.793 E16.22848
G1 X22.534 Y28.407 E16.36102
G1 X21.49 Y29.03 E16.50659
G1 X20.365 Y29.634 E16.65948
G1 X19.542 Y30.013 E16.76797
G1 X19.397 Y30.072 E16.78671
G1 X18.045 Y30.553 E16.95853
G1 X17.518 Y30.711 E17.02441
G1 X16.142 Y31.057 E17.1943
G1 X15.573 Y31.169 E17.26373
G1 X14.266 Y31.369 E17.42205
G1 X13.815 Y31.419 E17.47638
G1 X12.618 Y31.505 E17.62008
G1 X11.9 Y31.529 E17.7061
G1 X11.243 Y31.537 E17.78477
G1 X9.79 Y31.522 E17.95875
G1 X9.575 Y31.528 E17.98451
G1 X9.575 Y31.516 E17.98595
G1 X8.287 Y31.62 E18.14067
G1 X7.701 Y31.653 E18.21094
G1 X6.694 Y31.67 E18.33154
G1 X6.51 Y31.667 E18.35357
G1 X5.532 Y31.613 E18.47085
G1 X4.842 Y31.546 E18.55386
G1 X3.931 Y31.425 E18.6639
G1 X3.742 Y31.393 E18.68685
G1 X2.532 Y31.131 E18.83509
G1 X1.753 Y30.926 E18.93154
G1 X0.706 Y30.607 E19.06259
G1 X-.109 Y30.324 E19.16589
G1 X-.599 Y30.14 E19.22856
G1 X-1.165 Y29.911 E19.30167
G1 X-2.248 Y29.487 E19.44093
G1 X-3.564 Y28.903 E19.61332
G1 X-3.56 Y28.894 E19.6145
G1 X-4.22 Y28.641 E19.69913
G1 X-4.972 Y28.325 E19.7968
G1 X-5.389 Y28.166 E19.85024
G1 X-6.423 Y27.724 E19.98488
G1 X-7.234 Y27.311 E20.09386
G1 X-7.391 Y27.223 E20.11541
G1 X-8.229 Y26.715 E20.23274
G1 X-8.393 Y26.606 E20.25632
G1 X-9.314 Y25.947 E20.39192
G1 X-9.716 Y25.628 E20.45337
G1 X-10.146 Y25.27 E20.52036
G1 X-10.85 Y24.644 E20.63316
G1 X-10.982 Y24.517 E20.6551
G1 X-11.595 Y23.886 E20.76043
G1 X-11.724 Y23.743 E20.78349
G1 X-12.285 Y23.073 E20.88812
G1 X-12.416 Y22.906 E20.91354
G1 X-12.92 Y22.207 E21.01672
G1 X-13.491 Y21.289 E21.14617
G1 X-13.563 Y21.162 E21.16365
G1 X-13.918 Y20.477 E21.25603
G1 X-14.266 Y19.902 E21.3365
G1 X-14.77 Y19.278 E21.43255
G1 X-15.659 Y18.334 E21.58781
G1 X-16.162 Y17.746 E21.68046
G1 X-16.742 Y17.022 E21.79154
G1 X-16.848 Y16.88 E21.81275
G1 X-17.424 Y16.035 E21.9352
G1 X-17.747 Y15.498 E22.01024
G1 X-17.939 Y15.162 E22.05657
G1 X-18.37 Y14.35 E22.16665
G1 X-18.675 Y13.727 E22.2497
G1 X-19.112 Y12.749 E22.37796
G1 X-19.394 Y12.009 E22.47278
G1 X-19.584 Y11.475 E22.54065
G1 X-19.762 Y11.014 E22.59982
G1 X-19.901 Y10.621 E22.64973
G1 X-20.201 Y9.934 E22.73949
G0 F7200 X-20.8 Y8.775
G1 F1350 X-20.8 Y-20.043 E26.19006
G0 F7200 X-19.2 Y-22.213
G1 F1350 X-19.2 Y12.518 E30.34863
G0 F7200 X-17.6 Y15.742
G1 F1350 X-17.6 Y-23.98 E35.1048
G0 F7200 X-16 Y-25.46
G1 F1350 X-16 Y17.935 E40.30076
G0 F7200 X-14.4 Y19.736
G1 F1350 X-14.4 Y-26.671 E45.85737
G0 F7200 X-12.8 Y-27.667
G1 F1350 X-12.8 Y22.373 E51.84899
G0 F7200 X-11.2 Y24.292
G1 F1350 X-11.2 Y-28.479 E58.1676
G0 F7200 X-9.6 Y-29.163
G1 F1350 X-9.6 Y25.72 E64.7391
G0 F7200 X-8 Y26.853
G1 F1350 X-8 Y-29.675 E71.50756
G0 F7200 X-6.4 Y-30.049
G1 F1350 X-6.4 Y27.733 E78.42618
G0 F7200 X-4.8 Y28.397
G1 F1350 X-4.8 Y-30.296 E85.45387
G0 F7200 X-3.2 Y-30.424
G1 F1350 X-3.2 Y29.064 E92.57676
G0 F7200 X-1.6 Y29.74
G1 F1350 X-1.6 Y-30.405 E99.77831
G0 F7200 X0.00 Y-30.248
G1 F1350 X0.00 Y30.361 E107.03542
G0 F7200 X1.6 Y30.879
G1 F1350 X1.6 Y-29.957 E114.3197
G0 F7200 X3.2 Y-29.515
G1 F1350 X3.2 Y31.275 E121.59849
G0 F7200 X4.8 Y31.54
G1 F1350 X4.8 Y-28.9 E128.83536
G0 F7200 X6.4 Y-28.186
G1 F1350 X6.4 Y31.66 E136.00111
G0 F7200 X8 Y31.637
G1 F1350 X8 Y-27.889 E143.12854
G0 F7200 X9.6 Y-27.731
G1 F1350 X9.6 Y31.528 E150.22401
G0 F7200 X11.2 Y31.536
G1 F1350 X11.2 Y-27.422 E157.28343
G0 F7200 X12.8 Y-26.925
G1 F1350 X12.8 Y31.492 E164.27808
G0 F7200 X14.4 Y31.349
G1 F1350 X14.4 Y-26.278 E171.17813
G0 F7200 X16 Y-25.423
G1 F1350 X16 Y31.085 E177.9442
G0 F7200 X17.6 Y30.687
G1 F1350 X17.6 Y-24.321 E184.53067
G0 F7200 X19.2 Y-22.913
G1 F1350 X19.2 Y30.143 E190.8834
G0 F7200 X20.8 Y29.401
G1 F1350 X20.8 Y-21.061 E196.92555
G0 F7200 X22.4 Y-18.474
G1 F1350 X22.4 Y28.487 E202.54849
G0 F7200 X24 Y27.385
G1 F1350 X24 Y-13.635 E207.46008
G0 F7200 X24.53 Y-7.351
G0 X24.627 Y-6.73
G0 X25.6 Y-4.004
G1 F1350 X25.6 Y26.079 E211.06212
G0 F7200 X27.2 Y24.462
G1 F1350 X27.2 Y-1.742 E214.19969
G0 F7200 X28.8 Y0.043
G1 F1350 X28.8 Y22.414 E216.87832
G0 F7200 X30.4 Y20.172
G1 F1350 X30.4 Y2.069 E219.0459
G0 F7200 X32 Y5.116
G1 F1350 X32 Y16.899 E220.45676
G0 F7200 X-22.4 Y4.69
G1 F1350 X-22.4 Y-17.859 E223.1567
G0 F7200 X-24 Y-15.059
G1 F1350 X-24 Y0.372 E225.00435
G0 F7200 X-25.6 Y-6.519
G1 F1350 X-25.6 Y-8.355 E225.22419
G0 F7200 X-12.284 Y23.072
;TIME_ELAPSED:86.236269
;LAYER:-7
M140 S50
G0 X-12.284 Y23.072 Z0.809
;TYPE:SUPPORT
G1 F1350 X-11.723 Y23.741 E225.35457
G1 X-11.594 Y23.885 E225.38344
G1 X-10.982 Y24.516 E225.51472
G1 X-10.85 Y24.643 E225.54207
G1 X-10.145 Y25.269 E225.68287
G1 X-9.792 Y25.563 E225.75148
G1 X-9.715 Y25.626 E225.76633
G1 X-9.314 Y25.946 E225.84295
G1 X-8.393 Y26.605 E226.01207
G1 X-8.229 Y26.714 E226.04148
G1 X-7.39 Y27.222 E226.18795
G1 X-7.234 Y27.31 E226.2147
G1 X-6.422 Y27.723 E226.35075
G1 X-6.065 Y27.875 E226.40869
G1 X-15.96 Y17.98 E228.49847
G1 X-16.161 Y17.745 E228.54465
G1 X-16.742 Y17.02 E228.6834
G1 X-16.848 Y16.879 E228.70974
G1 X-17.423 Y16.035 E228.86226
G1 X-17.746 Y15.497 E228.95597
G1 X-17.937 Y15.161 E229.01369
G1 X-18.369 Y14.35 E229.15091
G1 X-18.553 Y13.973 E229.21356
G1 X-3.679 Y28.847 E232.35488
G1 X-3.563 Y28.902 E232.37406
G1 X-2.248 Y29.486 E232.58893
G1 X-1.226 Y29.886 E232.75283
G1 X-19.553 Y11.559 E236.62341
G1 X-19.583 Y11.475 E236.63673
G1 X-19.76 Y11.013 E236.71062
G1 X-19.9 Y10.621 E236.77278
G1 X-20.199 Y9.934 E236.88467
G1 X-20.673 Y9.024 E237.0379
G1 X0.996 Y30.694 E241.61441
G1 X1.752 Y30.925 E241.73246
G1 X2.532 Y31.13 E241.8529
G1 X2.932 Y31.216 E241.914
G1 X-21.812 Y6.472 E247.13983
G1 X-22.065 Y5.763 E247.25225
G1 X-22.373 Y4.794 E247.40409
G1 X-22.472 Y4.397 E247.46519
G1 X4.649 Y31.519 E253.19314
G1 X4.842 Y31.545 E253.22223
G1 X5.531 Y31.612 E253.3256
G1 X6.192 Y31.648 E253.42446
G1 X-23.043 Y2.411 E259.59898
G1 X-23.149 Y2.163 E259.63926
G1 X-23.583 Y1.306 E259.78272
G1 X-23.944 Y0.506 E259.91379
G1 X-24.221 Y-.18 E260.02427
G1 X7.612 Y31.653 E266.74727
G1 X7.701 Y31.652 E266.76056
G1 X8.287 Y31.618 E266.84822
G1 X8.938 Y31.565 E266.94576
G1 X-24.934 Y-2.307 E274.09939
G1 X-24.94 Y-2.327 E274.10251
G1 X-25.057 Y-2.783 E274.17281
G1 X-25.278 Y-3.803 E274.32867
G1 X-25.337 Y-4.123 E274.37726
G1 X10.313 Y31.526 E281.90629
G1 X11.242 Y31.536 E282.04503
G1 X11.73 Y31.529 E282.11792
G1 X-25.547 Y-5.748 E289.99066
G1 X-25.582 Y-6.163 E290.05286
G1 X-25.627 Y-7.102 E290.19325
G1 X-25.629 Y-7.244 E290.21446
G1 X13.085 Y31.47 E298.39069
G1 X13.815 Y31.418 E298.49998
G1 X14.265 Y31.367 E298.56762
G1 X14.379 Y31.35 E298.58483
G1 X-25.583 Y-8.613 E307.02474
G1 X-25.57 Y-8.82 E307.05572
G1 X-25.46 Y-9.903 E307.21828
G1 X15.605 Y31.161 E315.89093
G1 X16.141 Y31.056 E315.9725
G1 X16.758 Y30.9 E316.06754
G1 X-25.251 Y-11.109 E324.93967
G1 X-25.199 Y-11.366 E324.97882
G1 X-24.983 Y-12.255 E325.11545
G1 X17.874 Y30.602 E334.16667
G1 X18.044 Y30.551 E334.19317
G1 X18.925 Y30.238 E334.3328
G1 X-24.658 Y-13.345 E343.53734
G1 X-24.608 Y-13.505 E343.56238
G1 X-24.288 Y-14.388 E343.70264
G1 X19.932 Y29.832 E353.04172
G1 X20.364 Y29.633 E353.11275
G1 X20.874 Y29.359 E353.1992
G1 X-23.857 Y-15.372 E362.6462
G1 X-23.794 Y-15.513 E362.66927
G1 X-23.374 Y-16.303 E362.80288
G1 X21.783 Y28.854 E372.33985
G1 X22.534 Y28.405 E372.47052
G1 X22.662 Y28.319 E372.49355
G1 X-22.841 Y-17.184 E382.10359
G1 X-22.61 Y-17.558 E382.16924
G1 X-22.276 Y-18.034 E382.25608
G1 X23.507 Y27.75 E391.92536
G1 X23.773 Y27.548 E391.97524
G1 X24.216 Y27.226 E392.05703
G1 X24.318 Y27.146 E392.07639
G1 X-21.682 Y-18.854 E401.7914
G1 X-21.314 Y-19.323 E401.88042
G1 X-21.067 Y-19.653 E401.94198
G1 X25.107 Y26.522 E411.69384
G1 X25.829 Y25.869 E411.83922
G1 X25.834 Y25.858 E411.84103
G1 X25.846 Y25.846 E411.84356
G1 X-20.501 Y-20.501 E421.63185
G1 X-20.482 Y-20.53 E421.63703
G1 X-20.05 Y-21.139 E421.74854
G1 X-19.906 Y-21.32 E421.78308
G1 X26.561 Y25.147 E431.59672
G1 X27.041 Y24.651 E431.69979
G1 X27.24 Y24.412 E431.74624
G1 X-19.28 Y-22.109 E441.57117
G1 X-18.985 Y-22.485 E441.64254
G1 X-18.635 Y-22.878 E441.72113
G1 X27.879 Y23.637 E451.5448
G1 X27.888 Y23.625 E451.54704
G1 X28.345 Y23.02 E451.66027
G1 X28.353 Y23.029 E451.66207
G1 X28.493 Y22.836 E451.69768
G1 X-17.954 Y-23.611 E461.50709
G1 X-17.568 Y-24.012 E461.59021
G1 X-17.247 Y-24.318 E461.65644
G1 X29.091 Y22.02 E471.44283
G1 X29.59 Y21.349 E471.56771
G1 X29.67 Y21.231 E471.589
G1 X29.69 Y21.205 E471.5939
G1 X-16.519 Y-25.004 E481.35305
G1 X-16.151 Y-25.338 E481.42726
G1 X-15.754 Y-25.653 E481.50295
G1 X30.273 Y20.373 E491.22355
G1 X30.597 Y19.853 E491.31505
G1 X30.692 Y19.688 E491.34348
G1 X30.8 Y19.486 E491.37769
G1 X-14.956 Y-26.27 E501.04116
G1 X-14.132 Y-26.86 E501.19251
G1 X31.29 Y18.562 E510.78545
G1 X31.305 Y18.531 E510.79059
G1 X31.737 Y17.595 E510.94454
G1 X-13.263 Y-27.405 E520.44835
G1 X-13.176 Y-27.459 E520.46364
G1 X-12.685 Y-27.728 E520.54725
G1 X-12.343 Y-27.9 E520.60442
G1 X32.121 Y16.565 E529.99514
G1 X32.222 Y16.286 E530.03945
G1 X32.469 Y15.499 E530.16263
G1 X-11.404 Y-28.374 E539.42843
G1 X-10.929 Y-28.614 E539.5079
G1 X-10.437 Y-28.822 E539.58767
G1 X32.754 Y14.369 E548.70943
G1 X32.787 Y14.229 E548.73091
G1 X32.932 Y13.345 E548.86469
G1 X32.956 Y13.157 E548.89299
G1 X-9.42 Y-29.219 E557.84263
G1 X-8.35 Y-29.563 E558.01048
G1 X33.067 Y11.854 E566.75757
G1 X33.095 Y11.465 E566.81582
G1 X33.101 Y11.279 E566.84361
G1 X33.101 Y10.473 E566.96397
G1 X-7.232 Y-29.86 E575.48214
G1 X-6.427 Y-30.042 E575.60539
G1 X-6.065 Y-30.107 E575.66031
G1 X32.975 Y8.933 E583.9054
G1 X32.876 Y8.271 E584.00536
G1 X32.842 Y8.09 E584.03286
G1 X32.638 Y7.182 E584.17184
G1 X-4.833 Y-30.289 E592.08556
G1 X-4.783 Y-30.297 E592.09312
G1 X-4.104 Y-30.365 E592.19503
G1 X-3.531 Y-30.402 E592.28078
G1 X32.007 Y5.137 E599.78636
G1 X31.787 Y4.572 E599.87691
G1 X31.338 Y3.62 E600.0341
G1 X30.739 Y2.563 E600.21553
G1 X30.501 Y2.217 E600.27825
G1 X-2.141 Y-30.425 E607.1721
G1 X-1.74 Y-30.414 E607.23201
G1 X-.786 Y-30.353 E607.37477
G1 X-.639 Y-30.337 E607.39685
G1 X25.172 Y-4.526 E612.84803
G1 X24.987 Y-4.763 E612.89292
G1 X24.639 Y-5.349 E612.9947
G1 X24.367 Y-5.975 E613.09663
G1 X24.175 Y-6.629 E613.19842
G1 X24.118 Y-6.993 E613.25344
G1 X1.031 Y-30.081 E618.12943
G1 X2.002 Y-29.868 E618.27788
G1 X2.647 Y-29.689 E618.37785
G1 X2.92 Y-29.606 E618.42046
G1 X24.091 Y-8.435 E622.89169
G1 X24.112 Y-8.653 E622.92439
G1 X24.182 Y-9.129 E622.99624
G1 X24.23 Y-9.71 E623.0833
G1 X5.238 Y-28.702 E627.09433
G1 X5.609 Y-28.518 E627.15618
G1 X6.22 Y-28.241 E627.25636
