;FLAVOR:Marlin
;TIME:6332
;Filament used: 8.85174m
;Layer height: 0.3
;ZOFFSETPROCESSED
;Generated with Cura_SteamEngine 3.4.1
M190 S50
M104 S185
M109 S185
M82 ;absolute extrusion mode
G21 ;metric values
G90 ;absolute positioning
M82 ;set extruder to absolute mode
M107 ;start with the fan off
G28 ;Home all axes (max endstops)
G1 Z15.0 F9000 ;move the platform down 15mm
G92 E0 ;zero the extruded length
G1 F200 E3 ;extrude 3mm of feed stock
G92 E0 ;zero the extruded length again
G1 F9000
;Put printing message on LCD screen
M117 Printing...
G92 E0
G1 F1500 E-6.5
;LAYER_COUNT:267
;LAYER:-8
M107
G0 F3600 X30.234 Y-37.455 Z2.36 ;adjusted by z offset
G92 Z0.36 ;consider this the original z before offset
G1 F1500 E0
G1 F1350 X47.634 Y-7.193 E4.17973
G1 X48.08 Y-6.348 E4.29413
G1 X48.151 Y-6.198 E4.314
G1 X48.505 Y-5.391 E4.41952
G1 X48.58 Y-5.202 E4.44387
G1 X48.92 Y-4.224 E4.56784
G1 X49.158 Y-3.35 E4.6763
G1 X49.199 Y-3.177 E4.69759
G1 X49.395 Y-2.146 E4.82325
G1 X49.517 Y-1.106 E4.94863
G1 X49.56 Y-.169 E5.06094
G1 X49.539 Y0.886 E5.18729
G1 X49.439 Y1.954 E5.31573
G1 X49.418 Y2.11 E5.33457
G1 X49.262 Y3.006 E5.44347
G1 X49.012 Y4.028 E5.56945
G1 X48.964 Y4.195 E5.59026
G1 X48.635 Y5.181 E5.71472
G1 X48.29 Y6.018 E5.82311
G1 X48.204 Y6.203 E5.84754
G1 X47.575 Y7.418 E6.01136
G1 X30.028 Y37.68 E10.19989
G1 X29.54 Y38.454 E10.30945
G1 X29.436 Y38.608 E10.3317
G1 X28.917 Y39.314 E10.43662
G1 X28.813 Y39.445 E10.45664
G1 X28.222 Y40.135 E10.56542
G1 X28.101 Y40.267 E10.58687
G1 X27.478 Y40.896 E10.69287
G1 X26.687 Y41.593 E10.8191
G1 X26.523 Y41.725 E10.84431
G1 X25.839 Y42.238 E10.94669
G1 X25.684 Y42.346 E10.96931
G1 X24.794 Y42.911 E11.09553
G1 X23.99 Y43.347 E11.20504
G1 X23.851 Y43.416 E11.22363
G1 X23.024 Y43.79 E11.3323
G1 X22.873 Y43.852 E11.35185
G1 X22.045 Y44.157 E11.4575
G1 X21.859 Y44.217 E11.4809
G1 X21.024 Y44.456 E11.5849
G1 X20.834 Y44.502 E11.6083
G1 X19.956 Y44.686 E11.71572
G1 X18.926 Y44.829 E11.84023
G1 X18.738 Y44.845 E11.86282
G1 X17.346 Y44.909 E12.02967
G1 X-17.616 Y44.849 E16.2159
G1 X-18.536 Y44.814 E16.32614
G1 X-19.584 Y44.704 E16.45231
G1 X-19.783 Y44.675 E16.47639
G1 X-20.651 Y44.513 E16.58212
G1 X-21.677 Y44.249 E16.70897
G1 X-22.698 Y43.905 E16.83797
G1 X-23.659 Y43.501 E16.96279
G1 X-23.843 Y43.414 E16.98716
G1 X-24.781 Y42.923 E17.11393
G1 X-25.533 Y42.462 E17.21955
G1 X-25.676 Y42.367 E17.2401
G1 X-26.409 Y41.842 E17.34806
G1 X-26.553 Y41.73 E17.3699
G1 X-27.211 Y41.18 E17.47259
G1 X-27.357 Y41.049 E17.49608
G1 X-28.006 Y40.422 E17.60413
G1 X-28.713 Y39.639 E17.73044
G1 X-28.818 Y39.513 E17.75008
G1 X-29.361 Y38.808 E17.85663
G1 X-29.467 Y38.658 E17.87863
G1 X-30.215 Y37.49 E18.0447
G1 X-47.637 Y7.185 E22.2302
G1 X-48.082 Y6.341 E22.34445
G1 X-48.153 Y6.193 E22.3641
G1 X-48.51 Y5.376 E22.47086
G1 X-48.58 Y5.199 E22.49365
G1 X-48.868 Y4.384 E22.59715
G1 X-48.929 Y4.186 E22.62195
G1 X-49.154 Y3.362 E22.72423
G1 X-49.203 Y3.148 E22.75052
G1 X-49.394 Y2.141 E22.87324
G1 X-49.502 Y1.25 E22.98071
G1 X-49.517 Y1.067 E23.00269
G1 X-49.559 Y0.168 E23.11045
G1 X-49.538 Y-.888 E23.23692
G1 X-49.438 Y-1.956 E23.36536
G1 X-49.417 Y-2.111 E23.38408
G1 X-49.226 Y-3.17 E23.51293
G1 X-49.016 Y-4.01 E23.61661
G1 X-48.961 Y-4.2 E23.64029
G1 X-48.685 Y-5.043 E23.7465
G1 X-48.625 Y-5.204 E23.76707
G1 X-48.29 Y-6.017 E23.87236
G1 X-48.203 Y-6.206 E23.89727
G1 X-47.566 Y-7.433 E24.06281
G1 X-30.028 Y-37.68 E28.24924
G1 X-29.54 Y-38.454 E28.3588
G1 X-29.433 Y-38.613 E28.38175
G1 X-28.917 Y-39.314 E28.48597
G1 X-28.813 Y-39.445 E28.506
G1 X-28.222 Y-40.135 E28.61478
G1 X-28.101 Y-40.267 E28.63622
G1 X-27.478 Y-40.896 E28.74222
G1 X-27.354 Y-41.011 E28.76247
G1 X-26.545 Y-41.708 E28.89033
G1 X-25.826 Y-42.249 E28.99807
G1 X-25.679 Y-42.35 E29.01943
G1 X-24.936 Y-42.826 E29.12508
G1 X-24.776 Y-42.921 E29.14736
G1 X-24.003 Y-43.341 E29.2527
G1 X-23.851 Y-43.416 E29.27299
G1 X-22.873 Y-43.852 E29.40121
G1 X-22.045 Y-44.157 E29.50686
G1 X-21.859 Y-44.217 E29.53026
G1 X-21.024 Y-44.456 E29.63426
G1 X-20.834 Y-44.502 E29.65766
G1 X-19.956 Y-44.686 E29.76507
G1 X-18.926 Y-44.829 E29.88959
G1 X-18.738 Y-44.845 E29.91218
G1 X-17.346 Y-44.909 E30.07903
G1 X17.616 Y-44.849 E34.26526
G1 X18.536 Y-44.814 E34.3755
G1 X19.584 Y-44.704 E34.50167
G1 X19.783 Y-44.675 E34.52575
G1 X20.651 Y-44.513 E34.63148
G1 X21.677 Y-44.249 E34.75833
G1 X22.698 Y-43.905 E34.88733
G1 X23.659 Y-43.501 E35.01215
G1 X23.843 Y-43.414 E35.03652
G1 X24.781 Y-42.923 E35.16329
G1 X25.533 Y-42.462 E35.26891
G1 X25.675 Y-42.368 E35.2893
G1 X26.409 Y-41.842 E35.39742
G1 X26.553 Y-41.73 E35.41926
G1 X27.211 Y-41.18 E35.52195
G1 X27.355 Y-41.051 E35.5451
G1 X28.006 Y-40.422 E35.65349
G1 X28.713 Y-39.639 E35.7798
G1 X28.818 Y-39.513 E35.79944
G1 X29.347 Y-38.826 E35.90326
G1 X29.48 Y-38.638 E35.93084
G1 X30.234 Y-37.455 E36.09881
G0 F3600 X30.4 Y-37.166
G1 F1350 X30.4 Y37.039 E44.98385
G0 F3600 X28.8 Y39.461
G1 F1350 X28.8 Y-39.534 E54.44244
G0 F3600 X27.2 Y-41.189
G1 F1350 X27.2 Y41.141 E64.30034
G0 F3600 X25.6 Y42.4
G1 F1350 X25.6 Y-42.417 E74.45603
G0 F3600 X24 Y-43.331
G1 F1350 X24 Y43.342 E84.83395
G0 F3600 X22.4 Y44.027
G1 F1350 X22.4 Y-44.005 E95.3746
G0 F3600 X20.8 Y-44.474
G1 F1350 X20.8 Y44.51 E106.02923
G0 F3600 X19.2 Y44.791
G1 F1350 X19.2 Y-44.744 E116.74983
G0 F3600 X17.6 Y-44.849
G1 F1350 X17.6 Y44.898 E127.49582
G0 F3600 X16 Y44.906
G1 F1350 X16 Y-44.851 E138.24301
G0 F3600 X14.4 Y-44.854
G1 F1350 X14.4 Y44.903 E148.9902
G0 F3600 X12.8 Y44.901
G1 F1350 X12.8 Y-44.857 E159.73751
G0 F3600 X11.2 Y-44.86
G1 F1350 X11.2 Y44.898 E170.48481
G0 F3600 X9.6 Y44.895
G1 F1350 X9.6 Y-44.862 E181.232
G0 F3600 X8 Y-44.865
G1 F1350 X8 Y44.892 E191.97919
G0 F3600 X6.4 Y44.89
G1 F1350 X6.4 Y-44.868 E202.7265
G0 F3600 X4.8 Y-44.87
G1 F1350 X4.8 Y44.887 E213.47369
G0 F3600 X3.2 Y44.884
G1 F1350 X3.2 Y-44.873 E224.22087
G0 F3600 X1.6 Y-44.876
G1 F1350 X1.6 Y44.881 E234.96806
G0 F3600 X0.00 Y44.879
G1 F1350 X0.00 Y-44.879 E245.71537
G0 F3600 X-1.6 Y-44.881
G1 F1350 X-1.6 Y44.876 E256.46256
G0 F3600 X-3.2 Y44.873
G1 F1350 X-3.2 Y-44.884 E267.20974
G0 F3600 X-4.8 Y-44.887
G1 F1350 X-4.8 Y44.87 E277.95693
G0 F3600 X-6.4 Y44.868
G1 F1350 X-6.4 Y-44.89 E288.70424
G0 F3600 X-8 Y-44.892
G1 F1350 X-8 Y44.865 E299.45143
G0 F3600 X-9.6 Y44.862
G1 F1350 X-9.6 Y-44.895 E310.19862
G0 F3600 X-11.2 Y-44.898
G1 F1350 X-11.2 Y44.86 E320.94592
G0 F3600 X-12.8 Y44.857
G1 F1350 X-12.8 Y-44.901 E331.69323
G0 F3600 X-14.4 Y-44.903
G1 F1350 X-14.4 Y44.854 E342.44042
G0 F3600 X-16 Y44.851
G1 F1350 X-16 Y-44.906 E353.18761
G0 F3600 X-17.6 Y-44.898
G1 F1350 X-17.6 Y44.849 E363.9336
G0 F3600 X-19.2 Y44.744
G1 F1350 X-19.2 Y-44.791 E374.6542
G0 F3600 X-20.8 Y-44.51
G1 F1350 X-20.8 Y44.474 E385.30883
G0 F3600 X-22.4 Y44.005
G1 F1350 X-22.4 Y-44.027 E395.84948
G0 F3600 X-24 Y-43.343
G1 F1350 X-24 Y43.331 E406.22752
G0 F3600 X-25.6 Y42.417
G1 F1350 X-25.6 Y-42.401 E416.38333
G0 F3600 X-27.2 Y-41.144
G1 F1350 X-27.2 Y41.189 E426.24159
G0 F3600 X-28.8 Y39.534
G1 F1350 X-28.8 Y-39.461 E435.70017
G0 F3600 X-30.4 Y-37.039
G1 F1350 X-30.4 Y37.168 E444.58546
G0 F3600 X-32 Y34.385
G1 F1350 X-32 Y-34.279 E452.80705
G0 F3600 X-33.6 Y-31.52
G1 F1350 X-33.6 Y31.601 E460.36493
G0 F3600 X-35.2 Y28.818
G1 F1350 X-35.2 Y-28.761 E467.25924
G0 F3600 X-36.8 Y-26.001
G1 F1350 X-36.8 Y26.035 E473.48985
G0 F3600 X-38.4 Y23.252
G1 F1350 X-38.4 Y-23.242 E479.05688
G0 F3600 X-40 Y-20.482
G1 F1350 X-40 Y20.469 E483.9602
G0 F3600 X-41.6 Y17.686
G1 F1350 X-41.6 Y-17.723 E488.19995
G0 F3600 X-43.2 Y-14.963
G1 F1350 X-43.2 Y14.903 E491.776
G0 F3600 X-44.8 Y12.119
G1 F1350 X-44.8 Y-12.204 E494.68835
G0 F3600 X-46.4 Y-9.444
G1 F1350 X-46.4 Y9.336 E496.937
G0 F3600 X-48 Y6.496
G1 F1350 X-48 Y-6.598 E498.50483
G0 F3600 X32 Y-34.383
G1 F1350 X32 Y34.28 E506.7263
G0 F3600 X33.6 Y31.52
G1 F1350 X33.6 Y-31.6 E514.28407
G0 F3600 X35.2 Y-28.818
G1 F1350 X35.2 Y28.761 E521.17837
G0 F3600 X36.8 Y26.001
G1 F1350 X36.8 Y-26.035 E527.40898
G0 F3600 X38.4 Y-23.252
G1 F1350 X38.4 Y23.242 E532.97601
G0 F3600 X40 Y20.483
G1 F1350 X40 Y-20.47 E537.87958
G0 F3600 X41.6 Y-17.687
G1 F1350 X41.6 Y17.723 E542.11945
G0 F3600 X43.2 Y14.964
G1 F1350 X43.2 Y-14.904 E545.69574
G0 F3600 X44.8 Y-12.121
G1 F1350 X44.8 Y12.204 E548.60833
G0 F3600 X46.4 Y9.445
G1 F1350 X46.4 Y-9.339 E550.85746
G0 F3600 X48 Y-6.499
G1 F1350 X48 Y6.598 E552.42565
G0 F3600 X29.479 Y-38.637
;TIME_ELAPSED:218.518993
;LAYER:-7
M140 S50
G0 X29.479 Y-38.637 Z0.809
;TYPE:SUPPORT
G1 F1350 X29.347 Y-38.825 E552.45995
G1 X28.818 Y-39.512 E552.58944
G1 X28.713 Y-39.638 E552.61393
G1 X28.005 Y-40.421 E552.77158
G1 X27.355 Y-41.05 E552.90665
G1 X27.21 Y-41.179 E552.93564
G1 X26.553 Y-41.729 E553.06359
G1 X26.409 Y-41.84 E553.09075
G1 X25.675 Y-42.367 E553.22569
G1 X25.532 Y-42.461 E553.25124
G1 X25.244 Y-42.637 E553.30165
G1 X29.893 Y-37.988 E554.2835
G1 X30.233 Y-37.454 E554.37804
G1 X31.884 Y-34.583 E554.87262
G1 X22.495 Y-43.972 E556.85554
G1 X21.677 Y-44.247 E556.98442
G1 X20.651 Y-44.511 E557.14263
G1 X20.517 Y-44.536 E557.16299
G1 X33.798 Y-31.255 E559.96788
G1 X35.711 Y-27.928 E560.541
G1 X18.86 Y-44.778 E564.09976
G1 X18.536 Y-44.813 E564.14843
G1 X17.616 Y-44.848 E564.28592
G1 X17.377 Y-44.848 E564.32161
G1 X37.624 Y-24.6 E568.5978
G1 X39.537 Y-21.273 E569.17092
G1 X15.96 Y-44.85 E574.15029
G1 X14.543 Y-44.853 E574.3619
G1 X41.45 Y-17.946 E580.04454
G1 X43.364 Y-14.618 E580.61787
G1 X13.127 Y-44.855 E587.0038
G1 X11.71 Y-44.858 E587.21541
G1 X45.276 Y-11.291 E594.30452
G1 X47.19 Y-7.964 E594.87772
G1 X10.294 Y-44.86 E602.67
G1 X8.877 Y-44.862 E602.88161
G1 X48.6 Y-5.139 E611.27094
G1 X48.919 Y-4.224 E611.41566
G1 X49.157 Y-3.349 E611.55107
G1 X49.198 Y-3.177 E611.57748
G1 X49.21 Y-3.115 E611.58691
G1 X7.46 Y-44.865 E620.40434
G1 X6.044 Y-44.867 E620.6158
G1 X49.477 Y-1.434 E629.78867
G1 X49.515 Y-1.105 E629.83813
G1 X49.558 Y-.168 E629.9782
G1 X49.554 Y0.057 E630.01181
G1 X4.627 Y-44.87 E639.50021
G1 X3.21 Y-44.872 E639.71182
G1 X49.489 Y1.406 E649.48564
G1 X49.438 Y1.954 E649.56783
G1 X49.416 Y2.11 E649.59136
G1 X49.322 Y2.653 E649.67366
G1 X1.793 Y-44.875 E659.71148
G1 X0.377 Y-44.877 E659.92294
G1 X49.064 Y3.809 E670.20533
G1 X49.01 Y4.027 E670.23887
G1 X48.963 Y4.195 E670.26492
G1 X48.731 Y4.891 E670.37448
G1 X-1.038 Y-44.879 E680.88559
G1 X-2.455 Y-44.882 E681.09721
G1 X48.334 Y5.908 E691.82374
G1 X48.289 Y6.018 E691.84148
G1 X48.203 Y6.202 E691.87182
G1 X47.866 Y6.853 E691.98129
G1 X-3.872 Y-44.884 E702.90803
G1 X-5.289 Y-44.887 E703.11965
G1 X47.369 Y7.771 E714.2408
G1 X46.85 Y8.667 E714.39543
G1 X-6.705 Y-44.889 E725.70613
G1 X-8.121 Y-44.891 E725.91759
G1 X46.331 Y9.561 E737.41763
G1 X45.812 Y10.456 E737.57213
G1 X-9.538 Y-44.894 E749.26182
G1 X-10.955 Y-44.896 E749.47343
G1 X45.293 Y11.351 E761.35267
G1 X44.774 Y12.247 E761.5073
G1 X-12.372 Y-44.899 E773.5763
G1 X-13.788 Y-44.901 E773.78776
G1 X44.254 Y13.142 E786.0461
G1 X43.735 Y14.037 E786.2006
G1 X-15.204 Y-44.903 E798.64838
G1 X-16.621 Y-44.906 E798.85999
G1 X43.216 Y14.932 E811.49742
G1 X42.697 Y15.827 E811.65193
G1 X-18.007 Y-44.877 E824.47236
G1 X-18.737 Y-44.844 E824.58149
G1 X-18.925 Y-44.828 E824.60966
G1 X-19.317 Y-44.773 E824.66878
G1 X42.178 Y16.723 E837.65637
G1 X41.659 Y17.618 E837.81088
G1 X-20.523 Y-44.565 E850.94356
G1 X-20.834 Y-44.501 E850.99098
G1 X-21.024 Y-44.455 E851.02017
G1 X-21.648 Y-44.276 E851.11712
G1 X41.14 Y18.513 E864.37779
G1 X40.621 Y19.408 E864.53229
G1 X-22.7 Y-43.914 E877.90553
G1 X-22.872 Y-43.851 E877.93288
G1 X-23.688 Y-43.487 E878.06632
G1 X40.102 Y20.303 E891.5385
G1 X39.583 Y21.199 E891.69313
G1 X-24.62 Y-43.004 E905.25254
G1 X-24.776 Y-42.92 E905.279
G1 X-24.935 Y-42.825 E905.30666
G1 X-25.495 Y-42.466 E905.406
G1 X39.064 Y22.094 E919.04069
G1 X38.545 Y22.989 E919.1952
G1 X-26.319 Y-41.876 E932.89431
G1 X-26.545 Y-41.707 E932.93645
G1 X-27.092 Y-41.234 E933.04445
G1 X38.026 Y23.884 E946.7971
G1 X37.507 Y24.779 E946.9516
G1 X-27.821 Y-40.549 E960.7486
G1 X-28.101 Y-40.266 E960.80806
G1 X-28.222 Y-40.133 E960.83491
G1 X-28.498 Y-39.812 E960.89813
G1 X36.988 Y25.675 E974.7286
G1 X36.469 Y26.57 E974.88311
G1 X-29.127 Y-39.027 E988.73682
G1 X-29.432 Y-38.612 E988.81373
G1 X-29.54 Y-38.453 E988.84243
G1 X-29.706 Y-38.191 E988.88875
G1 X35.95 Y27.465 E1002.75503
G1 X35.431 Y28.36 E1002.90953
G1 X-30.24 Y-37.311 E1016.77897
G1 X-30.76 Y-36.417 E1016.93342
G1 X34.912 Y29.255 E1030.80307
G1 X34.393 Y30.151 E1030.95771
G1 X-31.279 Y-35.522 E1044.82747
G1 X-31.798 Y-34.627 E1044.98197
G1 X33.874 Y31.046 E1058.85173
G1 X33.355 Y31.941 E1059.00623
G1 X-32.317 Y-33.731 E1072.87589
G1 X-32.836 Y-32.836 E1073.03039
G1 X32.836 Y32.836 E1086.90004
G1 X32.317 Y33.731 E1087.05455
G1 X-33.355 Y-31.941 E1100.9242
G1 X-33.874 Y-31.046 E1101.0787
G1 X31.798 Y34.627 E1114.94846
G1 X31.279 Y35.522 E1115.10297
G1 X-34.393 Y-30.151 E1128.97273
G1 X-34.912 Y-29.255 E1129.12736
G1 X30.759 Y36.416 E1142.9968
G1 X30.24 Y37.311 E1143.15131
G1 X-35.431 Y-28.36 E1157.02075
G1 X-35.95 Y-27.465 E1157.17525
G1 X29.706 Y38.191 E1171.04152
G1 X29.54 Y38.453 E1171.08784
G1 X29.436 Y38.607 E1171.11559
G1 X29.127 Y39.027 E1171.19346
G1 X-36.469 Y-26.57 E1185.04717
G1 X-36.988 Y-25.675 E1185.20167
G1 X28.498 Y39.812 E1199.03215
G1 X28.222 Y40.133 E1199.09537
G1 X28.101 Y40.266 E1199.12222
G1 X27.821 Y40.549 E1199.18168
G1 X-37.507 Y-24.779 E1212.97868
G1 X-38.026 Y-23.884 E1213.13318
G1 X27.092 Y41.234 E1226.88583
G1 X26.686 Y41.592 E1226.96667
G1 X26.522 Y41.724 E1226.99811
G1 X26.319 Y41.876 E1227.03598
G1 X-38.545 Y-22.989 E1240.73509
G1 X-39.064 Y-22.094 E1240.8896
G1 X25.494 Y42.465 E1254.52408
G1 X24.793 Y42.91 E1254.64808
G1 X24.619 Y43.004 E1254.67761
G1 X-39.583 Y-21.199 E1268.23691
G1 X-40.102 Y-20.303 E1268.39155
G1 X23.688 Y43.487 E1281.86373
G1 X23.024 Y43.789 E1281.97266
G1 X22.872 Y43.851 E1281.99718
G1 X22.7 Y43.914 E1282.02453
G1 X-40.621 Y-19.408 E1295.39777
G1 X-41.14 Y-18.513 E1295.55228
G1 X21.648 Y44.276 E1308.81295
G1 X21.024 Y44.455 E1308.90989
G1 X20.834 Y44.501 E1308.93908
G1 X20.523 Y44.565 E1308.9865
G1 X-41.66 Y-17.618 E1322.11929
G1 X-42.179 Y-16.723 E1322.2738
G1 X19.317 Y44.773 E1335.2615
G1 X18.925 Y44.828 E1335.32061
G1 X18.737 Y44.844 E1335.34879
G1 X18.007 Y44.877 E1335.45792
G1 X-42.698 Y-15.828 E1348.27856
G1 X-43.217 Y-14.933 E1348.43306
G1 X16.621 Y44.906 E1361.0707
G1 X15.204 Y44.903 E1361.28232
G1 X-43.736 Y-14.038 E1373.7303
G1 X-44.255 Y-13.142 E1373.88494
G1 X13.788 Y44.901 E1386.14338
G1 X12.372 Y44.899 E1386.35484
G1 X-44.774 Y-12.247 E1398.42384
G1 X-45.293 Y-11.352 E1398.57834
G1 X10.955 Y44.896 E1410.45769
G1 X9.538 Y44.894 E1410.6693
G1 X-45.812 Y-10.457 E1422.35909
G1 X-46.331 Y-9.562 E1422.5136
G1 X8.121 Y44.891 E1434.01374
G1 X6.705 Y44.889 E1434.2252
G1 X-46.85 Y-8.667 E1445.5359
G1 X-47.369 Y-7.771 E1445.69053
G1 X5.289 Y44.887 E1456.81168
G1 X3.872 Y44.884 E1457.0233
G1 X-47.866 Y-6.853 E1467.95004
G1 X-48.202 Y-6.205 E1468.05905
G1 X-48.289 Y-6.016 E1468.09012
G1 X-48.334 Y-5.907 E1468.10773
G1 X2.455 Y44.882 E1478.83415
G1 X1.038 Y44.879 E1479.04577
G1 X-48.733 Y-4.893 E1489.5573
G1 X-48.96 Y-4.2 E1489.6662
G1 X-49.015 Y-4.01 E1489.69574
G1 X-49.066 Y-3.811 E1489.72642
G1 X-.377 Y44.877 E1500.00923
G1 X-1.793 Y44.875 E1500.22069
G1 X-49.319 Y-2.65 E1510.25788
G1 X-49.416 Y-2.11 E1510.33981
G1 X-49.437 Y-1.956 E1510.36302
G1 X-49.488 Y-1.405 E1510.44566
G1 X-3.21 Y44.872 E1520.21927
G1 X-4.627 Y44.87 E1520.43089
G1 X-49.554 Y-0.056 E1529.91918
G1 X-49.558 Y0.168 E1529.95263
G1 X-49.516 Y1.067 E1530.08703
G1 X-49.501 Y1.25 E1530.11446
G1 X-49.479 Y1.431 E1530.14168
G1 X-6.044 Y44.867 E1539.31508
G1 X-7.46 Y44.865 E1539.52654
G1 X-49.207 Y3.118 E1548.34334
G1 X-49.201 Y3.148 E1548.34791
G1 X-49.153 Y3.362 E1548.38066
G1 X-48.928 Y4.185 E1548.50807
G1 X-48.866 Y4.384 E1548.5392
G1 X-48.6 Y5.139 E1548.65874
G1 X-8.877 Y44.862 E1557.04808
G1 X-10.294 Y44.86 E1557.25969
G1 X-47.187 Y7.966 E1565.05144
G1 X-45.274 Y11.293 E1565.62457
G1 X-11.71 Y44.858 E1572.71325
G1 X-13.127 Y44.855 E1572.92486
G1 X-43.361 Y14.62 E1579.31026
G1 X-41.449 Y17.947 E1579.88331
G1 X-14.543 Y44.853 E1585.56575
G1 X-15.96 Y44.85 E1585.77736
