;FLAVOR:Marlin
;TIME:4422
;Filament used: 7.3111m
;Layer height: 0.3
;ZOFFSETPROCESSED
;Generated with Cura_SteamEngine 3.4.1
M190 S50
M104 S185
M109 S185
M82 ;absolute extrusion mode
G21 ;metric values
G90 ;absolute positioning
M82 ;set extruder to absolute mode
M107 ;start with the fan off
G28 ;Home all axes (max endstops)
G1 Z15.0 F9000 ;move the platform down 15mm
G92 E0 ;zero the extruded length
G1 F200 E3 ;extrude 3mm of feed stock
G92 E0 ;zero the extruded length again
G1 F9000
;Put printing message on LCD screen
M117 Printing...
G92 E0
;LAYER_COUNT:317
;LAYER:-6
M107
G0 F3600 X7.139 Y43.101 Z2.36 ;adjusted by z offset
G92 Z0.36 ;consider this the original z before offset
G1 F1350 X-9.436 Y43.1 E1.98463
G1 X-10.56 Y43.055 E2.11932
G1 X-11.652 Y42.928 E2.25096
G1 X-12.664 Y42.736 E2.37429
G1 X-13.558 Y42.502 E2.48494
G1 X-14.563 Y42.166 E2.61183
G1 X-14.729 Y42.103 E2.63308
G1 X-15.532 Y41.762 E2.73754
G1 X-15.721 Y41.674 E2.76251
G1 X-16.515 Y41.265 E2.86945
G1 X-16.632 Y41.2 E2.88547
G1 X-17.411 Y40.725 E2.99472
G1 X-17.562 Y40.625 E3.01641
G1 X-18.424 Y40.001 E3.14383
G1 X-19.134 Y39.408 E3.25459
G1 X-19.541 Y39.08 E3.31718
G1 X-32.986 Y29.31 E5.30719
G1 X-33.861 Y28.618 E5.44076
G1 X-34.519 Y28.019 E5.5473
G1 X-34.664 Y27.878 E5.57152
G1 X-35.277 Y27.233 E5.67806
G1 X-35.942 Y26.429 E5.803
G1 X-36.068 Y26.263 E5.82795
G1 X-36.575 Y25.544 E5.93329
G1 X-36.658 Y25.417 E5.95146
G1 X-37.127 Y24.636 E6.06054
G1 X-37.612 Y23.689 E6.18793
G1 X-37.686 Y23.527 E6.20926
G1 X-38.079 Y22.571 E6.33302
G1 X-38.274 Y22.016 E6.40346
G1 X-43.807 Y4.98 E8.54818
G1 X-44.094 Y3.978 E8.67298
G1 X-44.131 Y3.821 E8.69229
G1 X-44.401 Y2.421 E8.86301
G1 X-44.482 Y1.835 E8.93384
G1 X-44.578 Y0.924 E9.04353
G1 X-44.589 Y0.759 E9.06333
G1 X-44.619 Y-.126 E9.16935
G1 X-44.618 Y-.301 E9.19031
G1 X-44.582 Y-1.202 E9.29828
G1 X-44.568 Y-1.374 E9.31894
G1 X-44.468 Y-2.258 E9.42546
G1 X-44.276 Y-3.31 E9.55351
G1 X-43.924 Y-4.613 E9.71511
G1 X-38.382 Y-21.685 E11.86427
G1 X-38.021 Y-22.681 E11.99112
G1 X-37.947 Y-22.86 E12.01431
G1 X-37.315 Y-24.199 E12.1916
G1 X-37.057 Y-24.679 E12.25685
G1 X-36.576 Y-25.507 E12.3715
G1 X-36.487 Y-25.647 E12.39137
G1 X-35.977 Y-26.393 E12.49957
G1 X-35.873 Y-26.533 E12.52045
G1 X-35.333 Y-27.211 E12.62423
G1 X-35.214 Y-27.35 E12.64614
G1 X-34.603 Y-28.011 E12.75392
G1 X-34.479 Y-28.135 E12.77492
G1 X-33.832 Y-28.741 E12.88106
G1 X-32.995 Y-29.422 E13.01026
G1 X-32.866 Y-29.519 E13.02959
G1 X-32.123 Y-30.033 E13.13777
G1 X-31.61 Y-30.341 E13.20941
G1 X-31.195 Y-30.614 E13.26889
G1 X-17.694 Y-40.421 E15.26693
G1 X-16.902 Y-40.954 E15.38123
G1 X-16.728 Y-41.062 E15.40575
G1 X-15.961 Y-41.5 E15.51151
G1 X-15.829 Y-41.569 E15.52935
G1 X-15.018 Y-41.956 E15.63694
G1 X-14.836 Y-42.035 E15.6607
G1 X-14.032 Y-42.35 E15.76409
G1 X-13.848 Y-42.414 E15.78742
G1 X-13.019 Y-42.671 E15.89134
G1 X-12.825 Y-42.723 E15.91539
G1 X-11.98 Y-42.918 E16.01923
G1 X-11.784 Y-42.956 E16.04313
G1 X-10.894 Y-43.094 E16.15097
G1 X-9.845 Y-43.182 E16.27701
G1 X-9.682 Y-43.19 E16.29655
G1 X-8.792 Y-43.197 E16.40312
G1 X-8.598 Y-43.191 E16.42636
G1 X-7.677 Y-43.129 E16.53689
G1 X-7.148 Y-43.102 E16.60031
G1 X9.437 Y-43.1 E18.58614
G1 X10.56 Y-43.055 E18.72071
G1 X11.653 Y-42.928 E18.85247
G1 X12.665 Y-42.736 E18.9758
G1 X13.707 Y-42.458 E19.10493
G1 X14.722 Y-42.106 E19.23357
G1 X15.538 Y-41.759 E19.33974
G1 X15.716 Y-41.675 E19.3633
G1 X16.642 Y-41.195 E19.48819
G1 X17.398 Y-40.732 E19.59434
G1 X17.569 Y-40.619 E19.61888
G1 X18.404 Y-40.016 E19.74221
G1 X19.129 Y-39.412 E19.85519
G1 X19.538 Y-39.082 E19.91812
G1 X32.978 Y-29.316 E21.90736
G1 X33.861 Y-28.618 E22.04213
G1 X34.517 Y-28.021 E22.14834
G1 X34.66 Y-27.882 E22.17221
G1 X35.267 Y-27.244 E22.27766
G1 X35.379 Y-27.117 E22.29793
G1 X35.942 Y-26.429 E22.40438
G1 X36.06 Y-26.274 E22.4277
G1 X36.649 Y-25.431 E22.55084
G1 X37.117 Y-24.654 E22.65944
G1 X37.201 Y-24.501 E22.68034
G1 X37.612 Y-23.689 E22.78931
G1 X37.679 Y-23.544 E22.80844
G1 X38.079 Y-22.571 E22.9344
G1 X38.274 Y-22.016 E23.00484
G1 X43.835 Y-4.888 E25.16107
G1 X44.094 Y-3.978 E25.27436
G1 X44.131 Y-3.821 E25.29367
G1 X44.397 Y-2.445 E25.46148
G1 X44.481 Y-1.841 E25.5345
G1 X44.578 Y-.924 E25.64491
G1 X44.589 Y-.759 E25.66471
G1 X44.619 Y0.141 E25.77253
G1 X44.582 Y1.202 E25.89965
G1 X44.568 Y1.374 E25.92031
G1 X44.468 Y2.258 E26.02683
G1 X44.276 Y3.31 E26.15488
G1 X43.924 Y4.613 E26.31649
G1 X38.326 Y21.846 E28.48604
G1 X38.021 Y22.681 E28.59249
G1 X37.947 Y22.86 E28.61568
G1 X37.315 Y24.199 E28.79297
G1 X37.057 Y24.679 E28.85822
G1 X36.501 Y25.627 E28.98981
G1 X35.977 Y26.393 E29.10093
G1 X35.873 Y26.533 E29.12182
G1 X35.333 Y27.211 E29.2256
G1 X35.214 Y27.35 E29.24751
G1 X34.603 Y28.011 E29.35529
G1 X34.479 Y28.135 E29.37628
G1 X33.832 Y28.741 E29.48243
G1 X32.995 Y29.422 E29.61163
G1 X32.866 Y29.519 E29.63095
G1 X32.123 Y30.033 E29.73913
G1 X31.61 Y30.341 E29.81078
G1 X31.195 Y30.614 E29.87026
G1 X17.694 Y40.421 E31.86829
G1 X16.902 Y40.954 E31.9826
G1 X16.728 Y41.062 E32.00712
G1 X15.961 Y41.5 E32.11288
G1 X15.829 Y41.569 E32.13071
G1 X15.018 Y41.956 E32.23831
G1 X14.836 Y42.035 E32.26206
G1 X14.032 Y42.35 E32.36546
G1 X13.847 Y42.414 E32.3889
G1 X13.019 Y42.671 E32.4927
G1 X12.825 Y42.723 E32.51675
G1 X11.98 Y42.918 E32.62059
G1 X11.784 Y42.956 E32.64449
G1 X10.894 Y43.094 E32.75233
G1 X9.845 Y43.182 E32.87838
G1 X9.682 Y43.19 E32.89792
G1 X8.792 Y43.197 E33.00449
G1 X8.598 Y43.191 E33.02773
G1 X7.672 Y43.128 E33.13886
G1 X7.139 Y43.101 E33.20276
G0 F3600 X6.4 Y43.1
G1 F1350 X6.4 Y-43.1 E43.52405
G0 F3600 X4.8 Y-43.1
G1 F1350 X4.8 Y43.1 E53.84533
G0 F3600 X3.2 Y43.1
G1 F1350 X3.2 Y-43.1 E64.16662
G0 F3600 X1.6 Y-43.1
G1 F1350 X1.6 Y43.1 E74.4879
G0 F3600 X0.00 Y43.1
G1 F1350 X0.00 Y-43.101 E84.80931
G0 F3600 X-1.6 Y-43.101
G1 F1350 X-1.6 Y43.1 E95.13071
G0 F3600 X-3.2 Y43.1
G1 F1350 X-3.2 Y-43.101 E105.45212
G0 F3600 X-4.8 Y-43.101
G1 F1350 X-4.8 Y43.1 E115.77352
G0 F3600 X-6.4 Y43.1
G1 F1350 X-6.4 Y-43.101 E126.09493
G0 F3600 X-8 Y-43.15
G1 F1350 X-8 Y43.1 E136.4222
G0 F3600 X-9.6 Y43.093
G1 F1350 X-9.6 Y-43.191 E146.75354
G0 F3600 X-11.2 Y-43.047
G1 F1350 X-11.2 Y42.98 E157.05411
G0 F3600 X-12.8 Y42.7
G1 F1350 X-12.8 Y-42.729 E167.28308
G0 F3600 X-14.4 Y-42.206
G1 F1350 X-14.4 Y42.22 E177.39195
G0 F3600 X-16 Y41.53
G1 F1350 X-16 Y-41.478 E187.33104
G0 F3600 X-17.6 Y-40.485
G1 F1350 X-17.6 Y40.597 E197.03951
G0 F3600 X-19.2 Y39.354
G1 F1350 X-19.2 Y-39.328 E206.46062
G0 F3600 X-20.8 Y-38.165
G1 F1350 X-20.8 Y38.165 E215.6001
G0 F3600 X-22.4 Y37.002
G1 F1350 X-22.4 Y-37.003 E224.4612
G0 F3600 X-24 Y-35.841
G1 F1350 X-24 Y35.839 E233.04391
G0 F3600 X-25.6 Y34.677
G1 F1350 X-25.6 Y-34.679 E241.34836
G0 F3600 X-27.2 Y-33.516
G1 F1350 X-27.2 Y33.514 E249.37429
G0 F3600 X-28.8 Y32.351
G1 F1350 X-28.8 Y-32.354 E257.12184
G0 F3600 X-30.4 Y-31.192
G1 F1350 X-30.4 Y31.189 E264.59113
G0 F3600 X-32 Y30.026
G1 F1350 X-32 Y-30.107 E271.79124
G0 F3600 X-33.6 Y-28.93
G1 F1350 X-33.6 Y28.824 E278.7065
G0 F3600 X-35.2 Y27.314
G1 F1350 X-35.2 Y-27.366 E285.25369
G0 F3600 X-36.8 Y-25.122
G1 F1350 X-36.8 Y25.18 E291.27668
G0 F3600 X-38.4 Y21.628
G1 F1350 X-38.4 Y-21.63 E296.45624
G0 F3600 X-40 Y-16.701
G1 F1350 X-40 Y16.701 E300.45568
G0 F3600 X-41.6 Y11.775
G1 F1350 X-41.6 Y-11.773 E303.27523
G0 F3600 X-43.2 Y-6.844
G1 F1350 X-43.2 Y6.848 E304.91466
G0 F3600 X8 Y43.15
G1 F1350 X8 Y-43.1 E315.24193
G0 F3600 X9.6 Y-43.093
G1 F1350 X9.6 Y43.191 E325.57328
G0 F3600 X11.2 Y43.047
G1 F1350 X11.2 Y-42.98 E335.87385
G0 F3600 X12.8 Y-42.699
G1 F1350 X12.8 Y42.729 E346.1027
G0 F3600 X14.4 Y42.206
G1 F1350 X14.4 Y-42.217 E356.21121
G0 F3600 X16 Y-41.527
G1 F1350 X16 Y41.478 E366.14994
G0 F3600 X17.6 Y40.485
G1 F1350 X17.6 Y-40.596 E375.85829
G0 F3600 X19.2 Y-39.354
G1 F1350 X19.2 Y39.328 E385.2794
G0 F3600 X20.8 Y38.165
G1 F1350 X20.8 Y-38.164 E394.41876
G0 F3600 X22.4 Y-37.002
G1 F1350 X22.4 Y37.003 E403.27986
G0 F3600 X24 Y35.841
G1 F1350 X24 Y-35.839 E411.86257
G0 F3600 X25.6 Y-34.677
G1 F1350 X25.6 Y34.679 E420.16702
G0 F3600 X27.2 Y33.516
G1 F1350 X27.2 Y-33.514 E428.19295
G0 F3600 X28.8 Y-32.351
G1 F1350 X28.8 Y32.354 E435.9405
G0 F3600 X30.4 Y31.192
G1 F1350 X30.4 Y-31.189 E443.40979
G0 F3600 X32 Y-30.026
G1 F1350 X32 Y30.107 E450.6099
G0 F3600 X33.6 Y28.93
G1 F1350 X33.6 Y-28.824 E457.52516
G0 F3600 X35.2 Y-27.314
G1 F1350 X35.2 Y27.366 E464.07235
G0 F3600 X36.8 Y25.118
G1 F1350 X36.8 Y-25.18 E470.09486
G0 F3600 X38.4 Y-21.627
G1 F1350 X38.4 Y21.619 E475.27298
G0 F3600 X40 Y16.693
G1 F1350 X40 Y-16.699 E479.27122
G0 F3600 X41.6 Y-11.771
G1 F1350 X41.6 Y11.768 E482.0897
G0 F3600 X43.2 Y6.842
G1 F1350 X43.2 Y-6.843 E483.72829
G0 F3600 X36.058 Y-26.273
;TIME_ELAPSED:184.348429
;LAYER:-5
M140 S50
G0 X36.058 Y-26.273 Z0.809
;TYPE:SUPPORT
G1 F1350 X35.94 Y-26.428 E483.75738
G1 X35.378 Y-27.116 E483.89005
G1 X35.266 Y-27.243 E483.91534
G1 X34.658 Y-27.881 E484.04695
G1 X34.516 Y-28.021 E484.07673
G1 X33.86 Y-28.618 E484.20919
G1 X32.977 Y-29.315 E484.37719
G1 X32.729 Y-29.496 E484.42304
G1 X36.309 Y-25.915 E485.17923
G1 X36.648 Y-25.431 E485.26747
G1 X37.116 Y-24.653 E485.40306
G1 X37.2 Y-24.5 E485.42912
G1 X37.611 Y-23.688 E485.56503
G1 X37.678 Y-23.544 E485.58875
G1 X37.965 Y-22.845 E485.7016
G1 X27.556 Y-33.254 E487.89993
G1 X22.383 Y-37.013 E488.85488
G1 X38.702 Y-20.694 E492.30139
G1 X39.383 Y-18.599 E492.63036
G1 X17.02 Y-40.962 E497.35334
G1 X16.641 Y-41.193 E497.41962
G1 X15.716 Y-41.674 E497.57532
G1 X15.537 Y-41.758 E497.60484
G1 X14.721 Y-42.105 E497.73727
G1 X14.325 Y-42.242 E497.79984
G1 X40.062 Y-16.505 E503.23539
G1 X40.742 Y-14.411 E503.56418
G1 X12.361 Y-42.792 E509.55813
G1 X11.653 Y-42.927 E509.66576
G1 X10.702 Y-43.037 E509.80873
G1 X41.422 Y-12.317 E516.29667
G1 X42.102 Y-10.223 E516.62546
G1 X9.226 Y-43.099 E523.56873
G1 X7.812 Y-43.099 E523.77989
G1 X42.782 Y-8.129 E531.16541
G1 X43.462 Y-6.035 E531.4942
G1 X6.397 Y-43.099 E539.32207
G1 X4.983 Y-43.099 E539.53323
G1 X44.089 Y-3.993 E547.79226
G1 X44.093 Y-3.978 E547.79458
G1 X44.13 Y-3.821 E547.81866
G1 X44.396 Y-2.445 E548.02796
G1 X44.424 Y-2.244 E548.05826
G1 X3.568 Y-43.1 E556.68688
G1 X2.154 Y-43.1 E556.89805
G1 X44.591 Y-.663 E565.86056
G1 X44.618 Y0.141 E565.9807
G1 X44.597 Y0.756 E566.0726
G1 X0.74 Y-43.1 E575.33491
G1 X-.673 Y-43.1 E575.54592
G1 X44.489 Y2.063 E585.08405
G1 X44.467 Y2.258 E585.11336
G1 X44.283 Y3.271 E585.26711
G1 X-2.088 Y-43.1 E595.06047
G1 X-3.503 Y-43.1 E595.27179
G1 X43.984 Y4.386 E605.30074
G1 X43.923 Y4.612 E605.3357
G1 X43.647 Y5.463 E605.4693
G1 X-4.917 Y-43.1 E615.72571
G1 X-6.331 Y-43.1 E615.93687
G1 X43.3 Y6.53 E626.41863
G1 X42.953 Y7.598 E626.58633
G1 X-7.779 Y-43.134 E637.30072
G1 X-8.598 Y-43.19 E637.42331
G1 X-8.791 Y-43.196 E637.45214
G1 X-9.251 Y-43.192 E637.52084
G1 X42.607 Y8.666 E648.47304
G1 X42.26 Y9.733 E648.64059
G1 X-10.591 Y-43.117 E659.8024
G1 X-10.894 Y-43.093 E659.84779
G1 X-11.784 Y-42.955 E659.98229
G1 X-11.832 Y-42.945 E659.98961
G1 X41.913 Y10.801 E671.34044
G1 X41.567 Y11.868 E671.50795
G1 X-12.981 Y-42.68 E683.02826
G1 X-13.018 Y-42.67 E683.03398
G1 X-13.847 Y-42.413 E683.1636
G1 X-14.032 Y-42.349 E683.19283
G1 X-14.055 Y-42.34 E683.19652
G1 X41.22 Y12.935 E694.87037
G1 X40.873 Y14.003 E695.03807
G1 X-15.062 Y-41.932 E706.85131
G1 X-15.829 Y-41.567 E706.97816
G1 X-15.961 Y-41.499 E707.00033
G1 X-16.013 Y-41.468 E707.00938
G1 X40.527 Y15.071 E718.95028
G1 X40.179 Y16.138 E719.11789
G1 X-16.907 Y-40.949 E731.17432
G1 X-17.693 Y-40.42 E731.31581
G1 X-17.751 Y-40.378 E731.3265
G1 X39.833 Y17.206 E743.488
G1 X39.486 Y18.273 E743.65556
G1 X-18.57 Y-39.783 E755.91674
G1 X-19.389 Y-39.188 E756.06792
G1 X39.139 Y19.34 E768.42879
G1 X38.793 Y20.408 E768.59645
G1 X-20.208 Y-38.593 E781.05721
G1 X-21.027 Y-37.998 E781.20839
G1 X38.446 Y21.476 E793.76894
G1 X38.325 Y21.846 E793.82708
G1 X38.079 Y22.522 E793.93451
G1 X-21.846 Y-37.403 E806.59042
G1 X-22.666 Y-36.808 E806.74172
G1 X37.644 Y23.502 E819.47894
G1 X37.314 Y24.198 E819.59397
G1 X37.178 Y24.451 E819.63686
G1 X-23.485 Y-36.213 E832.44874
G1 X-24.304 Y-35.618 E832.59992
G1 X36.663 Y25.349 E845.4759
G1 X36.5 Y25.626 E845.52389
G1 X36.105 Y26.206 E845.62869
G1 X-25.123 Y-35.022 E858.55979
G1 X-25.943 Y-34.428 E858.711
G1 X35.493 Y27.008 E871.68602
G1 X35.332 Y27.21 E871.7246
G1 X35.213 Y27.35 E871.75204
G1 X34.832 Y27.761 E871.83573
G1 X-26.761 Y-33.832 E884.84392
G1 X-27.581 Y-33.238 E884.99513
G1 X34.123 Y28.466 E898.02676
G1 X33.83 Y28.741 E898.08677
G1 X33.363 Y29.12 E898.17658
G1 X-28.4 Y-32.642 E911.22057
G1 X-29.219 Y-32.048 E911.37166
G1 X32.558 Y29.73 E924.41881
G1 X32.121 Y30.032 E924.49814
G1 X31.699 Y30.285 E924.57161
G1 X-30.038 Y-31.452 E937.61021
G1 X-30.858 Y-30.858 E937.76142
G1 X30.858 Y30.858 E950.79558
G1 X30.038 Y31.452 E950.94679
G1 X-31.699 Y-30.285 E963.98539
G1 X-32.121 Y-30.032 E964.05887
G1 X-32.558 Y-29.73 E964.1382
G1 X29.219 Y32.048 E977.18535
G1 X28.4 Y32.642 E977.33644
G1 X-33.363 Y-29.12 E990.38042
G1 X-33.83 Y-28.741 E990.47024
G1 X-34.123 Y-28.466 E990.53025
G1 X27.581 Y33.238 E1003.56188
G1 X26.761 Y33.832 E1003.71309
G1 X-34.832 Y-27.761 E1016.72127
G1 X-35.213 Y-27.35 E1016.80497
G1 X-35.332 Y-27.21 E1016.83241
G1 X-35.493 Y-27.008 E1016.87098
G1 X25.943 Y34.428 E1029.84601
G1 X25.123 Y35.022 E1029.99722
G1 X-36.104 Y-26.205 E1042.92811
G1 X-36.486 Y-25.646 E1043.02922
G1 X-36.575 Y-25.507 E1043.05387
G1 X-36.665 Y-25.351 E1043.08076
G1 X24.304 Y35.618 E1055.95716
G1 X23.485 Y36.213 E1056.10834
G1 X-37.178 Y-24.451 E1068.92022
G1 X-37.314 Y-24.198 E1068.96311
G1 X-37.644 Y-23.502 E1069.07814
G1 X22.666 Y36.808 E1081.81536
G1 X21.846 Y37.403 E1081.96666
G1 X-38.078 Y-22.522 E1094.62247
G1 X-38.381 Y-21.684 E1094.75554
G1 X-38.448 Y-21.478 E1094.78789
G1 X21.027 Y37.998 E1107.34887
G1 X20.208 Y38.593 E1107.50005
G1 X-38.795 Y-20.41 E1119.96123
G1 X-39.141 Y-19.342 E1120.12889
G1 X19.389 Y39.188 E1132.49018
G1 X18.57 Y39.783 E1132.64136
G1 X-39.488 Y-18.275 E1144.90296
G1 X-39.834 Y-17.207 E1145.07062
G1 X17.751 Y40.378 E1157.23233
G1 X17.693 Y40.42 E1157.24302
G1 X16.907 Y40.949 E1157.38451
G1 X-40.181 Y-16.139 E1169.44126
G1 X-40.527 Y-15.071 E1169.60891
G1 X16.013 Y41.468 E1181.54982
G1 X15.961 Y41.499 E1181.55886
G1 X15.829 Y41.567 E1181.58104
G1 X15.062 Y41.932 E1181.70789
G1 X-40.875 Y-14.004 E1193.52144
G1 X-41.221 Y-12.937 E1193.68896
G1 X14.055 Y42.34 E1205.36312
G1 X14.032 Y42.349 E1205.36681
G1 X13.847 Y42.412 E1205.396
G1 X13.018 Y42.67 E1205.52565
G1 X12.981 Y42.68 E1205.53138
G1 X-41.567 Y-11.869 E1217.05179
G1 X-41.914 Y-10.801 E1217.21949
G1 X11.832 Y42.945 E1228.57043
G1 X11.784 Y42.955 E1228.57775
G1 X10.894 Y43.093 E1228.71225
G1 X10.591 Y43.117 E1228.75764
G1 X-42.26 Y-9.734 E1239.91955
G1 X-42.607 Y-8.666 E1240.08725
G1 X9.251 Y43.192 E1251.03944
G1 X8.791 Y43.196 E1251.10814
G1 X8.598 Y43.19 E1251.13698
G1 X7.779 Y43.134 E1251.25957
G1 X-42.954 Y-7.599 E1261.97417
G1 X-43.301 Y-6.531 E1262.14187
G1 X6.33 Y43.099 E1272.62362
G1 X4.915 Y43.099 E1272.83494
G1 X-43.647 Y-5.463 E1283.09103
G1 X-43.923 Y-4.612 E1283.22463
G1 X-43.984 Y-4.386 E1283.25959
G1 X3.501 Y43.099 E1293.28822
G1 X2.087 Y43.099 E1293.49939
G1 X-44.283 Y-3.271 E1303.29254
G1 X-44.467 Y-2.258 E1303.44629
G1 X-44.489 Y-2.063 E1303.4756
G1 X0.673 Y43.099 E1313.01363
G1 X-.741 Y43.099 E1313.22479
G1 X-44.599 Y-.758 E1322.48731
G1 X-44.617 Y-.301 E1322.55561
G1 X-44.618 Y-.125 E1322.5819
G1 X-44.591 Y0.663 E1322.69964
G1 X-2.155 Y43.099 E1331.66195
G1 X-3.569 Y43.099 E1331.87311
G1 X-44.425 Y2.243 E1340.50173
G1 X-44.4 Y2.421 E1340.52857
G1 X-44.13 Y3.821 E1340.7415
G1 X-44.093 Y3.978 E1340.76559
G1 X-44.089 Y3.993 E1340.76791
G1 X-4.983 Y43.099 E1349.02693
G1 X-6.397 Y43.099 E1349.23809
G1 X-43.464 Y6.033 E1357.06638
G1 X-42.784 Y8.127 E1357.39517
G1 X-7.812 Y43.099 E1364.78111
G1 X-9.226 Y43.099 E1364.99228
G1 X-42.103 Y10.221 E1371.93587
G1 X-41.423 Y12.316 E1372.2648
G1 X-10.702 Y43.037 E1378.75295
G1 X-11.651 Y42.927 E1378.89562
G1 X-12.362 Y42.791 E1379.00372
G1 X-40.743 Y14.41 E1384.99767
G1 X-40.063 Y16.505 E1385.3266
G1 X-14.323 Y42.245 E1390.76278
G1 X-14.562 Y42.165 E1390.80042
G1 X-14.729 Y42.102 E1390.82708
